(Current profile is .../pcbgcode/profiles/generic.pp  )
(Z Axis Settings)
(  High     Up        Down     Drill)
(10.0000 	2.0000 	-0.0800 	-1.7000 )
(Settings from pcb-defaults.h)
(isolate min = 0.0000)
(isolate max = 0.2000)
(isolate step = 0.2000)
(Generated bottom outlines, bottom drill, )
(Unit of measure: mm)
(Metric Mode)
G21
(Absolute Coordinates)
G90
S12000
G00 Z10.0000 
G00 X0.0000 Y0.0000 
M03
G04 P3.000000
G00 Z2.0000 
G00 X-5.5749 Y9.5391 
G01 Z-0.0800 F50.00 
G01 X-5.4385 Y9.7269 F120.00 
G01 X-5.3331 Y9.9338 
G01 X-5.2613 Y10.1546 
G01 X-5.2250 Y10.3839 
G01 X-5.2250 Y10.6161 
G01 X-5.2613 Y10.8454 
G01 X-5.3331 Y11.0662 
G01 X-5.4385 Y11.2731 
G01 X-5.5749 Y11.4609 
G01 X-5.7391 Y11.6251 
G01 X-5.9269 Y11.7615 
G01 X-6.1338 Y11.8669 
G01 X-6.3546 Y11.9387 
G01 X-6.5839 Y11.9750 
G01 X-6.8161 Y11.9750 
G01 X-7.0454 Y11.9387 
G01 X-7.2662 Y11.8669 
G01 X-7.4731 Y11.7615 
G01 X-7.6609 Y11.6251 
G01 X-7.8251 Y11.4609 
G01 X-7.9615 Y11.2731 
G01 X-7.9860 Y11.2250 
G01 X-9.0714 Y11.2250 
G01 X-9.2115 Y11.1971 
G01 X-9.3434 Y11.1425 
G01 X-9.4622 Y11.0631 
G01 X-15.9065 Y4.6188 
G01 X-16.0662 Y4.5669 
G01 X-16.2731 Y4.4615 
G01 X-16.4609 Y4.3251 
G01 X-16.6251 Y4.1609 
G01 X-16.7615 Y3.9731 
G01 X-16.8669 Y3.7662 
G01 X-16.9387 Y3.5454 
G01 X-16.9750 Y3.3161 
G01 X-16.9750 Y3.0839 
G01 X-16.9387 Y2.8546 
G01 X-16.8669 Y2.6338 
G01 X-16.7615 Y2.4269 
G01 X-16.6251 Y2.2391 
G01 X-16.4609 Y2.0749 
G01 X-16.2731 Y1.9385 
G01 X-16.0662 Y1.8331 
G01 X-15.8454 Y1.7613 
G01 X-15.6161 Y1.7250 
G01 X-15.3839 Y1.7250 
G01 X-15.1546 Y1.7613 
G01 X-14.9338 Y1.8331 
G01 X-14.7269 Y1.9385 
G01 X-14.5391 Y2.0749 
G01 X-14.3749 Y2.2391 
G01 X-14.2385 Y2.4269 
G01 X-14.1331 Y2.6338 
G01 X-14.0613 Y2.8546 
G01 X-14.0250 Y3.0839 
G01 X-14.0250 Y3.3161 
G01 X-14.0613 Y3.5454 
G01 X-14.1331 Y3.7662 
G01 X-14.2385 Y3.9731 
G01 X-14.3492 Y4.1255 
G01 X-8.6997 Y9.7750 
G01 X-7.9860 Y9.7750 
G01 X-7.9615 Y9.7269 
G01 X-7.8251 Y9.5391 
G01 X-7.6609 Y9.3749 
G01 X-7.4731 Y9.2385 
G01 X-7.2662 Y9.1331 
G01 X-7.0454 Y9.0613 
G01 X-6.8161 Y9.0250 
G01 X-6.5839 Y9.0250 
G01 X-6.3546 Y9.0613 
G01 X-6.1338 Y9.1331 
G01 X-5.9269 Y9.2385 
G01 X-5.7391 Y9.3749 
G01 X-5.5749 Y9.5391 
G00 Z2.0000 
G00 X-4.4286 Y14.7750 
G01 Z-0.0800 F50.00 
G01 X-4.2885 Y14.8029 F120.00 
G01 X-4.1566 Y14.8575 
G01 X-4.0378 Y14.9369 
G01 X-3.9369 Y15.0378 
G01 X-1.5378 Y17.4369 
G01 X-1.4369 Y17.5378 
G01 X-1.3575 Y17.6566 
G01 X-1.3029 Y17.7885 
G01 X-1.2750 Y17.9286 
G01 X-1.2750 Y65.0714 
G01 X-1.3029 Y65.2115 
G01 X-1.3575 Y65.3434 
G01 X-1.4369 Y65.4622 
G01 X-1.5378 Y65.5631 
G01 X-4.6369 Y68.6622 
G01 X-4.7378 Y68.7631 
G01 X-4.8566 Y68.8425 
G01 X-4.9885 Y68.8971 
G01 X-5.1286 Y68.9250 
G01 X-16.7140 Y68.9250 
G01 X-16.7385 Y68.9731 
G01 X-16.8749 Y69.1609 
G01 X-17.0391 Y69.3251 
G01 X-17.2269 Y69.4615 
G01 X-17.4338 Y69.5669 
G01 X-17.6546 Y69.6387 
G01 X-17.8839 Y69.6750 
G01 X-18.1161 Y69.6750 
G01 X-18.3454 Y69.6387 
G01 X-18.5662 Y69.5669 
G01 X-18.7731 Y69.4615 
G01 X-18.9609 Y69.3251 
G01 X-19.1251 Y69.1609 
G01 X-19.2615 Y68.9731 
G01 X-19.3669 Y68.7662 
G01 X-19.4387 Y68.5454 
G01 X-19.4750 Y68.3161 
G01 X-19.4750 Y68.0839 
G01 X-19.4387 Y67.8546 
G01 X-19.3669 Y67.6338 
G01 X-19.2615 Y67.4269 
G01 X-19.1251 Y67.2391 
G01 X-18.9609 Y67.0749 
G01 X-18.7731 Y66.9385 
G01 X-18.5662 Y66.8331 
G01 X-18.3454 Y66.7613 
G01 X-18.1161 Y66.7250 
G01 X-17.8839 Y66.7250 
G01 X-17.6546 Y66.7613 
G01 X-17.4338 Y66.8331 
G01 X-17.2269 Y66.9385 
G01 X-17.0391 Y67.0749 
G01 X-16.8749 Y67.2391 
G01 X-16.7385 Y67.4269 
G01 X-16.7140 Y67.4750 
G01 X-5.5003 Y67.4750 
G01 X-2.7250 Y64.6997 
G01 X-2.7250 Y18.3003 
G01 X-4.8003 Y16.2250 
G01 X-9.1997 Y16.2250 
G01 X-11.9750 Y19.0003 
G01 X-11.9750 Y22.6140 
G01 X-11.9269 Y22.6385 
G01 X-11.7391 Y22.7749 
G01 X-11.5749 Y22.9391 
G01 X-11.4385 Y23.1269 
G01 X-11.3331 Y23.3338 
G01 X-11.2613 Y23.5546 
G01 X-11.2250 Y23.7839 
G01 X-11.2250 Y24.0161 
G01 X-11.2613 Y24.2454 
G01 X-11.3331 Y24.4662 
G01 X-11.4385 Y24.6731 
G01 X-11.5749 Y24.8609 
G01 X-11.7391 Y25.0251 
G01 X-11.9269 Y25.1615 
G01 X-12.1338 Y25.2669 
G01 X-12.3546 Y25.3387 
G01 X-12.5839 Y25.3750 
G01 X-12.8161 Y25.3750 
G01 X-13.0454 Y25.3387 
G01 X-13.2662 Y25.2669 
G01 X-13.4731 Y25.1615 
G01 X-13.6609 Y25.0251 
G01 X-13.8251 Y24.8609 
G01 X-13.9615 Y24.6731 
G01 X-14.0669 Y24.4662 
G01 X-14.1387 Y24.2454 
G01 X-14.1750 Y24.0161 
G01 X-14.1750 Y23.7839 
G01 X-14.1387 Y23.5546 
G01 X-14.0669 Y23.3338 
G01 X-13.9615 Y23.1269 
G01 X-13.8251 Y22.9391 
G01 X-13.6609 Y22.7749 
G01 X-13.4731 Y22.6385 
G01 X-13.4250 Y22.6140 
G01 X-13.4250 Y19.0003 
G01 X-16.2003 Y16.2250 
G01 X-25.1997 Y16.2250 
G01 X-27.5750 Y18.6003 
G01 X-27.5750 Y22.6140 
G01 X-27.5269 Y22.6385 
G01 X-27.3391 Y22.7749 
G01 X-27.1749 Y22.9391 
G01 X-27.0385 Y23.1269 
G01 X-26.9331 Y23.3338 
G01 X-26.8613 Y23.5546 
G01 X-26.8250 Y23.7839 
G01 X-26.8250 Y24.0161 
G01 X-26.8613 Y24.2454 
G01 X-26.9331 Y24.4662 
G01 X-27.0385 Y24.6731 
G01 X-27.1749 Y24.8609 
G01 X-27.3391 Y25.0251 
G01 X-27.5269 Y25.1615 
G01 X-27.7338 Y25.2669 
G01 X-27.9546 Y25.3387 
G01 X-28.1839 Y25.3750 
G01 X-28.4161 Y25.3750 
G01 X-28.6454 Y25.3387 
G01 X-28.8662 Y25.2669 
G01 X-29.0731 Y25.1615 
G01 X-29.2609 Y25.0251 
G01 X-29.4251 Y24.8609 
G01 X-29.5615 Y24.6731 
G01 X-29.6669 Y24.4662 
G01 X-29.7387 Y24.2454 
G01 X-29.7750 Y24.0161 
G01 X-29.7750 Y23.7839 
G01 X-29.7387 Y23.5546 
G01 X-29.6669 Y23.3338 
G01 X-29.5615 Y23.1269 
G01 X-29.4251 Y22.9391 
G01 X-29.2609 Y22.7749 
G01 X-29.0731 Y22.6385 
G01 X-29.0250 Y22.6140 
G01 X-29.0250 Y18.2286 
G01 X-28.9971 Y18.0885 
G01 X-28.9425 Y17.9566 
G01 X-28.8631 Y17.8378 
G01 X-25.9622 Y14.9369 
G01 X-25.8434 Y14.8575 
G01 X-25.7115 Y14.8029 
G01 X-25.5714 Y14.7750 
G01 X-15.8286 Y14.7750 
G01 X-15.6885 Y14.8029 
G01 X-15.5566 Y14.8575 
G01 X-15.4378 Y14.9369 
G01 X-15.3369 Y15.0378 
G01 X-12.7000 Y17.6747 
G01 X-9.9622 Y14.9369 
G01 X-9.8434 Y14.8575 
G01 X-9.7115 Y14.8029 
G01 X-9.5714 Y14.7750 
G01 X-4.4286 Y14.7750 
G00 Z2.0000 
G00 X-5.5749 Y21.5391 
G01 Z-0.0800 F50.00 
G01 X-5.4385 Y21.7269 F120.00 
G01 X-5.3331 Y21.9338 
G01 X-5.2613 Y22.1546 
G01 X-5.2250 Y22.3839 
G01 X-5.2250 Y22.6161 
G01 X-5.2613 Y22.8454 
G01 X-5.3331 Y23.0662 
G01 X-5.4385 Y23.2731 
G01 X-5.5749 Y23.4609 
G01 X-5.7391 Y23.6251 
G01 X-5.9269 Y23.7615 
G01 X-6.1338 Y23.8669 
G01 X-6.2500 Y23.9047 
G01 X-6.2500 Y26.9304 
G01 X-6.0546 Y26.9613 
G01 X-5.8338 Y27.0331 
G01 X-5.6269 Y27.1385 
G01 X-5.4391 Y27.2749 
G01 X-5.2749 Y27.4391 
G01 X-5.1385 Y27.6269 
G01 X-5.0331 Y27.8338 
G01 X-4.9613 Y28.0546 
G01 X-4.9250 Y28.2839 
G01 X-4.9250 Y28.5161 
G01 X-4.9613 Y28.7454 
G01 X-5.0331 Y28.9662 
G01 X-5.1385 Y29.1731 
G01 X-5.2749 Y29.3609 
G01 X-5.4391 Y29.5251 
G01 X-5.6269 Y29.6615 
G01 X-5.8338 Y29.7669 
G01 X-6.0546 Y29.8387 
G01 X-6.2839 Y29.8750 
G01 X-6.5161 Y29.8750 
G01 X-6.7454 Y29.8387 
G01 X-6.9662 Y29.7669 
G01 X-7.1731 Y29.6615 
G01 X-7.3609 Y29.5251 
G01 X-7.5251 Y29.3609 
G01 X-7.6615 Y29.1731 
G01 X-7.7669 Y28.9662 
G01 X-7.8387 Y28.7454 
G01 X-7.8750 Y28.5161 
G01 X-7.8750 Y28.2839 
G01 X-7.8387 Y28.0546 
G01 X-7.7669 Y27.8338 
G01 X-7.6615 Y27.6269 
G01 X-7.5251 Y27.4391 
G01 X-7.3609 Y27.2749 
G01 X-7.1731 Y27.1385 
G01 X-7.1500 Y27.1267 
G01 X-7.1500 Y26.4500 
G01 X-10.3136 Y26.4500 
G01 X-10.6149 Y26.7513 
G01 X-10.6987 Y26.8351 
G01 X-10.8013 Y26.8943 
G01 X-10.9158 Y26.9250 
G01 X-13.6844 Y26.9250 
G01 X-13.7989 Y26.8943 
G01 X-13.9015 Y26.8351 
G01 X-13.9853 Y26.7513 
G01 X-15.5351 Y25.2015 
G01 X-15.5943 Y25.0989 
G01 X-15.6151 Y25.0213 
G01 X-16.8601 Y23.7763 
G01 X-16.9193 Y23.6737 
G01 X-16.9500 Y23.5592 
G01 X-16.9500 Y21.1864 
G01 X-17.6864 Y20.4500 
G01 X-19.6136 Y20.4500 
G01 X-20.9885 Y21.8249 
G01 X-20.9331 Y21.9338 
G01 X-20.8613 Y22.1546 
G01 X-20.8250 Y22.3839 
G01 X-20.8250 Y22.6161 
G01 X-20.8613 Y22.8454 
G01 X-20.9331 Y23.0662 
G01 X-21.0385 Y23.2731 
G01 X-21.1749 Y23.4609 
G01 X-21.3391 Y23.6251 
G01 X-21.5269 Y23.7615 
G01 X-21.7338 Y23.8669 
G01 X-21.8500 Y23.9047 
G01 X-21.8500 Y26.9250 
G01 X-21.8239 Y26.9250 
G01 X-21.5946 Y26.9613 
G01 X-21.3738 Y27.0331 
G01 X-21.1669 Y27.1385 
G01 X-20.9791 Y27.2749 
G01 X-20.8149 Y27.4391 
G01 X-20.6785 Y27.6269 
G01 X-20.5731 Y27.8338 
G01 X-20.5013 Y28.0546 
G01 X-20.4650 Y28.2839 
G01 X-20.4650 Y28.5161 
G01 X-20.5013 Y28.7454 
G01 X-20.5731 Y28.9662 
G01 X-20.6785 Y29.1731 
G01 X-20.8149 Y29.3609 
G01 X-20.9791 Y29.5251 
G01 X-21.1669 Y29.6615 
G01 X-21.3738 Y29.7669 
G01 X-21.4900 Y29.8047 
G01 X-21.4900 Y29.9736 
G01 X-21.2088 Y30.2548 
G01 X-21.1662 Y30.2331 
G01 X-20.9454 Y30.1613 
G01 X-20.7161 Y30.1250 
G01 X-20.4839 Y30.1250 
G01 X-20.3000 Y30.1541 
G01 X-20.1161 Y30.1250 
G01 X-19.8839 Y30.1250 
G01 X-19.6546 Y30.1613 
G01 X-19.4338 Y30.2331 
G01 X-19.2269 Y30.3385 
G01 X-19.0391 Y30.4749 
G01 X-18.8749 Y30.6391 
G01 X-18.7385 Y30.8269 
G01 X-18.6331 Y31.0338 
G01 X-18.5613 Y31.2546 
G01 X-18.5250 Y31.4839 
G01 X-18.5250 Y31.7161 
G01 X-18.5613 Y31.9454 
G01 X-18.6331 Y32.1662 
G01 X-18.7385 Y32.3731 
G01 X-18.8749 Y32.5609 
G01 X-19.0391 Y32.7251 
G01 X-19.2269 Y32.8615 
G01 X-19.4338 Y32.9669 
G01 X-19.6546 Y33.0387 
G01 X-19.8839 Y33.0750 
G01 X-20.1161 Y33.0750 
G01 X-20.2500 Y33.0538 
G01 X-20.2500 Y39.8842 
G01 X-20.2807 Y39.9987 
G01 X-20.3399 Y40.1013 
G01 X-20.4237 Y40.1851 
G01 X-24.0750 Y43.8364 
G01 X-24.0750 Y45.6023 
G01 X-23.9180 Y45.6823 
G01 X-23.7620 Y45.7956 
G01 X-23.6256 Y45.9320 
G01 X-23.5123 Y46.0880 
G01 X-23.4247 Y46.2598 
G01 X-23.3652 Y46.4431 
G01 X-23.3350 Y46.6336 
G01 X-23.3350 Y48.8264 
G01 X-23.3652 Y49.0169 
G01 X-23.4247 Y49.2002 
G01 X-23.5123 Y49.3720 
G01 X-23.6256 Y49.5280 
G01 X-23.7620 Y49.6644 
G01 X-23.9180 Y49.7777 
G01 X-24.0898 Y49.8653 
G01 X-24.2731 Y49.9248 
G01 X-24.4636 Y49.9550 
G01 X-24.6564 Y49.9550 
G01 X-24.8469 Y49.9248 
G01 X-24.9226 Y49.9002 
G01 X-25.8250 Y50.8026 
G01 X-25.8250 Y55.1386 
G01 X-23.9751 Y56.9885 
G01 X-23.8662 Y56.9331 
G01 X-23.6454 Y56.8613 
G01 X-23.4161 Y56.8250 
G01 X-23.1839 Y56.8250 
G01 X-22.9546 Y56.8613 
G01 X-22.7338 Y56.9331 
G01 X-22.5269 Y57.0385 
G01 X-22.3391 Y57.1749 
G01 X-22.1749 Y57.3391 
G01 X-22.0385 Y57.5269 
G01 X-21.9331 Y57.7338 
G01 X-21.8900 Y57.8663 
G01 X-21.8363 Y57.8807 
G01 X-21.7337 Y57.9399 
G01 X-20.9751 Y58.6985 
G01 X-20.8662 Y58.6431 
G01 X-20.6454 Y58.5713 
G01 X-20.4161 Y58.5350 
G01 X-20.1839 Y58.5350 
G01 X-19.9546 Y58.5713 
G01 X-19.7338 Y58.6431 
G01 X-19.5269 Y58.7485 
G01 X-19.3391 Y58.8849 
G01 X-19.1749 Y59.0491 
G01 X-19.0385 Y59.2369 
G01 X-18.9331 Y59.4438 
G01 X-18.8613 Y59.6646 
G01 X-18.8250 Y59.8939 
G01 X-18.8250 Y60.1261 
G01 X-18.8363 Y60.1973 
G01 X-17.8149 Y61.2187 
G01 X-17.7557 Y61.3213 
G01 X-17.7250 Y61.4358 
G01 X-17.7250 Y62.7110 
G01 X-16.8610 Y63.5750 
G01 X-15.6390 Y63.5750 
G01 X-14.7750 Y62.7110 
G01 X-14.7750 Y58.4890 
G01 X-15.7933 Y57.4707 
G01 X-15.9954 Y57.4387 
G01 X-16.2162 Y57.3669 
G01 X-16.4231 Y57.2615 
G01 X-16.6109 Y57.1251 
G01 X-16.7751 Y56.9609 
G01 X-16.9115 Y56.7731 
G01 X-17.0169 Y56.5662 
G01 X-17.0887 Y56.3454 
G01 X-17.1250 Y56.1161 
G01 X-17.1250 Y55.8839 
G01 X-17.0887 Y55.6546 
G01 X-17.0169 Y55.4338 
G01 X-16.9115 Y55.2269 
G01 X-16.7751 Y55.0391 
G01 X-16.6109 Y54.8749 
G01 X-16.4231 Y54.7385 
G01 X-16.2162 Y54.6331 
G01 X-15.9954 Y54.5613 
G01 X-15.7661 Y54.5250 
G01 X-15.5339 Y54.5250 
G01 X-15.3046 Y54.5613 
G01 X-15.0838 Y54.6331 
G01 X-14.8769 Y54.7385 
G01 X-14.6891 Y54.8749 
G01 X-14.5249 Y55.0391 
G01 X-14.3885 Y55.2269 
G01 X-14.2831 Y55.4338 
G01 X-14.2113 Y55.6546 
G01 X-14.1750 Y55.8839 
G01 X-14.1750 Y56.1161 
G01 X-14.2113 Y56.3454 
G01 X-14.2831 Y56.5662 
G01 X-14.3885 Y56.7731 
G01 X-14.5249 Y56.9609 
G01 X-14.6891 Y57.1251 
G01 X-14.7917 Y57.1996 
G01 X-14.0487 Y57.9425 
G01 X-13.9649 Y58.0263 
G01 X-13.9057 Y58.1289 
G01 X-13.8750 Y58.2434 
G01 X-13.8750 Y62.9566 
G01 X-13.9057 Y63.0711 
G01 X-13.9649 Y63.1737 
G01 X-14.0487 Y63.2574 
G01 X-15.0925 Y64.3013 
G01 X-15.1763 Y64.3851 
G01 X-15.2789 Y64.4443 
G01 X-15.3934 Y64.4750 
G01 X-17.1066 Y64.4750 
G01 X-17.2211 Y64.4443 
G01 X-17.3237 Y64.3851 
G01 X-18.4513 Y63.2574 
G01 X-18.5351 Y63.1737 
G01 X-18.5943 Y63.0711 
G01 X-18.6250 Y62.9566 
G01 X-18.6250 Y61.6814 
G01 X-19.2552 Y61.0512 
G01 X-19.3391 Y61.1351 
G01 X-19.5269 Y61.2715 
G01 X-19.7338 Y61.3769 
G01 X-19.9546 Y61.4487 
G01 X-20.1839 Y61.4850 
G01 X-20.4161 Y61.4850 
G01 X-20.6454 Y61.4487 
G01 X-20.8662 Y61.3769 
G01 X-21.0731 Y61.2715 
G01 X-21.2609 Y61.1351 
G01 X-21.4251 Y60.9709 
G01 X-21.5615 Y60.7831 
G01 X-21.6669 Y60.5762 
G01 X-21.7387 Y60.3554 
G01 X-21.7750 Y60.1261 
G01 X-21.7750 Y59.8939 
G01 X-21.7387 Y59.6646 
G01 X-21.6669 Y59.4438 
G01 X-21.6115 Y59.3349 
G01 X-21.9827 Y58.9637 
G01 X-22.0385 Y59.0731 
G01 X-22.1749 Y59.2609 
G01 X-22.3391 Y59.4251 
G01 X-22.5269 Y59.5615 
G01 X-22.7338 Y59.6669 
G01 X-22.9546 Y59.7387 
G01 X-23.1839 Y59.7750 
G01 X-23.4161 Y59.7750 
G01 X-23.6454 Y59.7387 
G01 X-23.8662 Y59.6669 
G01 X-24.0731 Y59.5615 
G01 X-24.2609 Y59.4251 
G01 X-24.4251 Y59.2609 
G01 X-24.5615 Y59.0731 
G01 X-24.6669 Y58.8662 
G01 X-24.7047 Y58.7500 
G01 X-25.0136 Y58.7500 
G01 X-26.1885 Y59.9249 
G01 X-26.1331 Y60.0338 
G01 X-26.0613 Y60.2546 
G01 X-26.0250 Y60.4839 
G01 X-26.0250 Y60.7161 
G01 X-26.0613 Y60.9454 
G01 X-26.1331 Y61.1662 
G01 X-26.2385 Y61.3731 
G01 X-26.3749 Y61.5609 
G01 X-26.5391 Y61.7251 
G01 X-26.7269 Y61.8615 
G01 X-26.9338 Y61.9669 
G01 X-27.1546 Y62.0387 
G01 X-27.3839 Y62.0750 
G01 X-27.6161 Y62.0750 
G01 X-27.8454 Y62.0387 
G01 X-28.0662 Y61.9669 
G01 X-28.2731 Y61.8615 
G01 X-28.4609 Y61.7251 
G01 X-28.6251 Y61.5609 
G01 X-28.7615 Y61.3731 
G01 X-28.8669 Y61.1662 
G01 X-28.9387 Y60.9454 
G01 X-28.9750 Y60.7161 
G01 X-28.9750 Y60.4839 
G01 X-28.9387 Y60.2546 
G01 X-28.8669 Y60.0338 
G01 X-28.8115 Y59.9249 
G01 X-29.7868 Y58.9496 
G01 X-29.8749 Y59.0709 
G01 X-30.0391 Y59.2351 
G01 X-30.2269 Y59.3715 
G01 X-30.4338 Y59.4769 
G01 X-30.6546 Y59.5487 
G01 X-30.8839 Y59.5850 
G01 X-31.1161 Y59.5850 
G01 X-31.3454 Y59.5487 
G01 X-31.5662 Y59.4769 
G01 X-31.7731 Y59.3715 
G01 X-31.9609 Y59.2351 
G01 X-32.1251 Y59.0709 
G01 X-32.1307 Y59.0631 
G01 X-32.2020 Y59.1344 
G01 X-32.3580 Y59.2477 
G01 X-32.5298 Y59.3353 
G01 X-32.7131 Y59.3948 
G01 X-32.9036 Y59.4250 
G01 X-33.0964 Y59.4250 
G01 X-33.2869 Y59.3948 
G01 X-33.4702 Y59.3353 
G01 X-33.6420 Y59.2477 
G01 X-33.7980 Y59.1344 
G01 X-33.9344 Y58.9980 
G01 X-34.0477 Y58.8420 
G01 X-34.1352 Y58.6702 
G01 X-34.1948 Y58.4869 
G01 X-34.2250 Y58.2964 
G01 X-34.2250 Y58.1036 
G01 X-34.1948 Y57.9131 
G01 X-34.1352 Y57.7298 
G01 X-34.0477 Y57.5580 
G01 X-33.9344 Y57.4020 
G01 X-33.7980 Y57.2656 
G01 X-33.6420 Y57.1523 
G01 X-33.4702 Y57.0647 
G01 X-33.4500 Y57.0582 
G01 X-33.4500 Y56.8018 
G01 X-33.4702 Y56.7953 
G01 X-33.6420 Y56.7077 
G01 X-33.7980 Y56.5944 
G01 X-33.9344 Y56.4580 
G01 X-34.0477 Y56.3020 
G01 X-34.1352 Y56.1302 
G01 X-34.1948 Y55.9469 
G01 X-34.2250 Y55.7564 
G01 X-34.2250 Y55.5636 
G01 X-34.1948 Y55.3731 
G01 X-34.1352 Y55.1898 
G01 X-34.0477 Y55.0180 
G01 X-33.9344 Y54.8620 
G01 X-33.7980 Y54.7256 
G01 X-33.6420 Y54.6123 
G01 X-33.4702 Y54.5247 
G01 X-33.4500 Y54.5182 
G01 X-33.4500 Y54.3418 
G01 X-33.4702 Y54.3353 
G01 X-33.6420 Y54.2477 
G01 X-33.7980 Y54.1344 
G01 X-33.9344 Y53.9980 
G01 X-34.0477 Y53.8420 
G01 X-34.1352 Y53.6702 
G01 X-34.1948 Y53.4869 
G01 X-34.2250 Y53.2964 
G01 X-34.2250 Y53.1036 
G01 X-34.1948 Y52.9131 
G01 X-34.1352 Y52.7298 
G01 X-34.0477 Y52.5580 
G01 X-33.9344 Y52.4020 
G01 X-33.7980 Y52.2656 
G01 X-33.6420 Y52.1523 
G01 X-33.4702 Y52.0647 
G01 X-33.4500 Y52.0582 
G01 X-33.4500 Y51.8018 
G01 X-33.4702 Y51.7953 
G01 X-33.6420 Y51.7077 
G01 X-33.7980 Y51.5944 
G01 X-33.9344 Y51.4580 
G01 X-34.0477 Y51.3020 
G01 X-34.1352 Y51.1302 
G01 X-34.1948 Y50.9469 
G01 X-34.2250 Y50.7564 
G01 X-34.2250 Y50.5636 
G01 X-34.1948 Y50.3731 
G01 X-34.1352 Y50.1898 
G01 X-34.0477 Y50.0180 
G01 X-33.9344 Y49.8620 
G01 X-33.7980 Y49.7256 
G01 X-33.6420 Y49.6123 
G01 X-33.4702 Y49.5247 
G01 X-33.2869 Y49.4652 
G01 X-33.0964 Y49.4350 
G01 X-32.9036 Y49.4350 
G01 X-32.7131 Y49.4652 
G01 X-32.5298 Y49.5247 
G01 X-32.3580 Y49.6123 
G01 X-32.2020 Y49.7256 
G01 X-32.0656 Y49.8620 
G01 X-31.9523 Y50.0180 
G01 X-31.8647 Y50.1898 
G01 X-31.8052 Y50.3731 
G01 X-31.7750 Y50.5636 
G01 X-31.7750 Y50.7564 
G01 X-31.8052 Y50.9469 
G01 X-31.8647 Y51.1302 
G01 X-31.9523 Y51.3020 
G01 X-32.0656 Y51.4580 
G01 X-32.2020 Y51.5944 
G01 X-32.3580 Y51.7077 
G01 X-32.5298 Y51.7953 
G01 X-32.5500 Y51.8018 
G01 X-32.5500 Y52.0582 
G01 X-32.5298 Y52.0647 
G01 X-32.3580 Y52.1523 
G01 X-32.2020 Y52.2656 
G01 X-32.0656 Y52.4020 
G01 X-31.9523 Y52.5580 
G01 X-31.8647 Y52.7298 
G01 X-31.8052 Y52.9131 
G01 X-31.7750 Y53.1036 
G01 X-31.7750 Y53.2964 
G01 X-31.8052 Y53.4869 
G01 X-31.8647 Y53.6702 
G01 X-31.9523 Y53.8420 
G01 X-32.0656 Y53.9980 
G01 X-32.2020 Y54.1344 
G01 X-32.3580 Y54.2477 
G01 X-32.5298 Y54.3353 
G01 X-32.5500 Y54.3418 
G01 X-32.5500 Y54.5182 
G01 X-32.5298 Y54.5247 
G01 X-32.3580 Y54.6123 
G01 X-32.2020 Y54.7256 
G01 X-32.0656 Y54.8620 
G01 X-31.9523 Y55.0180 
G01 X-31.8647 Y55.1898 
G01 X-31.8052 Y55.3731 
G01 X-31.7750 Y55.5636 
G01 X-31.7750 Y55.7564 
G01 X-31.8052 Y55.9469 
G01 X-31.8647 Y56.1302 
G01 X-31.9523 Y56.3020 
G01 X-32.0656 Y56.4580 
G01 X-32.2020 Y56.5944 
G01 X-32.3580 Y56.7077 
G01 X-32.5298 Y56.7953 
G01 X-32.5500 Y56.8018 
G01 X-32.5500 Y57.0582 
G01 X-32.5298 Y57.0647 
G01 X-32.3580 Y57.1523 
G01 X-32.2070 Y57.2619 
G01 X-32.1251 Y57.1491 
G01 X-31.9609 Y56.9849 
G01 X-31.7731 Y56.8485 
G01 X-31.5662 Y56.7431 
G01 X-31.3454 Y56.6713 
G01 X-31.1161 Y56.6350 
G01 X-30.8839 Y56.6350 
G01 X-30.6546 Y56.6713 
G01 X-30.4338 Y56.7431 
G01 X-30.2269 Y56.8485 
G01 X-30.0391 Y56.9849 
G01 X-29.8749 Y57.1491 
G01 X-29.7385 Y57.3369 
G01 X-29.6331 Y57.5438 
G01 X-29.5613 Y57.7646 
G01 X-29.5354 Y57.9282 
G01 X-28.1751 Y59.2885 
G01 X-28.0662 Y59.2331 
G01 X-27.8454 Y59.1613 
G01 X-27.6161 Y59.1250 
G01 X-27.3839 Y59.1250 
G01 X-27.1546 Y59.1613 
G01 X-26.9338 Y59.2331 
G01 X-26.8249 Y59.2885 
G01 X-25.5601 Y58.0237 
G01 X-25.4763 Y57.9399 
G01 X-25.3737 Y57.8807 
G01 X-25.2592 Y57.8500 
G01 X-24.7047 Y57.8500 
G01 X-24.6669 Y57.7338 
G01 X-24.6115 Y57.6249 
G01 X-26.6351 Y55.6013 
G01 X-26.6943 Y55.4987 
G01 X-26.7250 Y55.3842 
G01 X-26.7250 Y50.5569 
G01 X-26.6943 Y50.4425 
G01 X-26.6351 Y50.3399 
G01 X-26.5513 Y50.2561 
G01 X-25.6278 Y49.3326 
G01 X-25.6953 Y49.2002 
G01 X-25.7548 Y49.0169 
G01 X-25.7850 Y48.8264 
G01 X-25.7850 Y46.6336 
G01 X-25.7548 Y46.4431 
G01 X-25.6953 Y46.2598 
G01 X-25.6077 Y46.0880 
G01 X-25.4944 Y45.9320 
G01 X-25.3580 Y45.7956 
G01 X-25.2020 Y45.6823 
G01 X-25.0302 Y45.5947 
G01 X-24.9750 Y45.5768 
G01 X-24.9750 Y43.5908 
G01 X-24.9443 Y43.4763 
G01 X-24.8851 Y43.3737 
G01 X-21.1500 Y39.6386 
G01 X-21.1500 Y32.9722 
G01 X-21.1662 Y32.9669 
G01 X-21.3731 Y32.8615 
G01 X-21.5609 Y32.7251 
G01 X-21.7251 Y32.5609 
G01 X-21.8615 Y32.3731 
G01 X-21.9669 Y32.1662 
G01 X-22.0387 Y31.9454 
G01 X-22.0750 Y31.7161 
G01 X-22.0750 Y31.4839 
G01 X-22.0387 Y31.2546 
G01 X-21.9669 Y31.0338 
G01 X-21.8777 Y30.8587 
G01 X-22.3001 Y30.4363 
G01 X-22.3593 Y30.3337 
G01 X-22.3900 Y30.2192 
G01 X-22.3900 Y29.8047 
G01 X-22.5062 Y29.7669 
G01 X-22.7131 Y29.6615 
G01 X-22.9009 Y29.5251 
G01 X-23.0651 Y29.3609 
G01 X-23.2015 Y29.1731 
G01 X-23.3069 Y28.9662 
G01 X-23.3787 Y28.7454 
G01 X-23.4150 Y28.5161 
G01 X-23.4150 Y28.2839 
G01 X-23.3787 Y28.0546 
G01 X-23.3069 Y27.8338 
G01 X-23.2015 Y27.6269 
G01 X-23.0651 Y27.4391 
G01 X-22.9009 Y27.2749 
G01 X-22.7500 Y27.1653 
G01 X-22.7500 Y23.9047 
G01 X-22.8662 Y23.8669 
G01 X-23.0731 Y23.7615 
G01 X-23.2609 Y23.6251 
G01 X-23.4251 Y23.4609 
G01 X-23.5615 Y23.2731 
G01 X-23.6669 Y23.0662 
G01 X-23.7387 Y22.8454 
G01 X-23.7750 Y22.6161 
G01 X-23.7750 Y22.3839 
G01 X-23.7387 Y22.1546 
G01 X-23.6669 Y21.9338 
G01 X-23.5615 Y21.7269 
G01 X-23.4251 Y21.5391 
G01 X-23.2609 Y21.3749 
G01 X-23.0731 Y21.2385 
G01 X-22.8662 Y21.1331 
G01 X-22.6454 Y21.0613 
G01 X-22.4161 Y21.0250 
G01 X-22.1839 Y21.0250 
G01 X-21.9546 Y21.0613 
G01 X-21.7338 Y21.1331 
G01 X-21.6249 Y21.1885 
G01 X-20.1601 Y19.7237 
G01 X-20.0763 Y19.6399 
G01 X-19.9737 Y19.5807 
G01 X-19.8592 Y19.5500 
G01 X-17.4408 Y19.5500 
G01 X-17.3263 Y19.5807 
G01 X-17.2237 Y19.6399 
G01 X-17.1399 Y19.7237 
G01 X-16.1399 Y20.7237 
G01 X-16.0807 Y20.8263 
G01 X-16.0500 Y20.9408 
G01 X-16.0500 Y23.3136 
G01 X-14.8149 Y24.5487 
G01 X-14.7557 Y24.6513 
G01 X-14.7349 Y24.7289 
G01 X-13.4388 Y26.0250 
G01 X-11.1614 Y26.0250 
G01 X-10.7763 Y25.6399 
G01 X-10.6737 Y25.5807 
G01 X-10.5592 Y25.5500 
G01 X-7.1500 Y25.5500 
G01 X-7.1500 Y23.9047 
G01 X-7.2662 Y23.8669 
G01 X-7.4731 Y23.7615 
G01 X-7.6609 Y23.6251 
G01 X-7.8251 Y23.4609 
G01 X-7.9615 Y23.2731 
G01 X-8.0669 Y23.0662 
G01 X-8.1387 Y22.8454 
G01 X-8.1750 Y22.6161 
G01 X-8.1750 Y22.3839 
G01 X-8.1387 Y22.1546 
G01 X-8.0669 Y21.9338 
G01 X-7.9615 Y21.7269 
G01 X-7.8251 Y21.5391 
G01 X-7.6609 Y21.3749 
G01 X-7.4731 Y21.2385 
G01 X-7.2662 Y21.1331 
G01 X-7.0454 Y21.0613 
G01 X-6.8161 Y21.0250 
G01 X-6.5839 Y21.0250 
G01 X-6.3546 Y21.0613 
G01 X-6.1338 Y21.1331 
G01 X-5.9269 Y21.2385 
G01 X-5.7391 Y21.3749 
G01 X-5.5749 Y21.5391 
G00 Z2.0000 
G00 X-6.5749 Y30.5391 
G01 Z-0.0800 F50.00 
G01 X-6.4385 Y30.7269 F120.00 
G01 X-6.3331 Y30.9338 
G01 X-6.2613 Y31.1546 
G01 X-6.2250 Y31.3839 
G01 X-6.2250 Y31.6161 
G01 X-6.2613 Y31.8454 
G01 X-6.3331 Y32.0662 
G01 X-6.4385 Y32.2731 
G01 X-6.5749 Y32.4609 
G01 X-6.7391 Y32.6251 
G01 X-6.9269 Y32.7615 
G01 X-7.1338 Y32.8669 
G01 X-7.3546 Y32.9387 
G01 X-7.5839 Y32.9750 
G01 X-7.8161 Y32.9750 
G01 X-8.0454 Y32.9387 
G01 X-8.2662 Y32.8669 
G01 X-8.4731 Y32.7615 
G01 X-8.6609 Y32.6251 
G01 X-8.8119 Y32.4741 
G01 X-8.8749 Y32.5609 
G01 X-9.0391 Y32.7251 
G01 X-9.2269 Y32.8615 
G01 X-9.4338 Y32.9669 
G01 X-9.6546 Y33.0387 
G01 X-9.8839 Y33.0750 
G01 X-10.1161 Y33.0750 
G01 X-10.3454 Y33.0387 
G01 X-10.5662 Y32.9669 
G01 X-10.7731 Y32.8615 
G01 X-10.9609 Y32.7251 
G01 X-11.1251 Y32.5609 
G01 X-11.2615 Y32.3731 
G01 X-11.3669 Y32.1662 
G01 X-11.4387 Y31.9454 
G01 X-11.4750 Y31.7161 
G01 X-11.4750 Y31.4839 
G01 X-11.4387 Y31.2546 
G01 X-11.3669 Y31.0338 
G01 X-11.2615 Y30.8269 
G01 X-11.1251 Y30.6391 
G01 X-10.9609 Y30.4749 
G01 X-10.7731 Y30.3385 
G01 X-10.5662 Y30.2331 
G01 X-10.3454 Y30.1613 
G01 X-10.1161 Y30.1250 
G01 X-9.8839 Y30.1250 
G01 X-9.6546 Y30.1613 
G01 X-9.4338 Y30.2331 
G01 X-9.2269 Y30.3385 
G01 X-9.0391 Y30.4749 
G01 X-8.8881 Y30.6259 
G01 X-8.8251 Y30.5391 
G01 X-8.6609 Y30.3749 
G01 X-8.4731 Y30.2385 
G01 X-8.2662 Y30.1331 
G01 X-8.0454 Y30.0613 
G01 X-7.8161 Y30.0250 
G01 X-7.5839 Y30.0250 
G01 X-7.3546 Y30.0613 
G01 X-7.1338 Y30.1331 
G01 X-6.9269 Y30.2385 
G01 X-6.7391 Y30.3749 
G01 X-6.5749 Y30.5391 
G00 Z2.0000 
G00 X-6.5749 Y33.7391 
G01 Z-0.0800 F50.00 
G01 X-6.4385 Y33.9269 F120.00 
G01 X-6.3331 Y34.1338 
G01 X-6.2613 Y34.3546 
G01 X-6.2250 Y34.5839 
G01 X-6.2250 Y34.8161 
G01 X-6.2613 Y35.0454 
G01 X-6.3331 Y35.2662 
G01 X-6.4385 Y35.4731 
G01 X-6.5749 Y35.6609 
G01 X-6.7391 Y35.8251 
G01 X-6.9269 Y35.9615 
G01 X-7.1338 Y36.0669 
G01 X-7.3546 Y36.1387 
G01 X-7.5278 Y36.1661 
G01 X-7.5250 Y36.1839 
G01 X-7.5250 Y36.4161 
G01 X-7.5613 Y36.6454 
G01 X-7.6331 Y36.8662 
G01 X-7.7385 Y37.0731 
G01 X-7.8749 Y37.2609 
G01 X-8.0391 Y37.4251 
G01 X-8.2269 Y37.5615 
G01 X-8.4338 Y37.6669 
G01 X-8.6546 Y37.7387 
G01 X-8.8839 Y37.7750 
G01 X-9.1161 Y37.7750 
G01 X-9.3454 Y37.7387 
G01 X-9.5662 Y37.6669 
G01 X-9.7731 Y37.5615 
G01 X-9.9609 Y37.4251 
G01 X-10.1251 Y37.2609 
G01 X-10.2615 Y37.0731 
G01 X-10.3669 Y36.8662 
G01 X-10.4387 Y36.6454 
G01 X-10.4750 Y36.4161 
G01 X-10.4750 Y36.1839 
G01 X-10.4387 Y35.9546 
G01 X-10.3669 Y35.7338 
G01 X-10.2615 Y35.5269 
G01 X-10.1251 Y35.3391 
G01 X-9.9609 Y35.1749 
G01 X-9.8599 Y35.1015 
G01 X-16.1614 Y28.8000 
G01 X-17.3791 Y28.8000 
G01 X-17.4331 Y28.9662 
G01 X-17.5385 Y29.1731 
G01 X-17.6749 Y29.3609 
G01 X-17.8391 Y29.5251 
G01 X-18.0269 Y29.6615 
G01 X-18.2338 Y29.7669 
G01 X-18.4546 Y29.8387 
G01 X-18.6839 Y29.8750 
G01 X-18.9161 Y29.8750 
G01 X-19.1454 Y29.8387 
G01 X-19.3662 Y29.7669 
G01 X-19.5731 Y29.6615 
G01 X-19.7609 Y29.5251 
G01 X-19.9251 Y29.3609 
G01 X-20.0615 Y29.1731 
G01 X-20.1669 Y28.9662 
G01 X-20.2387 Y28.7454 
G01 X-20.2750 Y28.5161 
G01 X-20.2750 Y28.2839 
G01 X-20.2387 Y28.0546 
G01 X-20.1669 Y27.8338 
G01 X-20.0615 Y27.6269 
G01 X-19.9251 Y27.4391 
G01 X-19.7609 Y27.2749 
G01 X-19.5731 Y27.1385 
G01 X-19.3662 Y27.0331 
G01 X-19.1454 Y26.9613 
G01 X-19.1250 Y26.9581 
G01 X-19.1250 Y23.9128 
G01 X-19.2662 Y23.8669 
G01 X-19.4731 Y23.7615 
G01 X-19.6609 Y23.6251 
G01 X-19.8251 Y23.4609 
G01 X-19.9615 Y23.2731 
G01 X-20.0669 Y23.0662 
G01 X-20.1387 Y22.8454 
G01 X-20.1750 Y22.6161 
G01 X-20.1750 Y22.3839 
G01 X-20.1387 Y22.1546 
G01 X-20.0669 Y21.9338 
G01 X-19.9615 Y21.7269 
G01 X-19.8251 Y21.5391 
G01 X-19.6609 Y21.3749 
G01 X-19.4731 Y21.2385 
G01 X-19.2662 Y21.1331 
G01 X-19.0454 Y21.0613 
G01 X-18.8161 Y21.0250 
G01 X-18.5839 Y21.0250 
G01 X-18.3546 Y21.0613 
G01 X-18.1338 Y21.1331 
G01 X-17.9269 Y21.2385 
G01 X-17.7391 Y21.3749 
G01 X-17.5749 Y21.5391 
G01 X-17.4385 Y21.7269 
G01 X-17.3331 Y21.9338 
G01 X-17.2613 Y22.1546 
G01 X-17.2250 Y22.3839 
G01 X-17.2250 Y22.6161 
G01 X-17.2613 Y22.8454 
G01 X-17.3331 Y23.0662 
G01 X-17.4385 Y23.2731 
G01 X-17.5749 Y23.4609 
G01 X-17.7391 Y23.6251 
G01 X-17.9269 Y23.7615 
G01 X-18.1338 Y23.8669 
G01 X-18.2250 Y23.8966 
G01 X-18.2250 Y27.0375 
G01 X-18.0269 Y27.1385 
G01 X-17.8391 Y27.2749 
G01 X-17.6749 Y27.4391 
G01 X-17.5385 Y27.6269 
G01 X-17.4331 Y27.8338 
G01 X-17.4116 Y27.9000 
G01 X-15.9158 Y27.9000 
G01 X-15.8013 Y27.9307 
G01 X-15.6987 Y27.9899 
G01 X-15.6149 Y28.0737 
G01 X-9.1654 Y34.5232 
G01 X-9.1387 Y34.3546 
G01 X-9.0669 Y34.1338 
G01 X-8.9615 Y33.9269 
G01 X-8.8251 Y33.7391 
G01 X-8.6609 Y33.5749 
G01 X-8.4731 Y33.4385 
G01 X-8.2662 Y33.3331 
G01 X-8.0454 Y33.2613 
G01 X-7.8161 Y33.2250 
G01 X-7.5839 Y33.2250 
G01 X-7.3546 Y33.2613 
G01 X-7.1338 Y33.3331 
G01 X-6.9269 Y33.4385 
G01 X-6.7391 Y33.5749 
G01 X-6.5749 Y33.7391 
G00 Z2.0000 
G00 X-6.6987 Y39.4649 
G01 Z-0.0800 F50.00 
G01 X-3.9987 Y42.1649 F120.00 
G01 X-3.9149 Y42.2487 
G01 X-3.8557 Y42.3513 
G01 X-3.8250 Y42.4658 
G01 X-3.8250 Y53.8342 
G01 X-3.8557 Y53.9487 
G01 X-3.9149 Y54.0513 
G01 X-5.0217 Y55.1581 
G01 X-4.9831 Y55.2338 
G01 X-4.9113 Y55.4546 
G01 X-4.8750 Y55.6839 
G01 X-4.8750 Y55.9161 
G01 X-4.9113 Y56.1454 
G01 X-4.9831 Y56.3662 
G01 X-5.0885 Y56.5731 
G01 X-5.2249 Y56.7609 
G01 X-5.3891 Y56.9251 
G01 X-5.5769 Y57.0615 
G01 X-5.7838 Y57.1669 
G01 X-5.9000 Y57.2047 
G01 X-5.9000 Y57.6628 
G01 X-5.6838 Y57.7331 
G01 X-5.4769 Y57.8385 
G01 X-5.2891 Y57.9749 
G01 X-5.1249 Y58.1391 
G01 X-4.9885 Y58.3269 
G01 X-4.8831 Y58.5338 
G01 X-4.8113 Y58.7546 
G01 X-4.7750 Y58.9839 
G01 X-4.7750 Y59.2161 
G01 X-4.8113 Y59.4454 
G01 X-4.8831 Y59.6662 
G01 X-4.9885 Y59.8731 
G01 X-5.1249 Y60.0609 
G01 X-5.2891 Y60.2251 
G01 X-5.4769 Y60.3615 
G01 X-5.6838 Y60.4669 
G01 X-5.8000 Y60.5047 
G01 X-5.8000 Y60.6953 
G01 X-5.6838 Y60.7331 
G01 X-5.4769 Y60.8385 
G01 X-5.2891 Y60.9749 
G01 X-5.1249 Y61.1391 
G01 X-4.9885 Y61.3269 
G01 X-4.8831 Y61.5338 
G01 X-4.8113 Y61.7546 
G01 X-4.7750 Y61.9839 
G01 X-4.7750 Y62.2161 
G01 X-4.8113 Y62.4454 
G01 X-4.8831 Y62.6662 
G01 X-4.9885 Y62.8731 
G01 X-5.1249 Y63.0609 
G01 X-5.2891 Y63.2251 
G01 X-5.4769 Y63.3615 
G01 X-5.6838 Y63.4669 
G01 X-5.9046 Y63.5387 
G01 X-6.1339 Y63.5750 
G01 X-6.3661 Y63.5750 
G01 X-6.5954 Y63.5387 
G01 X-6.8162 Y63.4669 
G01 X-7.0231 Y63.3615 
G01 X-7.2109 Y63.2251 
G01 X-7.3751 Y63.0609 
G01 X-7.5115 Y62.8731 
G01 X-7.6169 Y62.6662 
G01 X-7.6887 Y62.4454 
G01 X-7.7250 Y62.2161 
G01 X-7.7250 Y61.9839 
G01 X-7.6887 Y61.7546 
G01 X-7.6169 Y61.5338 
G01 X-7.5115 Y61.3269 
G01 X-7.3751 Y61.1391 
G01 X-7.2109 Y60.9749 
G01 X-7.0231 Y60.8385 
G01 X-6.8162 Y60.7331 
G01 X-6.7000 Y60.6953 
G01 X-6.7000 Y60.5047 
G01 X-6.8162 Y60.4669 
G01 X-7.0231 Y60.3615 
G01 X-7.2109 Y60.2251 
G01 X-7.3751 Y60.0609 
G01 X-7.5115 Y59.8731 
G01 X-7.6169 Y59.6662 
G01 X-7.6887 Y59.4454 
G01 X-7.7250 Y59.2161 
G01 X-7.7250 Y58.9839 
G01 X-7.6887 Y58.7546 
G01 X-7.6169 Y58.5338 
G01 X-7.5115 Y58.3269 
G01 X-7.3751 Y58.1391 
G01 X-7.2109 Y57.9749 
G01 X-7.0231 Y57.8385 
G01 X-6.8162 Y57.7331 
G01 X-6.8000 Y57.7278 
G01 X-6.8000 Y57.2047 
G01 X-6.9162 Y57.1669 
G01 X-7.1231 Y57.0615 
G01 X-7.3109 Y56.9251 
G01 X-7.4751 Y56.7609 
G01 X-7.6115 Y56.5731 
G01 X-7.7169 Y56.3662 
G01 X-7.7547 Y56.2500 
G01 X-7.9453 Y56.2500 
G01 X-7.9831 Y56.3662 
G01 X-8.0885 Y56.5731 
G01 X-8.2249 Y56.7609 
G01 X-8.3891 Y56.9251 
G01 X-8.5769 Y57.0615 
G01 X-8.7838 Y57.1669 
G01 X-9.0046 Y57.2387 
G01 X-9.2339 Y57.2750 
G01 X-9.4661 Y57.2750 
G01 X-9.6954 Y57.2387 
G01 X-9.9162 Y57.1669 
G01 X-10.1231 Y57.0615 
G01 X-10.3109 Y56.9251 
G01 X-10.4751 Y56.7609 
G01 X-10.6115 Y56.5731 
G01 X-10.7169 Y56.3662 
G01 X-10.7547 Y56.2500 
G01 X-10.9453 Y56.2500 
G01 X-10.9831 Y56.3662 
G01 X-11.0885 Y56.5731 
G01 X-11.2249 Y56.7609 
G01 X-11.3891 Y56.9251 
G01 X-11.5769 Y57.0615 
G01 X-11.7838 Y57.1669 
G01 X-11.9000 Y57.2047 
G01 X-11.9000 Y62.2544 
G01 X-11.9307 Y62.3689 
G01 X-11.9899 Y62.4715 
G01 X-12.0737 Y62.5552 
G01 X-14.8035 Y65.2851 
G01 X-14.9061 Y65.3443 
G01 X-15.0206 Y65.3750 
G01 X-17.4794 Y65.3750 
G01 X-17.5938 Y65.3443 
G01 X-17.6965 Y65.2851 
G01 X-17.7802 Y65.2013 
G01 X-19.0250 Y63.9566 
G01 X-19.0385 Y63.9831 
G01 X-19.1749 Y64.1709 
G01 X-19.3391 Y64.3351 
G01 X-19.5269 Y64.4715 
G01 X-19.7338 Y64.5769 
G01 X-19.9546 Y64.6487 
G01 X-20.1839 Y64.6850 
G01 X-20.4161 Y64.6850 
G01 X-20.6454 Y64.6487 
G01 X-20.8662 Y64.5769 
G01 X-21.0731 Y64.4715 
G01 X-21.2403 Y64.3500 
G01 X-21.8953 Y64.3500 
G01 X-21.9331 Y64.4662 
G01 X-22.0385 Y64.6731 
G01 X-22.1749 Y64.8609 
G01 X-22.3391 Y65.0251 
G01 X-22.5269 Y65.1615 
G01 X-22.7338 Y65.2669 
G01 X-22.9546 Y65.3387 
G01 X-23.1839 Y65.3750 
G01 X-23.4161 Y65.3750 
G01 X-23.6454 Y65.3387 
G01 X-23.8662 Y65.2669 
G01 X-24.0731 Y65.1615 
G01 X-24.2609 Y65.0251 
G01 X-24.4251 Y64.8609 
G01 X-24.5615 Y64.6731 
G01 X-24.6669 Y64.4662 
G01 X-24.7372 Y64.2500 
G01 X-26.0953 Y64.2500 
G01 X-26.1331 Y64.3662 
G01 X-26.2385 Y64.5731 
G01 X-26.3749 Y64.7609 
G01 X-26.5391 Y64.9251 
G01 X-26.7269 Y65.0615 
G01 X-26.9338 Y65.1669 
G01 X-27.1546 Y65.2387 
G01 X-27.3839 Y65.2750 
G01 X-27.6161 Y65.2750 
G01 X-27.8454 Y65.2387 
G01 X-28.0662 Y65.1669 
G01 X-28.2731 Y65.0615 
G01 X-28.4609 Y64.9251 
G01 X-28.6251 Y64.7609 
G01 X-28.7615 Y64.5731 
G01 X-28.7682 Y64.5600 
G01 X-29.5953 Y64.5600 
G01 X-29.6331 Y64.6762 
G01 X-29.7385 Y64.8831 
G01 X-29.8749 Y65.0709 
G01 X-30.0391 Y65.2351 
G01 X-30.2269 Y65.3715 
G01 X-30.4338 Y65.4769 
G01 X-30.6546 Y65.5487 
G01 X-30.8839 Y65.5850 
G01 X-31.1161 Y65.5850 
G01 X-31.3454 Y65.5487 
G01 X-31.5662 Y65.4769 
G01 X-31.7731 Y65.3715 
G01 X-31.9609 Y65.2351 
G01 X-32.1251 Y65.0709 
G01 X-32.2615 Y64.8831 
G01 X-32.3669 Y64.6762 
G01 X-32.4387 Y64.4554 
G01 X-32.4750 Y64.2261 
G01 X-32.4750 Y63.9939 
G01 X-32.4387 Y63.7646 
G01 X-32.3669 Y63.5438 
G01 X-32.3115 Y63.4349 
G01 X-32.5912 Y63.1552 
G01 X-32.7131 Y63.1948 
G01 X-32.9036 Y63.2250 
G01 X-33.0964 Y63.2250 
G01 X-33.2869 Y63.1948 
G01 X-33.4702 Y63.1352 
G01 X-33.6420 Y63.0477 
G01 X-33.7980 Y62.9344 
G01 X-33.9344 Y62.7980 
G01 X-34.0477 Y62.6420 
G01 X-34.1352 Y62.4702 
G01 X-34.1948 Y62.2869 
G01 X-34.2250 Y62.0964 
G01 X-34.2250 Y61.9036 
G01 X-34.1948 Y61.7131 
G01 X-34.1352 Y61.5298 
G01 X-34.1087 Y61.4777 
G01 X-35.2351 Y60.3513 
G01 X-35.2943 Y60.2487 
G01 X-35.3250 Y60.1342 
G01 X-35.3250 Y45.6158 
G01 X-35.2943 Y45.5013 
G01 X-35.2351 Y45.3987 
G01 X-35.1513 Y45.3149 
G01 X-31.0500 Y41.2136 
G01 X-31.0500 Y41.0722 
G01 X-31.0662 Y41.0669 
G01 X-31.2731 Y40.9615 
G01 X-31.4609 Y40.8251 
G01 X-31.6251 Y40.6609 
G01 X-31.7615 Y40.4731 
G01 X-31.8669 Y40.2662 
G01 X-31.9387 Y40.0454 
G01 X-31.9750 Y39.8161 
G01 X-31.9750 Y39.5839 
G01 X-31.9387 Y39.3546 
G01 X-31.8669 Y39.1338 
G01 X-31.7615 Y38.9269 
G01 X-31.6251 Y38.7391 
G01 X-31.4609 Y38.5749 
G01 X-31.2731 Y38.4385 
G01 X-31.0662 Y38.3331 
G01 X-30.8454 Y38.2613 
G01 X-30.6161 Y38.2250 
G01 X-30.3839 Y38.2250 
G01 X-30.1546 Y38.2613 
G01 X-29.9338 Y38.3331 
G01 X-29.7269 Y38.4385 
G01 X-29.5391 Y38.5749 
G01 X-29.3749 Y38.7391 
G01 X-29.2385 Y38.9269 
G01 X-29.1331 Y39.1338 
G01 X-29.0613 Y39.3546 
G01 X-29.0250 Y39.5839 
G01 X-29.0250 Y39.8161 
G01 X-29.0613 Y40.0454 
G01 X-29.1331 Y40.2662 
G01 X-29.2385 Y40.4731 
G01 X-29.3749 Y40.6609 
G01 X-29.5391 Y40.8251 
G01 X-29.7269 Y40.9615 
G01 X-29.9338 Y41.0669 
G01 X-30.1500 Y41.1372 
G01 X-30.1500 Y41.4592 
G01 X-30.1807 Y41.5737 
G01 X-30.2399 Y41.6763 
G01 X-34.4250 Y45.8614 
G01 X-34.4250 Y59.8886 
G01 X-33.4541 Y60.8595 
G01 X-33.2869 Y60.8052 
G01 X-33.0964 Y60.7750 
G01 X-32.9036 Y60.7750 
G01 X-32.7131 Y60.8052 
G01 X-32.5298 Y60.8647 
G01 X-32.3580 Y60.9523 
G01 X-32.2020 Y61.0656 
G01 X-32.0656 Y61.2020 
G01 X-31.9523 Y61.3580 
G01 X-31.8647 Y61.5298 
G01 X-31.8052 Y61.7131 
G01 X-31.7750 Y61.9036 
G01 X-31.7750 Y62.0964 
G01 X-31.8052 Y62.2869 
G01 X-31.8647 Y62.4702 
G01 X-31.9115 Y62.5621 
G01 X-31.6751 Y62.7985 
G01 X-31.5662 Y62.7431 
G01 X-31.3454 Y62.6713 
G01 X-31.1161 Y62.6350 
G01 X-30.8839 Y62.6350 
G01 X-30.6546 Y62.6713 
G01 X-30.4338 Y62.7431 
G01 X-30.2269 Y62.8485 
G01 X-30.0391 Y62.9849 
G01 X-29.8749 Y63.1491 
G01 X-29.7385 Y63.3369 
G01 X-29.6331 Y63.5438 
G01 X-29.5953 Y63.6600 
G01 X-28.9712 Y63.6600 
G01 X-28.9387 Y63.4546 
G01 X-28.8669 Y63.2338 
G01 X-28.7615 Y63.0269 
G01 X-28.6251 Y62.8391 
G01 X-28.4609 Y62.6749 
G01 X-28.2731 Y62.5385 
G01 X-28.0662 Y62.4331 
G01 X-27.8454 Y62.3613 
G01 X-27.6161 Y62.3250 
G01 X-27.3839 Y62.3250 
G01 X-27.1546 Y62.3613 
G01 X-26.9338 Y62.4331 
G01 X-26.7269 Y62.5385 
G01 X-26.5391 Y62.6749 
G01 X-26.3749 Y62.8391 
G01 X-26.2385 Y63.0269 
G01 X-26.1331 Y63.2338 
G01 X-26.0953 Y63.3500 
G01 X-24.6722 Y63.3500 
G01 X-24.6669 Y63.3338 
G01 X-24.5615 Y63.1269 
G01 X-24.4251 Y62.9391 
G01 X-24.2609 Y62.7749 
G01 X-24.0731 Y62.6385 
G01 X-23.8662 Y62.5331 
G01 X-23.6454 Y62.4613 
G01 X-23.4161 Y62.4250 
G01 X-23.1839 Y62.4250 
G01 X-22.9546 Y62.4613 
G01 X-22.7338 Y62.5331 
G01 X-22.5269 Y62.6385 
G01 X-22.3391 Y62.7749 
G01 X-22.1749 Y62.9391 
G01 X-22.0385 Y63.1269 
G01 X-21.9331 Y63.3338 
G01 X-21.8953 Y63.4500 
G01 X-21.7554 Y63.4500 
G01 X-21.7750 Y63.3261 
G01 X-21.7750 Y63.0939 
G01 X-21.7387 Y62.8646 
G01 X-21.6669 Y62.6438 
G01 X-21.5615 Y62.4369 
G01 X-21.4251 Y62.2491 
G01 X-21.2609 Y62.0849 
G01 X-21.0731 Y61.9485 
G01 X-20.8662 Y61.8431 
G01 X-20.6454 Y61.7713 
G01 X-20.4161 Y61.7350 
G01 X-20.1839 Y61.7350 
G01 X-19.9546 Y61.7713 
G01 X-19.7338 Y61.8431 
G01 X-19.5269 Y61.9485 
G01 X-19.3391 Y62.0849 
G01 X-19.1749 Y62.2491 
G01 X-19.0385 Y62.4369 
G01 X-18.9331 Y62.6438 
G01 X-18.8678 Y62.8448 
G01 X-18.8589 Y62.8499 
G01 X-17.2338 Y64.4750 
G01 X-15.2662 Y64.4750 
G01 X-12.8000 Y62.0088 
G01 X-12.8000 Y57.2047 
G01 X-12.9162 Y57.1669 
G01 X-13.1231 Y57.0615 
G01 X-13.3109 Y56.9251 
G01 X-13.4751 Y56.7609 
G01 X-13.6115 Y56.5731 
G01 X-13.7169 Y56.3662 
G01 X-13.7887 Y56.1454 
G01 X-13.8250 Y55.9161 
G01 X-13.8250 Y55.6839 
G01 X-13.7887 Y55.4546 
G01 X-13.7169 Y55.2338 
G01 X-13.6615 Y55.1249 
G01 X-15.7150 Y53.0714 
G01 X-15.7150 Y53.3664 
G01 X-15.7452 Y53.5569 
G01 X-15.8047 Y53.7402 
G01 X-15.8923 Y53.9120 
G01 X-16.0056 Y54.0680 
G01 X-16.1420 Y54.2044 
G01 X-16.2980 Y54.3177 
G01 X-16.4698 Y54.4053 
G01 X-16.6531 Y54.4648 
G01 X-16.8436 Y54.4950 
G01 X-17.0364 Y54.4950 
G01 X-17.2269 Y54.4648 
G01 X-17.4102 Y54.4053 
G01 X-17.5820 Y54.3177 
G01 X-17.7380 Y54.2044 
G01 X-17.8744 Y54.0680 
G01 X-17.9877 Y53.9120 
G01 X-18.0753 Y53.7402 
G01 X-18.1348 Y53.5569 
G01 X-18.1650 Y53.3664 
G01 X-18.1650 Y51.1736 
G01 X-18.1348 Y50.9831 
G01 X-18.0753 Y50.7998 
G01 X-17.9877 Y50.6280 
G01 X-17.8744 Y50.4720 
G01 X-17.7380 Y50.3356 
G01 X-17.5820 Y50.2223 
G01 X-17.4102 Y50.1347 
G01 X-17.2269 Y50.0752 
G01 X-17.0364 Y50.0450 
G01 X-16.8436 Y50.0450 
G01 X-16.6531 Y50.0752 
G01 X-16.4698 Y50.1347 
G01 X-16.2980 Y50.2223 
G01 X-16.1420 Y50.3356 
G01 X-16.0056 Y50.4720 
G01 X-15.8923 Y50.6280 
G01 X-15.8047 Y50.7998 
G01 X-15.7452 Y50.9831 
G01 X-15.7150 Y51.1736 
G01 X-15.7150 Y51.7986 
G01 X-13.0251 Y54.4885 
G01 X-12.9162 Y54.4331 
G01 X-12.6954 Y54.3613 
G01 X-12.4661 Y54.3250 
G01 X-12.2339 Y54.3250 
G01 X-12.0046 Y54.3613 
G01 X-11.7838 Y54.4331 
G01 X-11.5769 Y54.5385 
G01 X-11.3891 Y54.6749 
G01 X-11.2249 Y54.8391 
G01 X-11.0885 Y55.0269 
G01 X-10.9831 Y55.2338 
G01 X-10.9453 Y55.3500 
G01 X-10.7547 Y55.3500 
G01 X-10.7169 Y55.2338 
G01 X-10.6115 Y55.0269 
G01 X-10.4751 Y54.8391 
G01 X-10.3109 Y54.6749 
G01 X-10.1231 Y54.5385 
G01 X-9.9162 Y54.4331 
G01 X-9.6954 Y54.3613 
G01 X-9.4661 Y54.3250 
G01 X-9.2339 Y54.3250 
G01 X-9.0046 Y54.3613 
G01 X-8.7838 Y54.4331 
G01 X-8.5769 Y54.5385 
G01 X-8.3891 Y54.6749 
G01 X-8.2249 Y54.8391 
G01 X-8.0885 Y55.0269 
G01 X-7.9831 Y55.2338 
G01 X-7.9453 Y55.3500 
G01 X-7.7547 Y55.3500 
G01 X-7.7169 Y55.2338 
G01 X-7.6115 Y55.0269 
G01 X-7.4751 Y54.8391 
G01 X-7.3109 Y54.6749 
G01 X-7.1231 Y54.5385 
G01 X-6.9162 Y54.4331 
G01 X-6.6954 Y54.3613 
G01 X-6.4661 Y54.3250 
G01 X-6.2339 Y54.3250 
G01 X-6.0046 Y54.3613 
G01 X-5.7838 Y54.4331 
G01 X-5.6418 Y54.5054 
G01 X-4.7250 Y53.5886 
G01 X-4.7250 Y42.7114 
G01 X-7.1614 Y40.2750 
G01 X-7.6375 Y40.2750 
G01 X-7.7385 Y40.4731 
G01 X-7.8749 Y40.6609 
G01 X-8.0391 Y40.8251 
G01 X-8.2269 Y40.9615 
G01 X-8.4338 Y41.0669 
G01 X-8.6546 Y41.1387 
G01 X-8.8839 Y41.1750 
G01 X-9.1161 Y41.1750 
G01 X-9.3454 Y41.1387 
G01 X-9.5662 Y41.0669 
G01 X-9.7731 Y40.9615 
G01 X-9.9609 Y40.8251 
G01 X-10.1251 Y40.6609 
G01 X-10.2615 Y40.4731 
G01 X-10.3669 Y40.2662 
G01 X-10.4387 Y40.0454 
G01 X-10.4750 Y39.8161 
G01 X-10.4750 Y39.5839 
G01 X-10.4387 Y39.3546 
G01 X-10.3669 Y39.1338 
G01 X-10.2615 Y38.9269 
G01 X-10.1251 Y38.7391 
G01 X-9.9609 Y38.5749 
G01 X-9.7731 Y38.4385 
G01 X-9.5662 Y38.3331 
G01 X-9.3454 Y38.2613 
G01 X-9.1161 Y38.2250 
G01 X-8.8839 Y38.2250 
G01 X-8.6546 Y38.2613 
G01 X-8.4338 Y38.3331 
G01 X-8.2269 Y38.4385 
G01 X-8.0391 Y38.5749 
G01 X-7.8749 Y38.7391 
G01 X-7.7385 Y38.9269 
G01 X-7.6331 Y39.1338 
G01 X-7.5613 Y39.3546 
G01 X-7.5581 Y39.3750 
G01 X-6.9158 Y39.3750 
G01 X-6.8013 Y39.4057 
G01 X-6.6987 Y39.4649 
G00 Z2.0000 
G00 X-6.5964 Y41.5750 
G01 Z-0.0800 F50.00 
G01 X-6.4036 Y41.5750 F120.00 
G01 X-6.2131 Y41.6052 
G01 X-6.0298 Y41.6647 
G01 X-5.8580 Y41.7523 
G01 X-5.7020 Y41.8656 
G01 X-5.5656 Y42.0020 
G01 X-5.4523 Y42.1580 
G01 X-5.3647 Y42.3298 
G01 X-5.3052 Y42.5131 
G01 X-5.2750 Y42.7036 
G01 X-5.2750 Y42.8964 
G01 X-5.3052 Y43.0869 
G01 X-5.3647 Y43.2702 
G01 X-5.4523 Y43.4420 
G01 X-5.5656 Y43.5980 
G01 X-5.7020 Y43.7344 
G01 X-5.8580 Y43.8477 
G01 X-6.0298 Y43.9353 
G01 X-6.0500 Y43.9418 
G01 X-6.0500 Y44.3541 
G01 X-6.0046 Y44.3613 
G01 X-5.7838 Y44.4331 
G01 X-5.5769 Y44.5385 
G01 X-5.3891 Y44.6749 
G01 X-5.2249 Y44.8391 
G01 X-5.0885 Y45.0269 
G01 X-4.9831 Y45.2338 
G01 X-4.9113 Y45.4546 
G01 X-4.8750 Y45.6839 
G01 X-4.8750 Y45.9161 
G01 X-4.9113 Y46.1454 
G01 X-4.9831 Y46.3662 
G01 X-5.0885 Y46.5731 
G01 X-5.2249 Y46.7609 
G01 X-5.3891 Y46.9251 
G01 X-5.5769 Y47.0615 
G01 X-5.7838 Y47.1669 
G01 X-6.0046 Y47.2387 
G01 X-6.2339 Y47.2750 
G01 X-6.4661 Y47.2750 
G01 X-6.6954 Y47.2387 
G01 X-6.9162 Y47.1669 
G01 X-7.0748 Y47.0861 
G01 X-8.9487 Y48.9601 
G01 X-9.0513 Y49.0193 
G01 X-9.1658 Y49.0500 
G01 X-15.7559 Y49.0500 
G01 X-15.8047 Y49.2002 
G01 X-15.8923 Y49.3720 
G01 X-16.0056 Y49.5280 
G01 X-16.1420 Y49.6644 
G01 X-16.2980 Y49.7777 
G01 X-16.4698 Y49.8653 
G01 X-16.6531 Y49.9248 
G01 X-16.8436 Y49.9550 
G01 X-17.0364 Y49.9550 
G01 X-17.2269 Y49.9248 
G01 X-17.4102 Y49.8653 
G01 X-17.5820 Y49.7777 
G01 X-17.7380 Y49.6644 
G01 X-17.8744 Y49.5280 
G01 X-17.9877 Y49.3720 
G01 X-18.0753 Y49.2002 
G01 X-18.1348 Y49.0169 
G01 X-18.1650 Y48.8264 
G01 X-18.1650 Y46.6336 
G01 X-18.1348 Y46.4431 
G01 X-18.0753 Y46.2598 
G01 X-17.9877 Y46.0880 
G01 X-17.8744 Y45.9320 
G01 X-17.7380 Y45.7956 
G01 X-17.5820 Y45.6823 
G01 X-17.4102 Y45.5947 
G01 X-17.2269 Y45.5352 
G01 X-17.0364 Y45.5050 
G01 X-16.8436 Y45.5050 
G01 X-16.6531 Y45.5352 
G01 X-16.4698 Y45.5947 
G01 X-16.2980 Y45.6823 
G01 X-16.1420 Y45.7956 
G01 X-16.0056 Y45.9320 
G01 X-15.8923 Y46.0880 
G01 X-15.8047 Y46.2598 
G01 X-15.7452 Y46.4431 
G01 X-15.7150 Y46.6336 
G01 X-15.7150 Y48.1500 
G01 X-9.4114 Y48.1500 
G01 X-7.6868 Y46.4254 
G01 X-7.7169 Y46.3662 
G01 X-7.7887 Y46.1454 
G01 X-7.8250 Y45.9161 
G01 X-7.8250 Y45.6839 
G01 X-7.7887 Y45.4546 
G01 X-7.7169 Y45.2338 
G01 X-7.6115 Y45.0269 
G01 X-7.4751 Y44.8391 
G01 X-7.3109 Y44.6749 
G01 X-7.1231 Y44.5385 
G01 X-6.9500 Y44.4503 
G01 X-6.9500 Y43.9418 
G01 X-6.9702 Y43.9353 
G01 X-7.1420 Y43.8477 
G01 X-7.2980 Y43.7344 
G01 X-7.4344 Y43.5980 
G01 X-7.5477 Y43.4420 
G01 X-7.6353 Y43.2702 
G01 X-7.6948 Y43.0869 
G01 X-7.7250 Y42.8964 
G01 X-7.7250 Y42.7036 
G01 X-7.6948 Y42.5131 
G01 X-7.6353 Y42.3298 
G01 X-7.5477 Y42.1580 
G01 X-7.4344 Y42.0020 
G01 X-7.2980 Y41.8656 
G01 X-7.1420 Y41.7523 
G01 X-6.9702 Y41.6647 
G01 X-6.7869 Y41.6052 
G01 X-6.5964 Y41.5750 
G00 Z2.0000 
G00 X-9.0899 Y42.4737 
G01 Z-0.0800 F50.00 
G01 X-9.0307 Y42.5763 F120.00 
G01 X-9.0000 Y42.6908 
G01 X-9.0000 Y44.3628 
G01 X-8.7838 Y44.4331 
G01 X-8.5769 Y44.5385 
G01 X-8.3891 Y44.6749 
G01 X-8.2249 Y44.8391 
G01 X-8.0885 Y45.0269 
G01 X-7.9831 Y45.2338 
G01 X-7.9113 Y45.4546 
G01 X-7.8750 Y45.6839 
G01 X-7.8750 Y45.9161 
G01 X-7.9113 Y46.1454 
G01 X-7.9831 Y46.3662 
G01 X-8.0885 Y46.5731 
G01 X-8.2249 Y46.7609 
G01 X-8.3891 Y46.9251 
G01 X-8.5769 Y47.0615 
G01 X-8.7838 Y47.1669 
G01 X-9.0046 Y47.2387 
G01 X-9.2339 Y47.2750 
G01 X-9.4661 Y47.2750 
G01 X-9.6954 Y47.2387 
G01 X-9.9162 Y47.1669 
G01 X-10.1231 Y47.0615 
G01 X-10.3109 Y46.9251 
G01 X-10.4751 Y46.7609 
G01 X-10.6115 Y46.5731 
G01 X-10.7169 Y46.3662 
G01 X-10.7887 Y46.1454 
G01 X-10.8250 Y45.9161 
G01 X-10.8250 Y45.6839 
G01 X-10.7887 Y45.4546 
G01 X-10.7169 Y45.2338 
G01 X-10.6115 Y45.0269 
G01 X-10.4751 Y44.8391 
G01 X-10.3109 Y44.6749 
G01 X-10.1231 Y44.5385 
G01 X-9.9162 Y44.4331 
G01 X-9.9000 Y44.4278 
G01 X-9.9000 Y42.9364 
G01 X-12.3364 Y40.5000 
G01 X-14.6842 Y40.5000 
G01 X-14.7987 Y40.4693 
G01 X-14.9013 Y40.4101 
G01 X-16.1614 Y39.1500 
G01 X-17.3636 Y39.1500 
G01 X-21.6000 Y43.3864 
G01 X-21.6000 Y43.8408 
G01 X-21.4769 Y43.9035 
G01 X-21.2891 Y44.0400 
G01 X-21.1249 Y44.2042 
G01 X-20.9885 Y44.3920 
G01 X-20.8831 Y44.5989 
G01 X-20.8113 Y44.8197 
G01 X-20.7750 Y45.0490 
G01 X-20.7750 Y45.2811 
G01 X-20.8113 Y45.5105 
G01 X-20.8831 Y45.7313 
G01 X-20.9885 Y45.9381 
G01 X-21.0348 Y46.0019 
G01 X-20.9723 Y46.0880 
G01 X-20.8847 Y46.2598 
G01 X-20.8252 Y46.4431 
G01 X-20.7950 Y46.6336 
G01 X-20.7950 Y48.8264 
G01 X-20.8252 Y49.0169 
G01 X-20.8847 Y49.2002 
G01 X-20.9723 Y49.3720 
G01 X-21.0856 Y49.5280 
G01 X-21.2220 Y49.6644 
G01 X-21.3780 Y49.7777 
G01 X-21.5498 Y49.8653 
G01 X-21.7331 Y49.9248 
G01 X-21.9236 Y49.9550 
G01 X-22.1164 Y49.9550 
G01 X-22.3069 Y49.9248 
G01 X-22.4902 Y49.8653 
G01 X-22.6620 Y49.7777 
G01 X-22.8180 Y49.6644 
G01 X-22.9544 Y49.5280 
G01 X-23.0677 Y49.3720 
G01 X-23.1552 Y49.2002 
G01 X-23.2148 Y49.0169 
G01 X-23.2450 Y48.8264 
G01 X-23.2450 Y46.6336 
G01 X-23.2148 Y46.4431 
G01 X-23.1739 Y46.3170 
G01 X-23.2109 Y46.2901 
G01 X-23.3751 Y46.1260 
G01 X-23.5115 Y45.9381 
G01 X-23.6169 Y45.7313 
G01 X-23.6887 Y45.5105 
G01 X-23.7250 Y45.2811 
G01 X-23.7250 Y45.0490 
G01 X-23.6887 Y44.8197 
G01 X-23.6169 Y44.5989 
G01 X-23.5115 Y44.3920 
G01 X-23.3751 Y44.2042 
G01 X-23.2109 Y44.0400 
G01 X-23.0231 Y43.9035 
G01 X-22.8162 Y43.7981 
G01 X-22.5954 Y43.7264 
G01 X-22.5000 Y43.7113 
G01 X-22.5000 Y43.1408 
G01 X-22.4693 Y43.0263 
G01 X-22.4101 Y42.9237 
G01 X-22.3263 Y42.8399 
G01 X-17.8263 Y38.3399 
G01 X-17.7237 Y38.2807 
G01 X-17.6092 Y38.2500 
G01 X-15.9158 Y38.2500 
G01 X-15.8013 Y38.2807 
G01 X-15.6987 Y38.3399 
G01 X-15.6149 Y38.4237 
G01 X-14.4386 Y39.6000 
G01 X-12.0908 Y39.6000 
G01 X-11.9763 Y39.6307 
G01 X-11.8737 Y39.6899 
G01 X-11.7899 Y39.7737 
G01 X-9.0899 Y42.4737 
G00 Z2.0000 
G00 X-10.9750 Y42.4036 
G01 Z-0.0800 F50.00 
G01 X-10.9750 Y42.5964 F120.00 
G01 X-11.0052 Y42.7869 
G01 X-11.0647 Y42.9702 
G01 X-11.1523 Y43.1420 
G01 X-11.2656 Y43.2980 
G01 X-11.4020 Y43.4344 
G01 X-11.5580 Y43.5477 
G01 X-11.7298 Y43.6352 
G01 X-11.9131 Y43.6948 
G01 X-12.1036 Y43.7250 
G01 X-12.2964 Y43.7250 
G01 X-12.4869 Y43.6948 
G01 X-12.6702 Y43.6352 
G01 X-12.8420 Y43.5477 
G01 X-12.9980 Y43.4344 
G01 X-13.1344 Y43.2980 
G01 X-13.2477 Y43.1420 
G01 X-13.3353 Y42.9702 
G01 X-13.3418 Y42.9500 
G01 X-14.4640 Y42.9500 
G01 X-14.5391 Y43.0251 
G01 X-14.7269 Y43.1615 
G01 X-14.9338 Y43.2669 
G01 X-15.1546 Y43.3387 
G01 X-15.3839 Y43.3750 
G01 X-15.6161 Y43.3750 
G01 X-15.8454 Y43.3387 
G01 X-16.0662 Y43.2669 
G01 X-16.2731 Y43.1615 
G01 X-16.4609 Y43.0251 
G01 X-16.6251 Y42.8609 
G01 X-16.7615 Y42.6731 
G01 X-16.8669 Y42.4662 
G01 X-16.9205 Y42.3013 
G01 X-17.0954 Y42.2736 
G01 X-17.3162 Y42.2019 
G01 X-17.5231 Y42.0965 
G01 X-17.7109 Y41.9600 
G01 X-17.8751 Y41.7958 
G01 X-18.0115 Y41.6080 
G01 X-18.1169 Y41.4011 
G01 X-18.1887 Y41.1803 
G01 X-18.2250 Y40.9510 
G01 X-18.2250 Y40.7188 
G01 X-18.1887 Y40.4895 
G01 X-18.1169 Y40.2687 
G01 X-18.0115 Y40.0619 
G01 X-17.8751 Y39.8740 
G01 X-17.7109 Y39.7099 
G01 X-17.5231 Y39.5734 
G01 X-17.3162 Y39.4680 
G01 X-17.0954 Y39.3963 
G01 X-16.8661 Y39.3599 
G01 X-16.6339 Y39.3599 
G01 X-16.4046 Y39.3963 
G01 X-16.1838 Y39.4680 
G01 X-15.9769 Y39.5734 
G01 X-15.7891 Y39.7099 
G01 X-15.6249 Y39.8740 
G01 X-15.4885 Y40.0619 
G01 X-15.3831 Y40.2687 
G01 X-15.3295 Y40.4336 
G01 X-15.1546 Y40.4613 
G01 X-14.9338 Y40.5331 
G01 X-14.7269 Y40.6385 
G01 X-14.5391 Y40.7749 
G01 X-14.3749 Y40.9391 
G01 X-14.2385 Y41.1269 
G01 X-14.1331 Y41.3338 
G01 X-14.0613 Y41.5546 
G01 X-14.0250 Y41.7839 
G01 X-14.0250 Y42.0161 
G01 X-14.0304 Y42.0500 
G01 X-13.3418 Y42.0500 
G01 X-13.3353 Y42.0298 
G01 X-13.2477 Y41.8580 
G01 X-13.1344 Y41.7020 
G01 X-12.9980 Y41.5656 
G01 X-12.8420 Y41.4523 
G01 X-12.6702 Y41.3647 
G01 X-12.4869 Y41.3052 
G01 X-12.2964 Y41.2750 
G01 X-12.1036 Y41.2750 
G01 X-11.9131 Y41.3052 
G01 X-11.7298 Y41.3647 
G01 X-11.5580 Y41.4523 
G01 X-11.4020 Y41.5656 
G01 X-11.2656 Y41.7020 
G01 X-11.1523 Y41.8580 
G01 X-11.0647 Y42.0298 
G01 X-11.0052 Y42.2131 
G01 X-10.9750 Y42.4036 
G00 Z2.0000 
G00 X-11.2249 Y44.8391 
G01 Z-0.0800 F50.00 
G01 X-11.0885 Y45.0269 F120.00 
G01 X-10.9831 Y45.2338 
G01 X-10.9113 Y45.4546 
G01 X-10.8750 Y45.6839 
G01 X-10.8750 Y45.9161 
G01 X-10.9113 Y46.1454 
G01 X-10.9831 Y46.3662 
G01 X-11.0885 Y46.5731 
G01 X-11.2249 Y46.7609 
G01 X-11.3891 Y46.9251 
G01 X-11.5769 Y47.0615 
G01 X-11.7838 Y47.1669 
G01 X-12.0046 Y47.2387 
G01 X-12.2339 Y47.2750 
G01 X-12.4661 Y47.2750 
G01 X-12.6954 Y47.2387 
G01 X-12.9162 Y47.1669 
G01 X-13.1231 Y47.0615 
G01 X-13.3109 Y46.9251 
G01 X-13.4751 Y46.7609 
G01 X-13.6115 Y46.5731 
G01 X-13.7169 Y46.3662 
G01 X-13.7887 Y46.1454 
G01 X-13.7919 Y46.1250 
G01 X-15.5842 Y46.1250 
G01 X-15.6987 Y46.0943 
G01 X-15.8013 Y46.0351 
G01 X-16.3864 Y45.4500 
G01 X-17.8017 Y45.4500 
G01 X-17.8113 Y45.5105 
G01 X-17.8831 Y45.7313 
G01 X-17.9885 Y45.9381 
G01 X-18.1249 Y46.1260 
G01 X-18.2891 Y46.2901 
G01 X-18.3261 Y46.3170 
G01 X-18.2852 Y46.4431 
G01 X-18.2550 Y46.6336 
G01 X-18.2550 Y48.8264 
G01 X-18.2852 Y49.0169 
G01 X-18.3447 Y49.2002 
G01 X-18.4323 Y49.3720 
G01 X-18.5456 Y49.5280 
G01 X-18.6820 Y49.6644 
G01 X-18.8380 Y49.7777 
G01 X-19.0098 Y49.8653 
G01 X-19.1931 Y49.9248 
G01 X-19.3836 Y49.9550 
G01 X-19.5764 Y49.9550 
G01 X-19.7669 Y49.9248 
G01 X-19.9502 Y49.8653 
G01 X-20.1220 Y49.7777 
G01 X-20.2780 Y49.6644 
G01 X-20.4144 Y49.5280 
G01 X-20.5277 Y49.3720 
G01 X-20.6152 Y49.2002 
G01 X-20.6748 Y49.0169 
G01 X-20.7050 Y48.8264 
G01 X-20.7050 Y46.6336 
G01 X-20.6748 Y46.4431 
G01 X-20.6152 Y46.2598 
G01 X-20.5277 Y46.0880 
G01 X-20.4652 Y46.0019 
G01 X-20.5115 Y45.9381 
G01 X-20.6169 Y45.7313 
G01 X-20.6887 Y45.5105 
G01 X-20.7250 Y45.2811 
G01 X-20.7250 Y45.0490 
G01 X-20.6887 Y44.8197 
G01 X-20.6169 Y44.5989 
G01 X-20.5115 Y44.3920 
G01 X-20.3751 Y44.2042 
G01 X-20.2109 Y44.0400 
G01 X-20.0231 Y43.9035 
G01 X-19.8162 Y43.7981 
G01 X-19.5954 Y43.7264 
G01 X-19.3661 Y43.6901 
G01 X-19.1339 Y43.6901 
G01 X-18.9046 Y43.7264 
G01 X-18.6838 Y43.7981 
G01 X-18.4769 Y43.9035 
G01 X-18.2891 Y44.0400 
G01 X-18.1249 Y44.2042 
G01 X-17.9885 Y44.3920 
G01 X-17.9080 Y44.5500 
G01 X-16.1408 Y44.5500 
G01 X-16.0263 Y44.5807 
G01 X-15.9237 Y44.6399 
G01 X-15.8399 Y44.7237 
G01 X-15.3386 Y45.2250 
G01 X-13.7125 Y45.2250 
G01 X-13.6115 Y45.0269 
G01 X-13.4751 Y44.8391 
G01 X-13.3109 Y44.6749 
G01 X-13.1231 Y44.5385 
G01 X-12.9162 Y44.4331 
G01 X-12.6954 Y44.3613 
G01 X-12.4661 Y44.3250 
G01 X-12.2339 Y44.3250 
G01 X-12.0046 Y44.3613 
G01 X-11.7838 Y44.4331 
G01 X-11.5769 Y44.5385 
G01 X-11.3891 Y44.6749 
G01 X-11.2249 Y44.8391 
G00 Z2.0000 
G00 X-11.2269 Y39.2615 
G01 Z-0.0800 F50.00 
G01 X-11.4338 Y39.3669 F120.00 
G01 X-11.6546 Y39.4387 
G01 X-11.8839 Y39.4750 
G01 X-12.1161 Y39.4750 
G01 X-12.3454 Y39.4387 
G01 X-12.5662 Y39.3669 
G01 X-12.7731 Y39.2615 
G01 X-12.9609 Y39.1251 
G01 X-13.1251 Y38.9609 
G01 X-13.2615 Y38.7731 
G01 X-13.3669 Y38.5662 
G01 X-13.4387 Y38.3454 
G01 X-13.4750 Y38.1161 
G01 X-13.4750 Y37.8839 
G01 X-13.4387 Y37.6546 
G01 X-13.3669 Y37.4338 
G01 X-13.2946 Y37.2918 
G01 X-15.6601 Y34.9263 
G01 X-15.7193 Y34.8237 
G01 X-15.7500 Y34.7092 
G01 X-15.7500 Y33.3538 
G01 X-15.8454 Y33.3387 
G01 X-16.0662 Y33.2669 
G01 X-16.2731 Y33.1615 
G01 X-16.4609 Y33.0251 
G01 X-16.6251 Y32.8609 
G01 X-16.7615 Y32.6731 
G01 X-16.8669 Y32.4662 
G01 X-16.9387 Y32.2454 
G01 X-16.9750 Y32.0161 
G01 X-16.9750 Y31.7839 
G01 X-16.9387 Y31.5546 
G01 X-16.8669 Y31.3338 
G01 X-16.7615 Y31.1269 
G01 X-16.6251 Y30.9391 
G01 X-16.4609 Y30.7749 
G01 X-16.2731 Y30.6385 
G01 X-16.0662 Y30.5331 
G01 X-15.8454 Y30.4613 
G01 X-15.6161 Y30.4250 
G01 X-15.3839 Y30.4250 
G01 X-15.1546 Y30.4613 
G01 X-14.9338 Y30.5331 
G01 X-14.7269 Y30.6385 
G01 X-14.5391 Y30.7749 
G01 X-14.3749 Y30.9391 
G01 X-14.2385 Y31.1269 
G01 X-14.1331 Y31.3338 
G01 X-14.0613 Y31.5546 
G01 X-14.0250 Y31.7839 
G01 X-14.0250 Y32.0161 
G01 X-14.0613 Y32.2454 
G01 X-14.1331 Y32.4662 
G01 X-14.2385 Y32.6731 
G01 X-14.3749 Y32.8609 
G01 X-14.5391 Y33.0251 
G01 X-14.7269 Y33.1615 
G01 X-14.8500 Y33.2242 
G01 X-14.8500 Y34.4636 
G01 X-12.6419 Y36.6717 
G01 X-12.5662 Y36.6331 
G01 X-12.3454 Y36.5613 
G01 X-12.1161 Y36.5250 
G01 X-11.8839 Y36.5250 
G01 X-11.6546 Y36.5613 
G01 X-11.4338 Y36.6331 
G01 X-11.2269 Y36.7385 
G01 X-11.0391 Y36.8749 
G01 X-10.8749 Y37.0391 
G01 X-10.7385 Y37.2269 
G01 X-10.6331 Y37.4338 
G01 X-10.5613 Y37.6546 
G01 X-10.5250 Y37.8839 
G01 X-10.5250 Y38.1161 
G01 X-10.5613 Y38.3454 
G01 X-10.6331 Y38.5662 
G01 X-10.7385 Y38.7731 
G01 X-10.8749 Y38.9609 
G01 X-11.0391 Y39.1251 
G01 X-11.2269 Y39.2615 
G00 Z2.0000 
G00 X-11.2839 Y29.8750 
G01 Z-0.0800 F50.00 
G01 X-11.5161 Y29.8750 F120.00 
G01 X-11.7454 Y29.8387 
G01 X-11.9662 Y29.7669 
G01 X-12.1000 Y29.6988 
G01 X-12.2338 Y29.7669 
G01 X-12.4546 Y29.8387 
G01 X-12.6839 Y29.8750 
G01 X-12.9161 Y29.8750 
G01 X-13.1454 Y29.8387 
G01 X-13.3662 Y29.7669 
G01 X-13.5731 Y29.6615 
G01 X-13.7609 Y29.5251 
G01 X-13.9251 Y29.3609 
G01 X-14.0615 Y29.1731 
G01 X-14.1669 Y28.9662 
G01 X-14.2387 Y28.7454 
G01 X-14.2750 Y28.5161 
G01 X-14.2750 Y28.2839 
G01 X-14.2387 Y28.0546 
G01 X-14.1669 Y27.8338 
G01 X-14.0615 Y27.6269 
G01 X-13.9251 Y27.4391 
G01 X-13.7609 Y27.2749 
G01 X-13.5731 Y27.1385 
G01 X-13.3662 Y27.0331 
G01 X-13.1454 Y26.9613 
G01 X-12.9161 Y26.9250 
G01 X-12.6839 Y26.9250 
G01 X-12.4546 Y26.9613 
G01 X-12.2338 Y27.0331 
G01 X-12.1000 Y27.1012 
G01 X-11.9662 Y27.0331 
G01 X-11.7454 Y26.9613 
G01 X-11.5161 Y26.9250 
G01 X-11.2839 Y26.9250 
G01 X-11.0546 Y26.9613 
G01 X-10.8338 Y27.0331 
G01 X-10.6269 Y27.1385 
G01 X-10.4391 Y27.2749 
G01 X-10.2749 Y27.4391 
G01 X-10.1385 Y27.6269 
G01 X-10.0331 Y27.8338 
G01 X-9.9613 Y28.0546 
G01 X-9.9250 Y28.2839 
G01 X-9.9250 Y28.5161 
G01 X-9.9613 Y28.7454 
G01 X-10.0331 Y28.9662 
G01 X-10.1385 Y29.1731 
G01 X-10.2749 Y29.3609 
G01 X-10.4391 Y29.5251 
G01 X-10.6269 Y29.6615 
G01 X-10.8338 Y29.7669 
G01 X-11.0546 Y29.8387 
G01 X-11.2839 Y29.8750 
G00 Z2.0000 
G00 X-25.9791 Y29.5251 
G01 Z-0.0800 F50.00 
G01 X-26.1669 Y29.6615 F120.00 
G01 X-26.3738 Y29.7669 
G01 X-26.5946 Y29.8387 
G01 X-26.8239 Y29.8750 
G01 X-27.0561 Y29.8750 
G01 X-27.2854 Y29.8387 
G01 X-27.4700 Y29.7787 
G01 X-27.6546 Y29.8387 
G01 X-27.8839 Y29.8750 
G01 X-28.1161 Y29.8750 
G01 X-28.3454 Y29.8387 
G01 X-28.5662 Y29.7669 
G01 X-28.7731 Y29.6615 
G01 X-28.9609 Y29.5251 
G01 X-29.1251 Y29.3609 
G01 X-29.2615 Y29.1731 
G01 X-29.3669 Y28.9662 
G01 X-29.4387 Y28.7454 
G01 X-29.4750 Y28.5161 
G01 X-29.4750 Y28.2839 
G01 X-29.4387 Y28.0546 
G01 X-29.3669 Y27.8338 
G01 X-29.2615 Y27.6269 
G01 X-29.1251 Y27.4391 
G01 X-28.9609 Y27.2749 
G01 X-28.7731 Y27.1385 
G01 X-28.5662 Y27.0331 
G01 X-28.3454 Y26.9613 
G01 X-28.1161 Y26.9250 
G01 X-27.8839 Y26.9250 
G01 X-27.6546 Y26.9613 
G01 X-27.4700 Y27.0213 
G01 X-27.2854 Y26.9613 
G01 X-27.0561 Y26.9250 
G01 X-26.8239 Y26.9250 
G01 X-26.5946 Y26.9613 
G01 X-26.3738 Y27.0331 
G01 X-26.1669 Y27.1385 
G01 X-25.9791 Y27.2749 
G01 X-25.8149 Y27.4391 
G01 X-25.6785 Y27.6269 
G01 X-25.5731 Y27.8338 
G01 X-25.5013 Y28.0546 
G01 X-25.4650 Y28.2839 
G01 X-25.4650 Y28.5161 
G01 X-25.5013 Y28.7454 
G01 X-25.5731 Y28.9662 
G01 X-25.6785 Y29.1731 
G01 X-25.8149 Y29.3609 
G01 X-25.9791 Y29.5251 
G00 Z2.0000 
G00 X-25.8839 Y30.9250 
G01 Z-0.0800 F50.00 
G01 X-25.6546 Y30.9613 F120.00 
G01 X-25.4338 Y31.0331 
G01 X-25.2269 Y31.1385 
G01 X-25.0391 Y31.2749 
G01 X-24.8749 Y31.4391 
G01 X-24.7385 Y31.6269 
G01 X-24.6331 Y31.8338 
G01 X-24.5613 Y32.0546 
G01 X-24.5250 Y32.2839 
G01 X-24.5250 Y32.5161 
G01 X-24.5613 Y32.7454 
G01 X-24.6331 Y32.9662 
G01 X-24.7385 Y33.1731 
G01 X-24.8749 Y33.3609 
G01 X-25.0391 Y33.5251 
G01 X-25.2269 Y33.6615 
G01 X-25.4338 Y33.7669 
G01 X-25.6546 Y33.8387 
G01 X-25.8839 Y33.8750 
G01 X-26.1161 Y33.8750 
G01 X-26.3454 Y33.8387 
G01 X-26.5662 Y33.7669 
G01 X-26.7731 Y33.6615 
G01 X-26.9609 Y33.5251 
G01 X-27.1251 Y33.3609 
G01 X-27.2615 Y33.1731 
G01 X-27.3669 Y32.9662 
G01 X-27.4047 Y32.8500 
G01 X-27.9592 Y32.8500 
G01 X-28.0737 Y32.8193 
G01 X-28.1763 Y32.7601 
G01 X-28.9513 Y31.9851 
G01 X-29.0351 Y31.9013 
G01 X-29.0943 Y31.7987 
G01 X-29.1250 Y31.6842 
G01 X-29.1250 Y30.6338 
G01 X-32.2763 Y27.4825 
G01 X-32.3601 Y27.3987 
G01 X-32.4193 Y27.2961 
G01 X-32.4500 Y27.1816 
G01 X-32.4500 Y21.1864 
G01 X-33.1864 Y20.4500 
G01 X-34.3360 Y20.4500 
G01 X-35.7750 Y21.8890 
G01 X-35.7750 Y35.0886 
G01 X-34.1751 Y36.6885 
G01 X-34.0662 Y36.6331 
G01 X-33.8454 Y36.5613 
G01 X-33.6161 Y36.5250 
G01 X-33.3839 Y36.5250 
G01 X-33.1546 Y36.5613 
G01 X-32.9338 Y36.6331 
G01 X-32.7269 Y36.7385 
G01 X-32.5391 Y36.8749 
G01 X-32.3749 Y37.0391 
G01 X-32.2385 Y37.2269 
G01 X-32.1331 Y37.4338 
G01 X-32.0613 Y37.6546 
G01 X-32.0250 Y37.8839 
G01 X-32.0250 Y38.1161 
G01 X-32.0613 Y38.3454 
G01 X-32.1331 Y38.5662 
G01 X-32.2385 Y38.7731 
G01 X-32.3749 Y38.9609 
G01 X-32.5391 Y39.1251 
G01 X-32.7269 Y39.2615 
G01 X-32.9338 Y39.3669 
G01 X-33.1546 Y39.4387 
G01 X-33.3839 Y39.4750 
G01 X-33.6161 Y39.4750 
G01 X-33.8454 Y39.4387 
G01 X-34.0662 Y39.3669 
G01 X-34.2731 Y39.2615 
G01 X-34.4609 Y39.1251 
G01 X-34.6251 Y38.9609 
G01 X-34.7615 Y38.7731 
G01 X-34.8669 Y38.5662 
G01 X-34.9387 Y38.3454 
G01 X-34.9750 Y38.1161 
G01 X-34.9750 Y37.8839 
G01 X-34.9387 Y37.6546 
G01 X-34.8669 Y37.4338 
G01 X-34.8115 Y37.3249 
G01 X-36.5851 Y35.5513 
G01 X-36.6443 Y35.4487 
G01 X-36.6750 Y35.3342 
G01 X-36.6750 Y21.6434 
G01 X-36.6443 Y21.5289 
G01 X-36.5851 Y21.4263 
G01 X-34.7987 Y19.6399 
G01 X-34.6961 Y19.5807 
G01 X-34.5816 Y19.5500 
G01 X-32.9408 Y19.5500 
G01 X-32.8263 Y19.5807 
G01 X-32.7237 Y19.6399 
G01 X-32.6399 Y19.7237 
G01 X-31.7237 Y20.6399 
G01 X-31.6399 Y20.7237 
G01 X-31.5807 Y20.8263 
G01 X-31.5500 Y20.9408 
G01 X-31.5500 Y26.9360 
G01 X-28.3149 Y30.1711 
G01 X-28.2557 Y30.2737 
G01 X-28.2250 Y30.3881 
G01 X-28.2250 Y31.4386 
G01 X-27.7136 Y31.9500 
G01 X-27.4047 Y31.9500 
G01 X-27.3669 Y31.8338 
G01 X-27.2615 Y31.6269 
G01 X-27.1251 Y31.4391 
G01 X-26.9609 Y31.2749 
G01 X-26.7731 Y31.1385 
G01 X-26.5662 Y31.0331 
G01 X-26.3454 Y30.9613 
G01 X-26.1161 Y30.9250 
G01 X-25.8839 Y30.9250 
G00 Z2.0000 
G00 X-29.2331 Y31.0338 
G01 Z-0.0800 F50.00 
G01 X-29.1613 Y31.2546 F120.00 
G01 X-29.1250 Y31.4839 
G01 X-29.1250 Y31.7161 
G01 X-29.1613 Y31.9454 
G01 X-29.2331 Y32.1662 
G01 X-29.3385 Y32.3731 
G01 X-29.4749 Y32.5609 
G01 X-29.6391 Y32.7251 
G01 X-29.8269 Y32.8615 
G01 X-30.0338 Y32.9669 
G01 X-30.2546 Y33.0387 
G01 X-30.4839 Y33.0750 
G01 X-30.7161 Y33.0750 
G01 X-30.9454 Y33.0387 
G01 X-31.1662 Y32.9669 
G01 X-31.3731 Y32.8615 
G01 X-31.5609 Y32.7251 
G01 X-31.6096 Y32.6763 
G01 X-31.7269 Y32.7615 
G01 X-31.9338 Y32.8669 
G01 X-32.1546 Y32.9387 
G01 X-32.3839 Y32.9750 
G01 X-32.6161 Y32.9750 
G01 X-32.8454 Y32.9387 
G01 X-33.0662 Y32.8669 
G01 X-33.2731 Y32.7615 
G01 X-33.4609 Y32.6251 
G01 X-33.6251 Y32.4609 
G01 X-33.7615 Y32.2731 
G01 X-33.8669 Y32.0662 
G01 X-33.9387 Y31.8454 
G01 X-33.9750 Y31.6161 
G01 X-33.9750 Y31.3839 
G01 X-33.9387 Y31.1546 
G01 X-33.8669 Y30.9338 
G01 X-33.7615 Y30.7269 
G01 X-33.6251 Y30.5391 
G01 X-33.4609 Y30.3749 
G01 X-33.2731 Y30.2385 
G01 X-33.0662 Y30.1331 
G01 X-32.8454 Y30.0613 
G01 X-32.6161 Y30.0250 
G01 X-32.3839 Y30.0250 
G01 X-32.1546 Y30.0613 
G01 X-31.9338 Y30.1331 
G01 X-31.7269 Y30.2385 
G01 X-31.5391 Y30.3749 
G01 X-31.4904 Y30.4237 
G01 X-31.3731 Y30.3385 
G01 X-31.1662 Y30.2331 
G01 X-30.9454 Y30.1613 
G01 X-30.7161 Y30.1250 
G01 X-30.4839 Y30.1250 
G01 X-30.2546 Y30.1613 
G01 X-30.0338 Y30.2331 
G01 X-29.8269 Y30.3385 
G01 X-29.6391 Y30.4749 
G01 X-29.4749 Y30.6391 
G01 X-29.3385 Y30.8269 
G01 X-29.2331 Y31.0338 
G00 Z2.0000 
G00 X-29.3749 Y35.3391 
G01 Z-0.0800 F50.00 
G01 X-29.2385 Y35.5269 F120.00 
G01 X-29.1331 Y35.7338 
G01 X-29.0613 Y35.9546 
G01 X-29.0250 Y36.1839 
G01 X-29.0250 Y36.4161 
G01 X-29.0613 Y36.6454 
G01 X-29.1331 Y36.8662 
G01 X-29.2385 Y37.0731 
G01 X-29.3749 Y37.2609 
G01 X-29.5391 Y37.4251 
G01 X-29.7269 Y37.5615 
G01 X-29.9338 Y37.6669 
G01 X-30.1546 Y37.7387 
G01 X-30.3839 Y37.7750 
G01 X-30.6161 Y37.7750 
G01 X-30.8454 Y37.7387 
G01 X-31.0662 Y37.6669 
G01 X-31.2731 Y37.5615 
G01 X-31.4609 Y37.4251 
G01 X-31.6251 Y37.2609 
G01 X-31.7615 Y37.0731 
G01 X-31.8669 Y36.8662 
G01 X-31.9387 Y36.6454 
G01 X-31.9750 Y36.4161 
G01 X-31.9750 Y36.1839 
G01 X-31.9577 Y36.0747 
G01 X-32.1546 Y36.1387 
G01 X-32.3839 Y36.1750 
G01 X-32.6161 Y36.1750 
G01 X-32.8454 Y36.1387 
G01 X-33.0662 Y36.0669 
G01 X-33.2731 Y35.9615 
G01 X-33.4609 Y35.8251 
G01 X-33.6251 Y35.6609 
G01 X-33.7615 Y35.4731 
G01 X-33.8669 Y35.2662 
G01 X-33.9387 Y35.0454 
G01 X-33.9750 Y34.8161 
G01 X-33.9750 Y34.5839 
G01 X-33.9387 Y34.3546 
G01 X-33.8669 Y34.1338 
G01 X-33.8368 Y34.0746 
G01 X-34.7851 Y33.1263 
G01 X-34.8443 Y33.0237 
G01 X-34.8750 Y32.9092 
G01 X-34.8750 Y30.5408 
G01 X-34.8443 Y30.4263 
G01 X-34.7851 Y30.3237 
G01 X-34.7013 Y30.2399 
G01 X-34.6500 Y30.1886 
G01 X-34.6500 Y29.7242 
G01 X-34.7731 Y29.6615 
G01 X-34.9609 Y29.5251 
G01 X-35.1251 Y29.3609 
G01 X-35.2615 Y29.1731 
G01 X-35.3669 Y28.9662 
G01 X-35.4387 Y28.7454 
G01 X-35.4750 Y28.5161 
G01 X-35.4750 Y28.2839 
G01 X-35.4387 Y28.0546 
G01 X-35.3669 Y27.8338 
G01 X-35.2615 Y27.6269 
G01 X-35.1251 Y27.4391 
G01 X-34.9609 Y27.2749 
G01 X-34.7731 Y27.1385 
G01 X-34.7500 Y27.1267 
G01 X-34.7500 Y23.9047 
G01 X-34.8662 Y23.8669 
G01 X-35.0731 Y23.7615 
G01 X-35.2609 Y23.6251 
G01 X-35.4251 Y23.4609 
G01 X-35.5615 Y23.2731 
G01 X-35.6669 Y23.0662 
G01 X-35.7387 Y22.8454 
G01 X-35.7750 Y22.6161 
G01 X-35.7750 Y22.3839 
G01 X-35.7387 Y22.1546 
G01 X-35.6669 Y21.9338 
G01 X-35.5615 Y21.7269 
G01 X-35.4251 Y21.5391 
G01 X-35.2609 Y21.3749 
G01 X-35.0731 Y21.2385 
G01 X-34.8662 Y21.1331 
G01 X-34.6454 Y21.0613 
G01 X-34.4161 Y21.0250 
G01 X-34.1839 Y21.0250 
G01 X-33.9546 Y21.0613 
G01 X-33.7338 Y21.1331 
G01 X-33.5269 Y21.2385 
G01 X-33.3391 Y21.3749 
G01 X-33.1749 Y21.5391 
G01 X-33.0385 Y21.7269 
G01 X-32.9331 Y21.9338 
G01 X-32.8613 Y22.1546 
G01 X-32.8250 Y22.3839 
G01 X-32.8250 Y22.6161 
G01 X-32.8613 Y22.8454 
G01 X-32.9331 Y23.0662 
G01 X-33.0385 Y23.2731 
G01 X-33.1749 Y23.4609 
G01 X-33.3391 Y23.6251 
G01 X-33.5269 Y23.7615 
G01 X-33.7338 Y23.8669 
G01 X-33.8500 Y23.9047 
G01 X-33.8500 Y26.9304 
G01 X-33.6546 Y26.9613 
G01 X-33.4338 Y27.0331 
G01 X-33.2269 Y27.1385 
G01 X-33.0391 Y27.2749 
G01 X-32.8749 Y27.4391 
G01 X-32.7385 Y27.6269 
G01 X-32.6331 Y27.8338 
G01 X-32.5613 Y28.0546 
G01 X-32.5250 Y28.2839 
G01 X-32.5250 Y28.5161 
G01 X-32.5613 Y28.7454 
G01 X-32.6331 Y28.9662 
G01 X-32.7385 Y29.1731 
G01 X-32.8749 Y29.3609 
G01 X-33.0391 Y29.5251 
G01 X-33.2269 Y29.6615 
G01 X-33.4338 Y29.7669 
G01 X-33.6546 Y29.8387 
G01 X-33.7500 Y29.8538 
G01 X-33.7500 Y30.4342 
G01 X-33.7807 Y30.5487 
G01 X-33.8399 Y30.6513 
G01 X-33.9750 Y30.7864 
G01 X-33.9750 Y32.6636 
G01 X-33.2248 Y33.4138 
G01 X-33.0662 Y33.3331 
G01 X-32.8454 Y33.2613 
G01 X-32.6161 Y33.2250 
G01 X-32.3839 Y33.2250 
G01 X-32.1546 Y33.2613 
G01 X-31.9338 Y33.3331 
G01 X-31.7269 Y33.4385 
G01 X-31.5391 Y33.5749 
G01 X-31.3749 Y33.7391 
G01 X-31.2385 Y33.9269 
G01 X-31.1331 Y34.1338 
G01 X-31.0613 Y34.3546 
G01 X-31.0250 Y34.5839 
G01 X-31.0250 Y34.8161 
G01 X-31.0423 Y34.9253 
G01 X-30.8454 Y34.8613 
G01 X-30.6161 Y34.8250 
G01 X-30.3839 Y34.8250 
G01 X-30.1546 Y34.8613 
G01 X-29.9338 Y34.9331 
G01 X-29.7269 Y35.0385 
G01 X-29.5391 Y35.1749 
G01 X-29.3749 Y35.3391 
G00 Z2.0000 
G00 X-29.3964 Y41.2750 
G01 Z-0.0800 F50.00 
G01 X-29.2036 Y41.2750 F120.00 
G01 X-29.0131 Y41.3052 
G01 X-28.8298 Y41.3647 
G01 X-28.6580 Y41.4523 
G01 X-28.5020 Y41.5656 
G01 X-28.3656 Y41.7020 
G01 X-28.2523 Y41.8580 
G01 X-28.1647 Y42.0298 
G01 X-28.1582 Y42.0500 
G01 X-27.4372 Y42.0500 
G01 X-27.3669 Y41.8338 
G01 X-27.2615 Y41.6269 
G01 X-27.1251 Y41.4391 
G01 X-26.9609 Y41.2749 
G01 X-26.7731 Y41.1385 
G01 X-26.5662 Y41.0331 
G01 X-26.3454 Y40.9613 
G01 X-26.2250 Y40.9423 
G01 X-26.2250 Y40.7188 
G01 X-26.1887 Y40.4895 
G01 X-26.1169 Y40.2687 
G01 X-26.0115 Y40.0619 
G01 X-25.8751 Y39.8740 
G01 X-25.7109 Y39.7099 
G01 X-25.5231 Y39.5734 
G01 X-25.3162 Y39.4680 
G01 X-25.0954 Y39.3963 
G01 X-24.8661 Y39.3599 
G01 X-24.6339 Y39.3599 
G01 X-24.4046 Y39.3963 
G01 X-24.1838 Y39.4680 
G01 X-23.9769 Y39.5734 
G01 X-23.7891 Y39.7099 
G01 X-23.6249 Y39.8740 
G01 X-23.4885 Y40.0619 
G01 X-23.3831 Y40.2687 
G01 X-23.3113 Y40.4895 
G01 X-23.2750 Y40.7188 
G01 X-23.2750 Y40.9510 
G01 X-23.3113 Y41.1803 
G01 X-23.3831 Y41.4011 
G01 X-23.4885 Y41.6080 
G01 X-23.6249 Y41.7958 
G01 X-23.7891 Y41.9600 
G01 X-23.9769 Y42.0965 
G01 X-24.1838 Y42.2019 
G01 X-24.4046 Y42.2736 
G01 X-24.5250 Y42.2927 
G01 X-24.5250 Y42.5161 
G01 X-24.5613 Y42.7454 
G01 X-24.6331 Y42.9662 
G01 X-24.7385 Y43.1731 
G01 X-24.8749 Y43.3609 
G01 X-25.0391 Y43.5251 
G01 X-25.2269 Y43.6615 
G01 X-25.4338 Y43.7669 
G01 X-25.6546 Y43.8387 
G01 X-25.8839 Y43.8750 
G01 X-26.1161 Y43.8750 
G01 X-26.3454 Y43.8387 
G01 X-26.5662 Y43.7669 
G01 X-26.7731 Y43.6615 
G01 X-26.9609 Y43.5251 
G01 X-27.1251 Y43.3609 
G01 X-27.2615 Y43.1731 
G01 X-27.3669 Y42.9662 
G01 X-27.3722 Y42.9500 
G01 X-28.1582 Y42.9500 
G01 X-28.1647 Y42.9702 
G01 X-28.2523 Y43.1420 
G01 X-28.3656 Y43.2980 
G01 X-28.5020 Y43.4344 
G01 X-28.6580 Y43.5477 
G01 X-28.8298 Y43.6352 
G01 X-29.0131 Y43.6948 
G01 X-29.2036 Y43.7250 
G01 X-29.3964 Y43.7250 
G01 X-29.5869 Y43.6948 
G01 X-29.7702 Y43.6352 
G01 X-29.9420 Y43.5477 
G01 X-30.0980 Y43.4344 
G01 X-30.2344 Y43.2980 
G01 X-30.3477 Y43.1420 
G01 X-30.4352 Y42.9702 
G01 X-30.4948 Y42.7869 
G01 X-30.5250 Y42.5964 
G01 X-30.5250 Y42.4036 
G01 X-30.4948 Y42.2131 
G01 X-30.4352 Y42.0298 
G01 X-30.3477 Y41.8580 
G01 X-30.2344 Y41.7020 
G01 X-30.0980 Y41.5656 
G01 X-29.9420 Y41.4523 
G01 X-29.7702 Y41.3647 
G01 X-29.5869 Y41.3052 
G01 X-29.3964 Y41.2750 
G00 Z2.0000 
G00 X-25.3580 Y50.3356 
G01 Z-0.0800 F50.00 
G01 X-25.2020 Y50.2223 F120.00 
G01 X-25.0302 Y50.1347 
G01 X-24.8469 Y50.0752 
G01 X-24.6564 Y50.0450 
G01 X-24.4636 Y50.0450 
G01 X-24.2731 Y50.0752 
G01 X-24.0898 Y50.1347 
G01 X-23.9180 Y50.2223 
G01 X-23.7620 Y50.3356 
G01 X-23.6256 Y50.4720 
G01 X-23.5123 Y50.6280 
G01 X-23.4247 Y50.7998 
G01 X-23.3652 Y50.9831 
G01 X-23.3350 Y51.1736 
G01 X-23.3350 Y53.3664 
G01 X-23.3652 Y53.5569 
G01 X-23.4247 Y53.7402 
G01 X-23.5123 Y53.9120 
G01 X-23.5196 Y53.9221 
G01 X-23.4647 Y54.0298 
G01 X-23.4052 Y54.2131 
G01 X-23.3750 Y54.4036 
G01 X-23.3750 Y54.5964 
G01 X-23.4052 Y54.7869 
G01 X-23.4647 Y54.9702 
G01 X-23.5523 Y55.1420 
G01 X-23.6656 Y55.2980 
G01 X-23.8020 Y55.4344 
G01 X-23.9580 Y55.5477 
G01 X-24.1298 Y55.6352 
G01 X-24.3131 Y55.6948 
G01 X-24.5036 Y55.7250 
G01 X-24.6964 Y55.7250 
G01 X-24.8869 Y55.6948 
G01 X-25.0702 Y55.6352 
G01 X-25.2420 Y55.5477 
G01 X-25.3980 Y55.4344 
G01 X-25.5344 Y55.2980 
G01 X-25.6477 Y55.1420 
G01 X-25.7353 Y54.9702 
G01 X-25.7948 Y54.7869 
G01 X-25.8250 Y54.5964 
G01 X-25.8250 Y54.4036 
G01 X-25.7948 Y54.2131 
G01 X-25.7353 Y54.0298 
G01 X-25.6477 Y53.8580 
G01 X-25.6404 Y53.8479 
G01 X-25.6953 Y53.7402 
G01 X-25.7548 Y53.5569 
G01 X-25.7850 Y53.3664 
G01 X-25.7850 Y51.1736 
G01 X-25.7548 Y50.9831 
G01 X-25.6953 Y50.7998 
G01 X-25.6077 Y50.6280 
G01 X-25.4944 Y50.4720 
G01 X-25.3580 Y50.3356 
G00 Z2.0000 
G00 X-22.8180 Y50.3356 
G01 Z-0.0800 F50.00 
G01 X-22.6620 Y50.2223 F120.00 
G01 X-22.4902 Y50.1347 
G01 X-22.3069 Y50.0752 
G01 X-22.1164 Y50.0450 
G01 X-21.9236 Y50.0450 
G01 X-21.7331 Y50.0752 
G01 X-21.5498 Y50.1347 
G01 X-21.3780 Y50.2223 
G01 X-21.2220 Y50.3356 
G01 X-21.0856 Y50.4720 
G01 X-20.9723 Y50.6280 
G01 X-20.8847 Y50.7998 
G01 X-20.8252 Y50.9831 
G01 X-20.7950 Y51.1736 
G01 X-20.7950 Y53.3664 
G01 X-20.8252 Y53.5569 
G01 X-20.8847 Y53.7402 
G01 X-20.9723 Y53.9120 
G01 X-21.0856 Y54.0680 
G01 X-21.2220 Y54.2044 
G01 X-21.3780 Y54.3177 
G01 X-21.5498 Y54.4053 
G01 X-21.5700 Y54.4118 
G01 X-21.5700 Y56.1436 
G01 X-20.0786 Y57.6350 
G01 X-19.4434 Y57.6350 
G01 X-19.3289 Y57.6657 
G01 X-19.2263 Y57.7249 
G01 X-19.1425 Y57.8087 
G01 X-18.0149 Y58.9363 
G01 X-17.9557 Y59.0389 
G01 X-17.9250 Y59.1534 
G01 X-17.9250 Y59.7886 
G01 X-16.9251 Y60.7885 
G01 X-16.8162 Y60.7331 
G01 X-16.5954 Y60.6613 
G01 X-16.3661 Y60.6250 
G01 X-16.1339 Y60.6250 
G01 X-15.9046 Y60.6613 
G01 X-15.6838 Y60.7331 
G01 X-15.4769 Y60.8385 
G01 X-15.2891 Y60.9749 
G01 X-15.1249 Y61.1391 
G01 X-14.9885 Y61.3269 
G01 X-14.8831 Y61.5338 
G01 X-14.8113 Y61.7546 
G01 X-14.7750 Y61.9839 
G01 X-14.7750 Y62.2161 
G01 X-14.8113 Y62.4454 
G01 X-14.8831 Y62.6662 
G01 X-14.9885 Y62.8731 
G01 X-15.1249 Y63.0609 
G01 X-15.2891 Y63.2251 
G01 X-15.4769 Y63.3615 
G01 X-15.6838 Y63.4669 
G01 X-15.9046 Y63.5387 
G01 X-16.1339 Y63.5750 
G01 X-16.3661 Y63.5750 
G01 X-16.5954 Y63.5387 
G01 X-16.8162 Y63.4669 
G01 X-17.0231 Y63.3615 
G01 X-17.2109 Y63.2251 
G01 X-17.3751 Y63.0609 
G01 X-17.5115 Y62.8731 
G01 X-17.6169 Y62.6662 
G01 X-17.6887 Y62.4454 
G01 X-17.7250 Y62.2161 
G01 X-17.7250 Y61.9839 
G01 X-17.6887 Y61.7546 
G01 X-17.6169 Y61.5338 
G01 X-17.5615 Y61.4249 
G01 X-18.6513 Y60.3351 
G01 X-18.7351 Y60.2513 
G01 X-18.7943 Y60.1487 
G01 X-18.8250 Y60.0342 
G01 X-18.8250 Y59.3990 
G01 X-19.6890 Y58.5350 
G01 X-20.3242 Y58.5350 
G01 X-20.4387 Y58.5043 
G01 X-20.5413 Y58.4451 
G01 X-22.3801 Y56.6063 
G01 X-22.4393 Y56.5037 
G01 X-22.4700 Y56.3892 
G01 X-22.4700 Y54.4118 
G01 X-22.4902 Y54.4053 
G01 X-22.6620 Y54.3177 
G01 X-22.8180 Y54.2044 
G01 X-22.9544 Y54.0680 
G01 X-23.0677 Y53.9120 
G01 X-23.1552 Y53.7402 
G01 X-23.2148 Y53.5569 
G01 X-23.2450 Y53.3664 
G01 X-23.2450 Y51.1736 
G01 X-23.2148 Y50.9831 
G01 X-23.1552 Y50.7998 
G01 X-23.0677 Y50.6280 
G01 X-22.9544 Y50.4720 
G01 X-22.8180 Y50.3356 
G00 Z2.0000 
G00 X-20.2780 Y50.3356 
G01 Z-0.0800 F50.00 
G01 X-20.1220 Y50.2223 F120.00 
G01 X-19.9502 Y50.1347 
G01 X-19.7669 Y50.0752 
G01 X-19.5764 Y50.0450 
G01 X-19.3836 Y50.0450 
G01 X-19.1931 Y50.0752 
G01 X-19.0098 Y50.1347 
G01 X-18.8380 Y50.2223 
G01 X-18.6820 Y50.3356 
G01 X-18.5456 Y50.4720 
G01 X-18.4323 Y50.6280 
G01 X-18.3447 Y50.7998 
G01 X-18.2852 Y50.9831 
G01 X-18.2550 Y51.1736 
G01 X-18.2550 Y53.3664 
G01 X-18.2852 Y53.5569 
G01 X-18.3447 Y53.7402 
G01 X-18.4285 Y53.9046 
G01 X-18.3647 Y54.0298 
G01 X-18.3052 Y54.2131 
G01 X-18.2750 Y54.4036 
G01 X-18.2750 Y54.5964 
G01 X-18.2810 Y54.6345 
G01 X-18.0769 Y54.7385 
G01 X-17.8891 Y54.8749 
G01 X-17.7249 Y55.0391 
G01 X-17.5885 Y55.2269 
G01 X-17.4831 Y55.4338 
G01 X-17.4113 Y55.6546 
G01 X-17.3750 Y55.8839 
G01 X-17.3750 Y56.1161 
G01 X-17.4113 Y56.3454 
G01 X-17.4831 Y56.5662 
G01 X-17.5885 Y56.7731 
G01 X-17.7249 Y56.9609 
G01 X-17.7388 Y56.9748 
G01 X-16.9251 Y57.7885 
G01 X-16.8162 Y57.7331 
G01 X-16.5954 Y57.6613 
G01 X-16.3661 Y57.6250 
G01 X-16.1339 Y57.6250 
G01 X-15.9046 Y57.6613 
G01 X-15.6838 Y57.7331 
G01 X-15.4769 Y57.8385 
G01 X-15.2891 Y57.9749 
G01 X-15.1249 Y58.1391 
G01 X-14.9885 Y58.3269 
G01 X-14.8831 Y58.5338 
G01 X-14.8113 Y58.7546 
G01 X-14.7750 Y58.9839 
G01 X-14.7750 Y59.2161 
G01 X-14.8113 Y59.4454 
G01 X-14.8831 Y59.6662 
G01 X-14.9885 Y59.8731 
G01 X-15.1249 Y60.0609 
G01 X-15.2891 Y60.2251 
G01 X-15.4769 Y60.3615 
G01 X-15.6838 Y60.4669 
G01 X-15.9046 Y60.5387 
G01 X-16.1339 Y60.5750 
G01 X-16.3661 Y60.5750 
G01 X-16.5954 Y60.5387 
G01 X-16.8162 Y60.4669 
G01 X-17.0231 Y60.3615 
G01 X-17.2109 Y60.2251 
G01 X-17.3751 Y60.0609 
G01 X-17.5115 Y59.8731 
G01 X-17.6169 Y59.6662 
G01 X-17.6887 Y59.4454 
G01 X-17.7250 Y59.2161 
G01 X-17.7250 Y58.9839 
G01 X-17.6887 Y58.7546 
G01 X-17.6169 Y58.5338 
G01 X-17.5615 Y58.4249 
G01 X-18.5418 Y57.4446 
G01 X-18.7339 Y57.4750 
G01 X-18.9661 Y57.4750 
G01 X-19.1954 Y57.4387 
G01 X-19.4162 Y57.3669 
G01 X-19.6231 Y57.2615 
G01 X-19.8109 Y57.1251 
G01 X-19.9751 Y56.9609 
G01 X-20.1115 Y56.7731 
G01 X-20.2169 Y56.5662 
G01 X-20.2887 Y56.3454 
G01 X-20.3250 Y56.1161 
G01 X-20.3250 Y55.8839 
G01 X-20.2887 Y55.6546 
G01 X-20.2326 Y55.4819 
G01 X-20.2980 Y55.4344 
G01 X-20.4344 Y55.2980 
G01 X-20.5477 Y55.1420 
G01 X-20.6352 Y54.9702 
G01 X-20.6948 Y54.7869 
G01 X-20.7250 Y54.5964 
G01 X-20.7250 Y54.4036 
G01 X-20.6948 Y54.2131 
G01 X-20.6352 Y54.0298 
G01 X-20.5515 Y53.8654 
G01 X-20.6152 Y53.7402 
G01 X-20.6748 Y53.5569 
G01 X-20.7050 Y53.3664 
G01 X-20.7050 Y51.1736 
G01 X-20.6748 Y50.9831 
G01 X-20.6152 Y50.7998 
G01 X-20.5277 Y50.6280 
G01 X-20.4144 Y50.4720 
G01 X-20.2780 Y50.3356 
G00 Z2.0000 
G00 X-21.8749 Y67.2391 
G01 Z-0.0800 F50.00 
G01 X-21.7385 Y67.4269 F120.00 
G01 X-21.6331 Y67.6338 
G01 X-21.5613 Y67.8546 
G01 X-21.5250 Y68.0839 
G01 X-21.5250 Y68.3161 
G01 X-21.5613 Y68.5454 
G01 X-21.6331 Y68.7662 
G01 X-21.7385 Y68.9731 
G01 X-21.8749 Y69.1609 
G01 X-22.0391 Y69.3251 
G01 X-22.2269 Y69.4615 
G01 X-22.4338 Y69.5669 
G01 X-22.6546 Y69.6387 
G01 X-22.8839 Y69.6750 
G01 X-23.1161 Y69.6750 
G01 X-23.3454 Y69.6387 
G01 X-23.5662 Y69.5669 
G01 X-23.7731 Y69.4615 
G01 X-23.9609 Y69.3251 
G01 X-24.1251 Y69.1609 
G01 X-24.2615 Y68.9731 
G01 X-24.2860 Y68.9250 
G01 X-36.3714 Y68.9250 
G01 X-36.5115 Y68.8971 
G01 X-36.6434 Y68.8425 
G01 X-36.7622 Y68.7631 
G01 X-39.0471 Y66.4782 
G01 X-39.1265 Y66.3594 
G01 X-39.1811 Y66.2275 
G01 X-39.2090 Y66.0874 
G01 X-39.2090 Y5.9126 
G01 X-39.1811 Y5.7725 
G01 X-39.1265 Y5.6406 
G01 X-39.0471 Y5.5218 
G01 X-38.9462 Y5.4209 
G01 X-36.1622 Y2.6369 
G01 X-36.0434 Y2.5575 
G01 X-35.9115 Y2.5029 
G01 X-35.7714 Y2.4750 
G01 X-26.7860 Y2.4750 
G01 X-26.7615 Y2.4269 
G01 X-26.6251 Y2.2391 
G01 X-26.4609 Y2.0749 
G01 X-26.2731 Y1.9385 
G01 X-26.0662 Y1.8331 
G01 X-25.8454 Y1.7613 
G01 X-25.6161 Y1.7250 
G01 X-25.3839 Y1.7250 
G01 X-25.1546 Y1.7613 
G01 X-24.9338 Y1.8331 
G01 X-24.7269 Y1.9385 
G01 X-24.5391 Y2.0749 
G01 X-24.3749 Y2.2391 
G01 X-24.2385 Y2.4269 
G01 X-24.1331 Y2.6338 
G01 X-24.0613 Y2.8546 
G01 X-24.0250 Y3.0839 
G01 X-24.0250 Y3.3161 
G01 X-24.0613 Y3.5454 
G01 X-24.1331 Y3.7662 
G01 X-24.2385 Y3.9731 
G01 X-24.3749 Y4.1609 
G01 X-24.5391 Y4.3251 
G01 X-24.7269 Y4.4615 
G01 X-24.9338 Y4.5669 
G01 X-25.1546 Y4.6387 
G01 X-25.3839 Y4.6750 
G01 X-25.6161 Y4.6750 
G01 X-25.8454 Y4.6387 
G01 X-26.0662 Y4.5669 
G01 X-26.2731 Y4.4615 
G01 X-26.4609 Y4.3251 
G01 X-26.6251 Y4.1609 
G01 X-26.7615 Y3.9731 
G01 X-26.7860 Y3.9250 
G01 X-35.3997 Y3.9250 
G01 X-37.7590 Y6.2843 
G01 X-37.7590 Y65.7157 
G01 X-35.9997 Y67.4750 
G01 X-24.2860 Y67.4750 
G01 X-24.2615 Y67.4269 
G01 X-24.1251 Y67.2391 
G01 X-23.9609 Y67.0749 
G01 X-23.7731 Y66.9385 
G01 X-23.5662 Y66.8331 
G01 X-23.3454 Y66.7613 
G01 X-23.1161 Y66.7250 
G01 X-22.8839 Y66.7250 
G01 X-22.6546 Y66.7613 
G01 X-22.4338 Y66.8331 
G01 X-22.2269 Y66.9385 
G01 X-22.0391 Y67.0749 
G01 X-21.8749 Y67.2391 
G00 Z2.0000 
G00 X-21.9546 Y11.9387 
G01 Z-0.0800 F50.00 
G01 X-22.1839 Y11.9750 F120.00 
G01 X-22.4161 Y11.9750 
G01 X-22.6454 Y11.9387 
G01 X-22.8662 Y11.8669 
G01 X-23.0731 Y11.7615 
G01 X-23.2609 Y11.6251 
G01 X-23.4251 Y11.4609 
G01 X-23.5615 Y11.2731 
G01 X-23.6669 Y11.0662 
G01 X-23.7387 Y10.8454 
G01 X-23.7750 Y10.6161 
G01 X-23.7750 Y10.3839 
G01 X-23.7387 Y10.1546 
G01 X-23.6669 Y9.9338 
G01 X-23.5615 Y9.7269 
G01 X-23.4251 Y9.5391 
G01 X-23.2609 Y9.3749 
G01 X-23.0731 Y9.2385 
G01 X-23.0250 Y9.2140 
G01 X-23.0250 Y4.9286 
G01 X-22.9971 Y4.7885 
G01 X-22.9425 Y4.6566 
G01 X-22.8631 Y4.5378 
G01 X-21.9220 Y3.5967 
G01 X-21.9387 Y3.5454 
G01 X-21.9750 Y3.3161 
G01 X-21.9750 Y3.0839 
G01 X-21.9387 Y2.8546 
G01 X-21.8669 Y2.6338 
G01 X-21.7615 Y2.4269 
G01 X-21.6251 Y2.2391 
G01 X-21.4609 Y2.0749 
G01 X-21.2731 Y1.9385 
G01 X-21.0662 Y1.8331 
G01 X-20.8454 Y1.7613 
G01 X-20.6161 Y1.7250 
G01 X-20.3839 Y1.7250 
G01 X-20.1546 Y1.7613 
G01 X-19.9338 Y1.8331 
G01 X-19.7269 Y1.9385 
G01 X-19.5391 Y2.0749 
G01 X-19.3749 Y2.2391 
G01 X-19.2385 Y2.4269 
G01 X-19.1331 Y2.6338 
G01 X-19.0613 Y2.8546 
G01 X-19.0250 Y3.0839 
G01 X-19.0250 Y3.3161 
G01 X-19.0613 Y3.5454 
G01 X-19.1331 Y3.7662 
G01 X-19.2385 Y3.9731 
G01 X-19.3749 Y4.1609 
G01 X-19.5391 Y4.3251 
G01 X-19.7269 Y4.4615 
G01 X-19.9338 Y4.5669 
G01 X-20.1546 Y4.6387 
G01 X-20.3839 Y4.6750 
G01 X-20.6161 Y4.6750 
G01 X-20.8454 Y4.6387 
G01 X-20.8967 Y4.6220 
G01 X-21.5750 Y5.3003 
G01 X-21.5750 Y9.2140 
G01 X-21.5269 Y9.2385 
G01 X-21.3391 Y9.3749 
G01 X-21.1749 Y9.5391 
G01 X-21.0385 Y9.7269 
G01 X-20.9331 Y9.9338 
G01 X-20.8613 Y10.1546 
G01 X-20.8250 Y10.3839 
G01 X-20.8250 Y10.6161 
G01 X-20.8613 Y10.8454 
G01 X-20.9331 Y11.0662 
G01 X-21.0385 Y11.2731 
G01 X-21.1749 Y11.4609 
G01 X-21.3391 Y11.6251 
G01 X-21.5269 Y11.7615 
G01 X-21.7338 Y11.8669 
G01 X-21.9546 Y11.9387 
G00 Z2.0000 
G00 X-19.8251 Y11.4609 
G01 Z-0.0800 F50.00 
G01 X-19.9615 Y11.2731 F120.00 
G01 X-20.0669 Y11.0662 
G01 X-20.1387 Y10.8454 
G01 X-20.1750 Y10.6161 
G01 X-20.1750 Y10.3839 
G01 X-20.1387 Y10.1546 
G01 X-20.0669 Y9.9338 
G01 X-19.9615 Y9.7269 
G01 X-19.8251 Y9.5391 
G01 X-19.6609 Y9.3749 
G01 X-19.4731 Y9.2385 
G01 X-19.2662 Y9.1331 
G01 X-19.0454 Y9.0613 
G01 X-18.8161 Y9.0250 
G01 X-18.5839 Y9.0250 
G01 X-18.3546 Y9.0613 
G01 X-18.1338 Y9.1331 
G01 X-17.9269 Y9.2385 
G01 X-17.7391 Y9.3749 
G01 X-17.5749 Y9.5391 
G01 X-17.4385 Y9.7269 
G01 X-17.3331 Y9.9338 
G01 X-17.2613 Y10.1546 
G01 X-17.2250 Y10.3839 
G01 X-17.2250 Y10.6161 
G01 X-17.2613 Y10.8454 
G01 X-17.3331 Y11.0662 
G01 X-17.4385 Y11.2731 
G01 X-17.5749 Y11.4609 
G01 X-17.7391 Y11.6251 
G01 X-17.9269 Y11.7615 
G01 X-18.1338 Y11.8669 
G01 X-18.3546 Y11.9387 
G01 X-18.5839 Y11.9750 
G01 X-18.8161 Y11.9750 
G01 X-19.0454 Y11.9387 
G01 X-19.2662 Y11.8669 
G01 X-19.4731 Y11.7615 
G01 X-19.6609 Y11.6251 
G01 X-19.8251 Y11.4609 
G00 Z2.0000 
G00 X-33.1749 Y11.4609 
G01 Z-0.0800 F50.00 
G01 X-33.3391 Y11.6251 F120.00 
G01 X-33.5269 Y11.7615 
G01 X-33.7338 Y11.8669 
G01 X-33.9546 Y11.9387 
G01 X-34.1839 Y11.9750 
G01 X-34.4161 Y11.9750 
G01 X-34.6454 Y11.9387 
G01 X-34.8662 Y11.8669 
G01 X-35.0731 Y11.7615 
G01 X-35.2609 Y11.6251 
G01 X-35.4251 Y11.4609 
G01 X-35.5615 Y11.2731 
G01 X-35.6669 Y11.0662 
G01 X-35.7387 Y10.8454 
G01 X-35.7750 Y10.6161 
G01 X-35.7750 Y10.3839 
G01 X-35.7387 Y10.1546 
G01 X-35.6669 Y9.9338 
G01 X-35.5615 Y9.7269 
G01 X-35.4251 Y9.5391 
G01 X-35.2609 Y9.3749 
G01 X-35.0731 Y9.2385 
G01 X-34.8662 Y9.1331 
G01 X-34.6454 Y9.0613 
G01 X-34.4161 Y9.0250 
G01 X-34.1839 Y9.0250 
G01 X-33.9546 Y9.0613 
G01 X-33.7338 Y9.1331 
G01 X-33.5269 Y9.2385 
G01 X-33.3391 Y9.3749 
G01 X-33.1749 Y9.5391 
G01 X-33.0385 Y9.7269 
G01 X-32.9331 Y9.9338 
G01 X-32.8613 Y10.1546 
G01 X-32.8250 Y10.3839 
G01 X-32.8250 Y10.6161 
G01 X-32.8613 Y10.8454 
G01 X-32.9331 Y11.0662 
G01 X-33.0385 Y11.2731 
G01 X-33.1749 Y11.4609 
G00 Z2.0000 
G00 Z10.0000 
M05
M02
