(Current profile is .../pcbgcode/profiles/generic.pp  )
(Z Axis Settings)
(  High     Up        Down     Drill)
(10.0000 	2.0000 	-0.0800 	-1.7000 )
(Settings from pcb-defaults.h)
(isolate min = 0.0000)
(isolate max = 0.2000)
(isolate step = 0.2000)
(Generated bottom outlines, bottom drill, )
(Unit of measure: mm)
(Metric Mode)
G21
(Absolute Coordinates)
G90
S12000
G00 Z10.0000 
G00 X0.0000 Y0.0000 
M03
G04 P3.000000
G00 Z2.0000 
G00 X-2.0000 Y0.0000 
G01 Z-0.4000 F50.00 
G01 X0.0000 Y2.0000 F120.00 
G01 X0.0000 Y14.0000 
G01 X0.0000 Y69.0000 
G01 X-2.0000 Y71.0000 
G01 X-20.5000 Y71.0000 
G01 X-38.0000 Y71.0000 
G01 X-40.0000 Y69.0000 
G01 X-40.0000 Y2.0000 
G01 X-38.0000 Y0.0000 
G01 X-23.5000 Y0.0000 
G01 X-18.0000 Y0.0000 
G01 X-2.0000 Y0.0000 
G00 Z2.0000 
G00 X0.0000 Y14.0000 
G01 Z-0.4000 F50.00 
G01 X-12.5000 Y14.0000 F120.00 
G01 X-20.5000 Y14.0000 
G01 X-31.0000 Y14.0000 
G01 X-31.0000 Y25.0000 
G01 X-30.0000 Y26.0000 
G01 X-27.5000 Y26.0000 
G01 X-26.5000 Y25.0000 
G01 X-26.5000 Y20.0000 
G01 X-24.5000 Y18.0000 
G01 X-16.5000 Y18.0000 
G01 X-15.0000 Y19.5000 
G01 X-15.0000 Y23.5000 
G01 X-13.0000 Y25.5000 
G01 X-11.5000 Y25.5000 
G01 X-10.0000 Y24.0000 
G01 X-10.0000 Y19.5000 
G01 X-8.5000 Y18.0000 
G01 X-5.0000 Y18.0000 
G01 X-3.5000 Y19.5000 
G01 X-3.5000 Y62.5000 
G01 X-7.0000 Y66.0000 
G01 X-20.5000 Y66.0000 
G01 X-20.5000 Y71.0000 
G00 Z2.0000 
G00 X-20.5000 Y66.0000 
G01 Z-0.4000 F50.00 
G01 X-34.5000 Y66.0000 F120.00 
G01 X-37.0000 Y63.5000 
G01 X-37.0000 Y14.0000 
G01 X-37.0000 Y9.0000 
G01 X-34.0000 Y6.0000 
G01 X-31.0000 Y6.0000 
G01 X-25.0000 Y6.0000 
G01 X-23.5000 Y4.5000 
G01 X-23.5000 Y0.0000 
G00 Z2.0000 
G00 X-18.0000 Y0.0000 
G01 Z-0.4000 F50.00 
G01 X-18.0000 Y5.5000 F120.00 
G01 X-12.5000 Y11.0000 
G01 X-12.5000 Y14.0000 
G00 Z2.0000 
G00 X-20.5000 Y14.0000 
G01 Z-0.4000 F50.00 
G01 X-20.5000 Y8.0000 F120.00 
G01 X-18.0000 Y5.5000 
G00 Z2.0000 
G00 X-31.0000 Y6.0000 
G01 Z-0.4000 F50.00 
G01 X-31.0000 Y14.0000 F120.00 
G01 X-37.0000 Y14.0000 
G00 Z10.0000 
M05
M02
