(Current profile is .../pcbgcode/profiles/generic.pp  )
(Z Axis Settings)
(  High     Up        Down     Drill)
(10.0000 	2.0000 	-0.0800 	-1.7000 )
(Settings from pcb-defaults.h)
(isolate min = 0.0000)
(isolate max = 0.2000)
(isolate step = 0.2000)
(Generated bottom outlines, bottom drill, )
(Unit of measure: mm)
( Tool|       Size       |  Min Sub |  Max Sub |   Count )
( T01  0.900mm 0.0354in 0.0000in 0.0000in )
(Metric Mode)
G21
(Absolute Coordinates)
G90
S12000
G00 Z10.0000 
G00 X0.0000 Y0.0000 
M03
G04 P3.000000
M05
M06 T01  ; 0.9000 
G01 Z0.0000 F50.00 
M06 
G00 Z2.0000 
M03
G04 P3.000000
G00 X-6.2500 Y59.1000 
G01 Z-1.7000 F50.00 
G00 Z2.0000 
G00 X-6.2500 Y62.1000 
G01 Z-1.7000 F50.00 
G00 Z2.0000 
G00 X-6.3500 Y55.8000 
G01 Z-1.7000 F50.00 
G00 Z2.0000 
G00 X-9.3500 Y55.8000 
G01 Z-1.7000 F50.00 
G00 Z2.0000 
G00 X-12.3500 Y55.8000 
G01 Z-1.7000 F50.00 
G00 Z2.0000 
G00 X-15.6500 Y56.0000 
G01 Z-1.7000 F50.00 
G00 Z2.0000 
G00 X-16.2500 Y59.1000 
G01 Z-1.7000 F50.00 
G00 Z2.0000 
G00 X-16.2500 Y62.1000 
G01 Z-1.7000 F50.00 
G00 Z2.0000 
G00 X-20.3000 Y63.2100 
G01 Z-1.7000 F50.00 
G00 Z2.0000 
G00 X-23.3000 Y63.9000 
G01 Z-1.7000 F50.00 
G00 Z2.0000 
G00 X-27.5000 Y63.8000 
G01 Z-1.7000 F50.00 
G00 Z2.0000 
G00 X-27.5000 Y60.6000 
G01 Z-1.7000 F50.00 
G00 Z2.0000 
G00 X-31.0000 Y58.1100 
G01 Z-1.7000 F50.00 
G00 Z2.0000 
G00 X-33.0000 Y58.2000 
G01 Z-1.7000 F50.00 
G00 Z2.0000 
G00 X-33.0000 Y55.6600 
G01 Z-1.7000 F50.00 
G00 Z2.0000 
G00 X-33.0000 Y53.2000 
G01 Z-1.7000 F50.00 
G00 Z2.0000 
G00 X-33.0000 Y50.6600 
G01 Z-1.7000 F50.00 
G00 Z2.0000 
G00 X-24.5600 Y51.2700 
G01 Z-1.7000 F50.00 
G00 Z2.0000 
G00 X-22.0200 Y51.2700 
G01 Z-1.7000 F50.00 
G00 Z2.0000 
G00 X-19.4800 Y51.2700 
G01 Z-1.7000 F50.00 
G00 Z2.0000 
G00 X-16.9400 Y51.2700 
G01 Z-1.7000 F50.00 
G00 Z2.0000 
G00 X-16.9400 Y48.7300 
G01 Z-1.7000 F50.00 
G00 Z2.0000 
G00 X-19.4800 Y48.7300 
G01 Z-1.7000 F50.00 
G00 Z2.0000 
G00 X-22.0200 Y48.7300 
G01 Z-1.7000 F50.00 
G00 Z2.0000 
G00 X-24.5600 Y48.7300 
G01 Z-1.7000 F50.00 
G00 Z2.0000 
G00 X-22.2500 Y45.1651 
G01 Z-1.7000 F50.00 
G00 Z2.0000 
G00 X-19.2500 Y45.1651 
G01 Z-1.7000 F50.00 
G00 Z2.0000 
G00 X-15.5000 Y41.9000 
G01 Z-1.7000 F50.00 
G00 Z2.0000 
G00 X-16.7500 Y40.8349 
G01 Z-1.7000 F50.00 
G00 Z2.0000 
G00 X-12.2000 Y42.5000 
G01 Z-1.7000 F50.00 
G00 Z2.0000 
G00 X-12.3500 Y45.8000 
G01 Z-1.7000 F50.00 
G00 Z2.0000 
G00 X-9.3500 Y45.8000 
G01 Z-1.7000 F50.00 
G00 Z2.0000 
G00 X-6.3500 Y45.8000 
G01 Z-1.7000 F50.00 
G00 Z2.0000 
G00 X-6.5000 Y42.8000 
G01 Z-1.7000 F50.00 
G00 Z2.0000 
G00 X-9.0000 Y39.7000 
G01 Z-1.7000 F50.00 
G00 Z2.0000 
G00 X-9.0000 Y36.3000 
G01 Z-1.7000 F50.00 
G00 Z2.0000 
G00 X-7.7000 Y34.7000 
G01 Z-1.7000 F50.00 
G00 Z2.0000 
G00 X-7.7000 Y31.5000 
G01 Z-1.7000 F50.00 
G00 Z2.0000 
G00 X-10.0000 Y31.6000 
G01 Z-1.7000 F50.00 
G00 Z2.0000 
G00 X-11.4000 Y28.4000 
G01 Z-1.7000 F50.00 
G00 Z2.0000 
G00 X-12.8000 Y28.4000 
G01 Z-1.7000 F50.00 
G00 Z2.0000 
G00 X-15.5000 Y31.9000 
G01 Z-1.7000 F50.00 
G00 Z2.0000 
G00 X-20.0000 Y31.6000 
G01 Z-1.7000 F50.00 
G00 Z2.0000 
G00 X-20.6000 Y31.6000 
G01 Z-1.7000 F50.00 
G00 Z2.0000 
G00 X-21.9400 Y28.4000 
G01 Z-1.7000 F50.00 
G00 Z2.0000 
G00 X-18.8000 Y28.4000 
G01 Z-1.7000 F50.00 
G00 Z2.0000 
G00 X-18.7000 Y22.5000 
G01 Z-1.7000 F50.00 
G00 Z2.0000 
G00 X-22.3000 Y22.5000 
G01 Z-1.7000 F50.00 
G00 Z2.0000 
G00 X-28.3000 Y23.9000 
G01 Z-1.7000 F50.00 
G00 Z2.0000 
G00 X-28.0000 Y28.4000 
G01 Z-1.7000 F50.00 
G00 Z2.0000 
G00 X-26.9400 Y28.4000 
G01 Z-1.7000 F50.00 
G00 Z2.0000 
G00 X-26.0000 Y32.4000 
G01 Z-1.7000 F50.00 
G00 Z2.0000 
G00 X-30.6000 Y31.6000 
G01 Z-1.7000 F50.00 
G00 Z2.0000 
G00 X-32.5000 Y31.5000 
G01 Z-1.7000 F50.00 
G00 Z2.0000 
G00 X-32.5000 Y34.7000 
G01 Z-1.7000 F50.00 
G00 Z2.0000 
G00 X-30.5000 Y36.3000 
G01 Z-1.7000 F50.00 
G00 Z2.0000 
G00 X-30.5000 Y39.7000 
G01 Z-1.7000 F50.00 
G00 Z2.0000 
G00 X-29.3000 Y42.5000 
G01 Z-1.7000 F50.00 
G00 Z2.0000 
G00 X-26.0000 Y42.4000 
G01 Z-1.7000 F50.00 
G00 Z2.0000 
G00 X-24.7500 Y40.8349 
G01 Z-1.7000 F50.00 
G00 Z2.0000 
G00 X-33.5000 Y38.0000 
G01 Z-1.7000 F50.00 
G00 Z2.0000 
G00 X-34.0000 Y28.4000 
G01 Z-1.7000 F50.00 
G00 Z2.0000 
G00 X-34.3000 Y22.5000 
G01 Z-1.7000 F50.00 
G00 Z2.0000 
G00 X-34.3000 Y10.5000 
G01 Z-1.7000 F50.00 
G00 Z2.0000 
G00 X-25.5000 Y3.2000 
G01 Z-1.7000 F50.00 
G00 Z2.0000 
G00 X-20.5000 Y3.2000 
G01 Z-1.7000 F50.00 
G00 Z2.0000 
G00 X-15.5000 Y3.2000 
G01 Z-1.7000 F50.00 
G00 Z2.0000 
G00 X-18.7000 Y10.5000 
G01 Z-1.7000 F50.00 
G00 Z2.0000 
G00 X-22.3000 Y10.5000 
G01 Z-1.7000 F50.00 
G00 Z2.0000 
G00 X-6.7000 Y10.5000 
G01 Z-1.7000 F50.00 
G00 Z2.0000 
G00 X-6.7000 Y22.5000 
G01 Z-1.7000 F50.00 
G00 Z2.0000 
G00 X-6.4000 Y28.4000 
G01 Z-1.7000 F50.00 
G00 Z2.0000 
G00 X-12.7000 Y23.9000 
G01 Z-1.7000 F50.00 
G00 Z2.0000 
G00 X-12.0000 Y38.0000 
G01 Z-1.7000 F50.00 
G00 Z2.0000 
G00 X-19.5000 Y54.5000 
G01 Z-1.7000 F50.00 
G00 Z2.0000 
G00 X-18.8500 Y56.0000 
G01 Z-1.7000 F50.00 
G00 Z2.0000 
G00 X-20.3000 Y60.0100 
G01 Z-1.7000 F50.00 
G00 Z2.0000 
G00 X-23.3000 Y58.3000 
G01 Z-1.7000 F50.00 
G00 Z2.0000 
G00 X-24.6000 Y54.5000 
G01 Z-1.7000 F50.00 
G00 Z2.0000 
G00 X-33.0000 Y62.0000 
G01 Z-1.7000 F50.00 
G00 Z2.0000 
G00 X-31.0000 Y64.1100 
G01 Z-1.7000 F50.00 
G00 Z2.0000 
G00 X-23.0000 Y68.2000 
G01 Z-1.7000 F50.00 
G00 Z2.0000 
G00 X-18.0000 Y68.2000 
G01 Z-1.7000 F50.00 
G00 Z2.0000 
T01 
G00 Z10.0000 
M05
M02
