(Current profile is .../pcbgcode/profiles/generic.pp  )
(Z Axis Settings)
(  High     Up        Down     Drill)
(10.0000 	2.0000 	-0.3000 	-1.8000 )
(Settings from pcb-defaults.h)
(isolate min = 0.0000)
(isolate max = 0.3000)
(isolate step = 0.1500)
(Generated bottom outlines, bottom drill, )
(Unit of measure: mm)
(Metric Mode)
G21
(Absolute Coordinates)
G90
S15000
G00 Z2.0000 
G00 X0.0000 Y0.0000 
M03
G04 P3.000000
G01 Z-0.3 F100.00 
G00 X0.0 Y0.0 F100.00 
G00 X37.0 Y0.0 
G00 X37.0 Y61.5 
G00 X0.0 Y61.5 
G00 X0.0 Y0.0 
G01 Z-0.6 F100.00 
G00 X37.0 Y0.0 
G00 X37.0 Y61.5 
G00 X0.0 Y61.5 
G00 X0.0 Y0.0 
G01 Z-0.9 F100.00 
G00 X37.0 Y0.0 
G00 X37.0 Y61.5 
G00 X0.0 Y61.5 
G00 X0.0 Y0.0 
G01 Z-1.2 F100.00 
G00 X37.0 Y0.0 
G00 X37.0 Y61.5 
G00 X0.0 Y61.5 
G00 X0.0 Y0.0 
G01 Z-1.5 F100.00 
G00 X37.0 Y0.0 
G00 X37.0 Y61.5 
G00 X0.0 Y61.5 
G00 X0.0 Y0.0 
G01 Z5.0 F100.00 
M05
M02
