(Current profile is .../pcbgcode/profiles/generic.pp  )
(Z Axis Settings)
(  High     Up        Down     Drill)
(10.0000 	2.0000 	-0.3000 	-1.8000 )
(Settings from pcb-defaults.h)
(isolate min = 0.0000)
(isolate max = 0.3000)
(isolate step = 0.1500)
(Generated bottom outlines, bottom drill, )
(Unit of measure: mm)
(Metric Mode)
G21
(Absolute Coordinates)
G90
S30000
G00 Z10.0000 
G00 X0.0000 Y0.0000 
M03
G04 P3.000000
G00 Z2.0000 
G00 X-1.9581 Y3.5649 
G01 Z-0.3000 F100.00 
G01 X-2.1349 Y3.3881 F300.00 
G01 X-2.3372 Y3.2410 
G01 X-2.5601 Y3.1275 
G01 X-2.7979 Y3.0502 
G01 X-3.0449 Y3.0111 
G01 X-3.2950 Y3.0111 
G01 X-3.5421 Y3.0502 
G01 X-3.7799 Y3.1275 
G01 X-4.0028 Y3.2410 
G01 X-4.2051 Y3.3881 
G01 X-4.3819 Y3.5649 
G01 X-4.5289 Y3.7672 
G01 X-4.6425 Y3.9901 
G01 X-4.7198 Y4.2279 
G01 X-4.7589 Y4.4749 
G01 X-4.7589 Y4.7251 
G01 X-4.7198 Y4.9721 
G01 X-4.6425 Y5.2099 
G01 X-4.5289 Y5.4328 
G01 X-4.3819 Y5.6351 
G01 X-4.2051 Y5.8119 
G01 X-4.0028 Y5.9589 
G01 X-3.7799 Y6.0725 
G01 X-3.6889 Y6.1021 
G01 X-3.6889 Y6.1975 
G01 X-10.7002 Y13.2088 
G01 X-10.7912 Y13.2998 
G01 X-10.8556 Y13.4113 
G01 X-10.8889 Y13.5356 
G01 X-10.8889 Y23.7557 
G01 X-11.1099 Y23.8275 
G01 X-11.3328 Y23.9411 
G01 X-11.5351 Y24.0881 
G01 X-11.7119 Y24.2649 
G01 X-11.8589 Y24.4672 
G01 X-11.9725 Y24.6901 
G01 X-12.0498 Y24.9279 
G01 X-12.0889 Y25.1749 
G01 X-12.0889 Y25.4250 
G01 X-12.0498 Y25.6721 
G01 X-11.9725 Y25.9099 
G01 X-11.8589 Y26.1328 
G01 X-11.7119 Y26.3351 
G01 X-11.5351 Y26.5119 
G01 X-11.3328 Y26.6589 
G01 X-11.1099 Y26.7725 
G01 X-10.8721 Y26.8498 
G01 X-10.6250 Y26.8889 
G01 X-10.3749 Y26.8889 
G01 X-10.1279 Y26.8498 
G01 X-9.8901 Y26.7725 
G01 X-9.6672 Y26.6589 
G01 X-9.4649 Y26.5119 
G01 X-9.2881 Y26.3351 
G01 X-9.1410 Y26.1328 
G01 X-9.0275 Y25.9099 
G01 X-8.9502 Y25.6721 
G01 X-8.9111 Y25.4250 
G01 X-8.9111 Y25.1749 
G01 X-8.9502 Y24.9279 
G01 X-9.0275 Y24.6901 
G01 X-9.1410 Y24.4672 
G01 X-9.2881 Y24.2649 
G01 X-9.4649 Y24.0881 
G01 X-9.6672 Y23.9411 
G01 X-9.8901 Y23.8275 
G01 X-9.9111 Y23.8207 
G01 X-9.9111 Y13.8025 
G01 X-2.8088 Y6.7002 
G01 X-2.7444 Y6.5887 
G01 X-2.7111 Y6.4644 
G01 X-2.7111 Y6.1216 
G01 X-2.5601 Y6.0725 
G01 X-2.3372 Y5.9589 
G01 X-2.1349 Y5.8119 
G01 X-1.9581 Y5.6351 
G01 X-1.8111 Y5.4328 
G01 X-1.6975 Y5.2099 
G01 X-1.6202 Y4.9721 
G01 X-1.5811 Y4.7251 
G01 X-1.5811 Y4.4749 
G01 X-1.6202 Y4.2279 
G01 X-1.6975 Y3.9901 
G01 X-1.8111 Y3.7672 
G01 X-1.9581 Y3.5649 
G00 Z2.0000 
G00 X-6.9581 Y3.5649 
G01 Z-0.3000 F100.00 
G01 X-7.1349 Y3.3881 F300.00 
G01 X-7.3372 Y3.2410 
G01 X-7.5601 Y3.1275 
G01 X-7.7979 Y3.0502 
G01 X-8.0449 Y3.0111 
G01 X-8.2950 Y3.0111 
G01 X-8.5421 Y3.0502 
G01 X-8.7799 Y3.1275 
G01 X-9.0028 Y3.2410 
G01 X-9.2051 Y3.3881 
G01 X-9.3819 Y3.5649 
G01 X-9.5289 Y3.7672 
G01 X-9.6425 Y3.9901 
G01 X-9.7198 Y4.2279 
G01 X-9.7589 Y4.4749 
G01 X-9.7589 Y4.7251 
G01 X-9.7198 Y4.9721 
G01 X-9.6425 Y5.2099 
G01 X-9.5289 Y5.4328 
G01 X-9.3819 Y5.6351 
G01 X-9.2051 Y5.8119 
G01 X-9.0028 Y5.9589 
G01 X-8.7799 Y6.0725 
G01 X-8.6889 Y6.1021 
G01 X-8.6889 Y7.5975 
G01 X-21.6025 Y20.5111 
G01 X-23.0644 Y20.5111 
G01 X-23.1887 Y20.5444 
G01 X-23.3002 Y20.6088 
G01 X-26.5429 Y23.8515 
G01 X-26.5901 Y23.8275 
G01 X-26.8279 Y23.7502 
G01 X-27.0749 Y23.7111 
G01 X-27.3251 Y23.7111 
G01 X-27.5721 Y23.7502 
G01 X-27.8099 Y23.8275 
G01 X-28.0328 Y23.9411 
G01 X-28.2351 Y24.0881 
G01 X-28.4119 Y24.2649 
G01 X-28.5589 Y24.4672 
G01 X-28.6725 Y24.6901 
G01 X-28.7498 Y24.9279 
G01 X-28.7889 Y25.1749 
G01 X-28.7889 Y25.4250 
G01 X-28.7498 Y25.6721 
G01 X-28.6725 Y25.9099 
G01 X-28.5589 Y26.1328 
G01 X-28.4119 Y26.3351 
G01 X-28.2351 Y26.5119 
G01 X-28.0328 Y26.6589 
G01 X-27.8099 Y26.7725 
G01 X-27.5721 Y26.8498 
G01 X-27.3251 Y26.8889 
G01 X-27.0749 Y26.8889 
G01 X-26.8279 Y26.8498 
G01 X-26.5901 Y26.7725 
G01 X-26.3672 Y26.6589 
G01 X-26.1649 Y26.5119 
G01 X-25.9881 Y26.3351 
G01 X-25.8410 Y26.1328 
G01 X-25.7275 Y25.9099 
G01 X-25.6502 Y25.6721 
G01 X-25.6111 Y25.4250 
G01 X-25.6111 Y25.1749 
G01 X-25.6502 Y24.9279 
G01 X-25.7275 Y24.6901 
G01 X-25.8190 Y24.5104 
G01 X-22.7975 Y21.4889 
G01 X-21.3356 Y21.4889 
G01 X-21.2113 Y21.4556 
G01 X-21.0998 Y21.3912 
G01 X-21.0088 Y21.3002 
G01 X-7.8088 Y8.1002 
G01 X-7.7444 Y7.9887 
G01 X-7.7111 Y7.8644 
G01 X-7.7111 Y6.1216 
G01 X-7.5601 Y6.0725 
G01 X-7.3372 Y5.9589 
G01 X-7.1349 Y5.8119 
G01 X-6.9581 Y5.6351 
G01 X-6.8110 Y5.4328 
G01 X-6.6975 Y5.2099 
G01 X-6.6202 Y4.9721 
G01 X-6.5811 Y4.7251 
G01 X-6.5811 Y4.4749 
G01 X-6.6202 Y4.2279 
G01 X-6.6975 Y3.9901 
G01 X-6.8110 Y3.7672 
G01 X-6.9581 Y3.5649 
G00 Z2.0000 
G00 X-11.9581 Y3.5649 
G01 Z-0.3000 F100.00 
G01 X-12.1349 Y3.3881 F300.00 
G01 X-12.3372 Y3.2410 
G01 X-12.5601 Y3.1275 
G01 X-12.7979 Y3.0502 
G01 X-13.0449 Y3.0111 
G01 X-13.2950 Y3.0111 
G01 X-13.5421 Y3.0502 
G01 X-13.7799 Y3.1275 
G01 X-14.0028 Y3.2410 
G01 X-14.2051 Y3.3881 
G01 X-14.3819 Y3.5649 
G01 X-14.4500 Y3.6586 
G01 X-16.8088 Y1.2998 
G01 X-16.8998 Y1.2088 
G01 X-17.0113 Y1.1444 
G01 X-17.1356 Y1.1111 
G01 X-20.4644 Y1.1111 
G01 X-20.5887 Y1.1444 
G01 X-20.7002 Y1.2088 
G01 X-22.7104 Y3.2190 
G01 X-22.8901 Y3.1275 
G01 X-23.1279 Y3.0502 
G01 X-23.3749 Y3.0111 
G01 X-23.6251 Y3.0111 
G01 X-23.8721 Y3.0502 
G01 X-24.1099 Y3.1275 
G01 X-24.2896 Y3.2190 
G01 X-26.2998 Y1.2088 
G01 X-26.4113 Y1.1444 
G01 X-26.5356 Y1.1111 
G01 X-30.0644 Y1.1111 
G01 X-30.1887 Y1.1444 
G01 X-30.3002 Y1.2088 
G01 X-30.3912 Y1.2998 
G01 X-32.5822 Y3.4908 
G01 X-32.6849 Y3.3881 
G01 X-32.8872 Y3.2410 
G01 X-33.1101 Y3.1275 
G01 X-33.3479 Y3.0502 
G01 X-33.5949 Y3.0111 
G01 X-33.8451 Y3.0111 
G01 X-34.0921 Y3.0502 
G01 X-34.3299 Y3.1275 
G01 X-34.5528 Y3.2410 
G01 X-34.7551 Y3.3881 
G01 X-34.9319 Y3.5649 
G01 X-35.0789 Y3.7672 
G01 X-35.1925 Y3.9901 
G01 X-35.2698 Y4.2279 
G01 X-35.3089 Y4.4749 
G01 X-35.3089 Y4.7251 
G01 X-35.2698 Y4.9721 
G01 X-35.1925 Y5.2099 
G01 X-35.0789 Y5.4328 
G01 X-34.9319 Y5.6351 
G01 X-34.7551 Y5.8119 
G01 X-34.5528 Y5.9589 
G01 X-34.3299 Y6.0725 
G01 X-34.0921 Y6.1498 
G01 X-33.8451 Y6.1889 
G01 X-33.5949 Y6.1889 
G01 X-33.3479 Y6.1498 
G01 X-33.1101 Y6.0725 
G01 X-32.8872 Y5.9589 
G01 X-32.6849 Y5.8119 
G01 X-32.5081 Y5.6351 
G01 X-32.3610 Y5.4328 
G01 X-32.2475 Y5.2099 
G01 X-32.1702 Y4.9721 
G01 X-32.1311 Y4.7251 
G01 X-32.1311 Y4.4749 
G01 X-32.1383 Y4.4297 
G01 X-29.7975 Y2.0889 
G01 X-26.8025 Y2.0889 
G01 X-24.9485 Y3.9429 
G01 X-24.9725 Y3.9901 
G01 X-25.0498 Y4.2279 
G01 X-25.0889 Y4.4749 
G01 X-25.0889 Y4.7251 
G01 X-25.0498 Y4.9721 
G01 X-24.9725 Y5.2099 
G01 X-24.8589 Y5.4328 
G01 X-24.7119 Y5.6351 
G01 X-24.5351 Y5.8119 
G01 X-24.3328 Y5.9589 
G01 X-24.1099 Y6.0725 
G01 X-23.8721 Y6.1498 
G01 X-23.6251 Y6.1889 
G01 X-23.3749 Y6.1889 
G01 X-23.1279 Y6.1498 
G01 X-22.8901 Y6.0725 
G01 X-22.6672 Y5.9589 
G01 X-22.4649 Y5.8119 
G01 X-22.2881 Y5.6351 
G01 X-22.1410 Y5.4328 
G01 X-22.0275 Y5.2099 
G01 X-21.9502 Y4.9721 
G01 X-21.9111 Y4.7251 
G01 X-21.9111 Y4.4749 
G01 X-21.9502 Y4.2279 
G01 X-22.0275 Y3.9901 
G01 X-22.0515 Y3.9429 
G01 X-20.1975 Y2.0889 
G01 X-17.4025 Y2.0889 
G01 X-14.7575 Y4.7339 
G01 X-14.7198 Y4.9721 
G01 X-14.6425 Y5.2099 
G01 X-14.5289 Y5.4328 
G01 X-14.3819 Y5.6351 
G01 X-14.2051 Y5.8119 
G01 X-14.0028 Y5.9589 
G01 X-13.7799 Y6.0725 
G01 X-13.5421 Y6.1498 
G01 X-13.2950 Y6.1889 
G01 X-13.0449 Y6.1889 
G01 X-12.7979 Y6.1498 
G01 X-12.5601 Y6.0725 
G01 X-12.3372 Y5.9589 
G01 X-12.1349 Y5.8119 
G01 X-11.9581 Y5.6351 
G01 X-11.8110 Y5.4328 
G01 X-11.6975 Y5.2099 
G01 X-11.6202 Y4.9721 
G01 X-11.5811 Y4.7251 
G01 X-11.5811 Y4.4749 
G01 X-11.6202 Y4.2279 
G01 X-11.6975 Y3.9901 
G01 X-11.8110 Y3.7672 
G01 X-11.9581 Y3.5649 
G00 Z2.0000 
G00 X-17.2881 Y3.5649 
G01 Z-0.3000 F100.00 
G01 X-17.4649 Y3.3881 F300.00 
G01 X-17.6672 Y3.2410 
G01 X-17.8901 Y3.1275 
G01 X-18.1279 Y3.0502 
G01 X-18.3749 Y3.0111 
G01 X-18.6251 Y3.0111 
G01 X-18.8721 Y3.0502 
G01 X-19.1099 Y3.1275 
G01 X-19.3328 Y3.2410 
G01 X-19.5351 Y3.3881 
G01 X-19.7119 Y3.5649 
G01 X-19.8589 Y3.7672 
G01 X-19.9725 Y3.9901 
G01 X-20.0498 Y4.2279 
G01 X-20.0889 Y4.4749 
G01 X-20.0889 Y4.7251 
G01 X-20.0498 Y4.9721 
G01 X-19.9725 Y5.2099 
G01 X-19.8589 Y5.4328 
G01 X-19.7119 Y5.6351 
G01 X-19.5351 Y5.8119 
G01 X-19.3328 Y5.9589 
G01 X-19.1099 Y6.0725 
G01 X-18.8889 Y6.1443 
G01 X-18.8889 Y7.1111 
G01 X-28.3111 Y7.1111 
G01 X-28.3111 Y6.1378 
G01 X-28.1101 Y6.0725 
G01 X-27.8872 Y5.9589 
G01 X-27.6849 Y5.8119 
G01 X-27.5081 Y5.6351 
G01 X-27.3610 Y5.4328 
G01 X-27.2475 Y5.2099 
G01 X-27.1702 Y4.9721 
G01 X-27.1311 Y4.7251 
G01 X-27.1311 Y4.4749 
G01 X-27.1702 Y4.2279 
G01 X-27.2475 Y3.9901 
G01 X-27.3610 Y3.7672 
G01 X-27.5081 Y3.5649 
G01 X-27.6849 Y3.3881 
G01 X-27.8872 Y3.2410 
G01 X-28.1101 Y3.1275 
G01 X-28.3479 Y3.0502 
G01 X-28.5949 Y3.0111 
G01 X-28.8451 Y3.0111 
G01 X-29.0921 Y3.0502 
G01 X-29.3299 Y3.1275 
G01 X-29.5528 Y3.2410 
G01 X-29.7551 Y3.3881 
G01 X-29.9319 Y3.5649 
G01 X-30.0789 Y3.7672 
G01 X-30.1925 Y3.9901 
G01 X-30.2698 Y4.2279 
G01 X-30.3089 Y4.4749 
G01 X-30.3089 Y4.7251 
G01 X-30.2698 Y4.9721 
G01 X-30.1925 Y5.2099 
G01 X-30.0789 Y5.4328 
G01 X-29.9319 Y5.6351 
G01 X-29.7551 Y5.8119 
G01 X-29.5528 Y5.9589 
G01 X-29.3299 Y6.0725 
G01 X-29.2889 Y6.0858 
G01 X-29.2889 Y7.1975 
G01 X-32.5429 Y10.4515 
G01 X-32.5901 Y10.4275 
G01 X-32.8279 Y10.3502 
G01 X-33.0749 Y10.3111 
G01 X-33.3250 Y10.3111 
G01 X-33.5721 Y10.3502 
G01 X-33.8099 Y10.4275 
G01 X-34.0328 Y10.5411 
G01 X-34.2351 Y10.6881 
G01 X-34.4119 Y10.8649 
G01 X-34.5589 Y11.0672 
G01 X-34.6725 Y11.2901 
G01 X-34.7498 Y11.5279 
G01 X-34.7889 Y11.7749 
G01 X-34.7889 Y12.0251 
G01 X-34.7498 Y12.2721 
G01 X-34.6725 Y12.5099 
G01 X-34.5589 Y12.7328 
G01 X-34.4119 Y12.9351 
G01 X-34.2351 Y13.1119 
G01 X-34.0328 Y13.2589 
G01 X-33.8099 Y13.3725 
G01 X-33.5721 Y13.4498 
G01 X-33.3250 Y13.4889 
G01 X-33.0749 Y13.4889 
G01 X-32.8279 Y13.4498 
G01 X-32.5901 Y13.3725 
G01 X-32.3672 Y13.2589 
G01 X-32.1649 Y13.1119 
G01 X-31.9881 Y12.9351 
G01 X-31.8410 Y12.7328 
G01 X-31.7275 Y12.5099 
G01 X-31.6502 Y12.2721 
G01 X-31.6111 Y12.0251 
G01 X-31.6111 Y11.7749 
G01 X-31.6502 Y11.5279 
G01 X-31.7275 Y11.2901 
G01 X-31.8190 Y11.1104 
G01 X-28.7694 Y8.0608 
G01 X-28.6644 Y8.0889 
G01 X-18.8889 Y8.0889 
G01 X-18.8889 Y10.0644 
G01 X-18.8556 Y10.1887 
G01 X-18.7912 Y10.3002 
G01 X-17.9147 Y11.1767 
G01 X-17.9725 Y11.2901 
G01 X-18.0498 Y11.5279 
G01 X-18.0889 Y11.7749 
G01 X-18.0889 Y12.0251 
G01 X-18.0498 Y12.2721 
G01 X-17.9725 Y12.5099 
G01 X-17.8589 Y12.7328 
G01 X-17.7119 Y12.9351 
G01 X-17.5351 Y13.1119 
G01 X-17.3328 Y13.2589 
G01 X-17.1099 Y13.3725 
G01 X-16.8721 Y13.4498 
G01 X-16.6251 Y13.4889 
G01 X-16.3749 Y13.4889 
G01 X-16.1279 Y13.4498 
G01 X-15.8901 Y13.3725 
G01 X-15.6672 Y13.2589 
G01 X-15.4649 Y13.1119 
G01 X-15.2881 Y12.9351 
G01 X-15.1410 Y12.7328 
G01 X-15.0275 Y12.5099 
G01 X-14.9502 Y12.2721 
G01 X-14.9111 Y12.0251 
G01 X-14.9111 Y11.7749 
G01 X-14.9502 Y11.5279 
G01 X-15.0275 Y11.2901 
G01 X-15.1410 Y11.0672 
G01 X-15.2881 Y10.8649 
G01 X-15.4649 Y10.6881 
G01 X-15.6672 Y10.5411 
G01 X-15.8901 Y10.4275 
G01 X-16.1279 Y10.3502 
G01 X-16.3749 Y10.3111 
G01 X-16.6251 Y10.3111 
G01 X-16.8721 Y10.3502 
G01 X-17.1099 Y10.4275 
G01 X-17.2233 Y10.4853 
G01 X-17.9111 Y9.7975 
G01 X-17.9111 Y6.0793 
G01 X-17.8901 Y6.0725 
G01 X-17.6672 Y5.9589 
G01 X-17.4649 Y5.8119 
G01 X-17.2881 Y5.6351 
G01 X-17.1410 Y5.4328 
G01 X-17.0275 Y5.2099 
G01 X-16.9502 Y4.9721 
G01 X-16.9111 Y4.7251 
G01 X-16.9111 Y4.4749 
G01 X-16.9502 Y4.2279 
G01 X-17.0275 Y3.9901 
G01 X-17.1410 Y3.7672 
G01 X-17.2881 Y3.5649 
G00 Z2.0000 
G00 X-19.9881 Y10.8649 
G01 Z-0.3000 F100.00 
G01 X-20.1649 Y10.6881 F300.00 
G01 X-20.3672 Y10.5411 
G01 X-20.5901 Y10.4275 
G01 X-20.8279 Y10.3502 
G01 X-21.0749 Y10.3111 
G01 X-21.3251 Y10.3111 
G01 X-21.5721 Y10.3502 
G01 X-21.8099 Y10.4275 
G01 X-22.0328 Y10.5411 
G01 X-22.2351 Y10.6881 
G01 X-22.4119 Y10.8649 
G01 X-22.5589 Y11.0672 
G01 X-22.6725 Y11.2901 
G01 X-22.7498 Y11.5279 
G01 X-22.7889 Y11.7749 
G01 X-22.7889 Y12.0251 
G01 X-22.7498 Y12.2721 
G01 X-22.6725 Y12.5099 
G01 X-22.5589 Y12.7328 
G01 X-22.4119 Y12.9351 
G01 X-22.2351 Y13.1119 
G01 X-22.0328 Y13.2589 
G01 X-21.8099 Y13.3725 
G01 X-21.5721 Y13.4498 
G01 X-21.3251 Y13.4889 
G01 X-21.0749 Y13.4889 
G01 X-20.8279 Y13.4498 
G01 X-20.5901 Y13.3725 
G01 X-20.3672 Y13.2589 
G01 X-20.1649 Y13.1119 
G01 X-19.9881 Y12.9351 
G01 X-19.8410 Y12.7328 
G01 X-19.7275 Y12.5099 
G01 X-19.6502 Y12.2721 
G01 X-19.6111 Y12.0251 
G01 X-19.6111 Y11.7749 
G01 X-19.6502 Y11.5279 
G01 X-19.7275 Y11.2901 
G01 X-19.8410 Y11.0672 
G01 X-19.9881 Y10.8649 
G00 Z2.0000 
G00 X-19.9881 Y22.8649 
G01 Z-0.3000 F100.00 
G01 X-20.1649 Y22.6881 F300.00 
G01 X-20.3672 Y22.5410 
G01 X-20.5901 Y22.4275 
G01 X-20.8279 Y22.3502 
G01 X-21.0749 Y22.3111 
G01 X-21.3251 Y22.3111 
G01 X-21.5721 Y22.3502 
G01 X-21.8099 Y22.4275 
G01 X-22.0328 Y22.5410 
G01 X-22.2351 Y22.6881 
G01 X-22.4119 Y22.8649 
G01 X-22.5589 Y23.0672 
G01 X-22.6725 Y23.2901 
G01 X-22.7498 Y23.5279 
G01 X-22.7889 Y23.7749 
G01 X-22.7889 Y24.0251 
G01 X-22.7498 Y24.2721 
G01 X-22.7328 Y24.3242 
G01 X-26.5197 Y28.1111 
G01 X-28.8380 Y28.1111 
G01 X-28.9115 Y28.1308 
G01 X-28.9774 Y28.1688 
G01 X-30.2312 Y29.4226 
G01 X-30.2692 Y29.4885 
G01 X-30.2889 Y29.5620 
G01 X-30.2889 Y32.7111 
G01 X-31.1657 Y32.7111 
G01 X-31.2375 Y32.4901 
G01 X-31.3511 Y32.2672 
G01 X-31.4981 Y32.0649 
G01 X-31.6749 Y31.8881 
G01 X-31.8772 Y31.7411 
G01 X-32.1001 Y31.6275 
G01 X-32.3379 Y31.5502 
G01 X-32.5849 Y31.5111 
G01 X-32.8351 Y31.5111 
G01 X-33.0821 Y31.5502 
G01 X-33.3199 Y31.6275 
G01 X-33.5428 Y31.7411 
G01 X-33.7451 Y31.8881 
G01 X-33.9219 Y32.0649 
G01 X-34.0689 Y32.2672 
G01 X-34.1825 Y32.4901 
G01 X-34.2598 Y32.7279 
G01 X-34.2989 Y32.9749 
G01 X-34.2989 Y33.2251 
G01 X-34.2598 Y33.4721 
G01 X-34.1825 Y33.7099 
G01 X-34.0689 Y33.9328 
G01 X-33.9262 Y34.1292 
G01 X-33.9519 Y34.1549 
G01 X-34.0989 Y34.3572 
G01 X-34.2125 Y34.5801 
G01 X-34.2898 Y34.8179 
G01 X-34.3289 Y35.0649 
G01 X-34.3289 Y35.3150 
G01 X-34.2898 Y35.5621 
G01 X-34.2125 Y35.7999 
G01 X-34.0989 Y36.0228 
G01 X-33.9519 Y36.2251 
G01 X-33.7751 Y36.4019 
G01 X-33.5728 Y36.5489 
G01 X-33.3499 Y36.6625 
G01 X-33.1121 Y36.7398 
G01 X-32.8650 Y36.7789 
G01 X-32.6149 Y36.7789 
G01 X-32.3679 Y36.7398 
G01 X-32.1301 Y36.6625 
G01 X-31.9072 Y36.5489 
G01 X-31.7049 Y36.4019 
G01 X-31.5281 Y36.2251 
G01 X-31.3810 Y36.0228 
G01 X-31.2675 Y35.7999 
G01 X-31.1902 Y35.5621 
G01 X-31.1511 Y35.3150 
G01 X-31.1511 Y35.0649 
G01 X-31.1902 Y34.8179 
G01 X-31.2675 Y34.5801 
G01 X-31.3810 Y34.3572 
G01 X-31.5238 Y34.1608 
G01 X-31.4981 Y34.1351 
G01 X-31.3511 Y33.9328 
G01 X-31.2375 Y33.7099 
G01 X-31.1602 Y33.4721 
G01 X-31.1312 Y33.2889 
G01 X-26.9197 Y33.2889 
G01 X-25.3860 Y34.8225 
G01 X-25.5113 Y34.9478 
G01 X-25.6351 Y35.1183 
G01 X-25.7308 Y35.3060 
G01 X-25.7959 Y35.5065 
G01 X-25.8289 Y35.7146 
G01 X-25.8289 Y35.9254 
G01 X-25.7959 Y36.1335 
G01 X-25.7308 Y36.3340 
G01 X-25.6351 Y36.5217 
G01 X-25.5113 Y36.6922 
G01 X-25.3622 Y36.8413 
G01 X-25.1917 Y36.9651 
G01 X-25.0040 Y37.0608 
G01 X-24.8035 Y37.1259 
G01 X-24.5954 Y37.1589 
G01 X-24.3846 Y37.1589 
G01 X-24.1765 Y37.1259 
G01 X-23.9760 Y37.0608 
G01 X-23.7883 Y36.9651 
G01 X-23.6178 Y36.8413 
G01 X-23.4687 Y36.6922 
G01 X-23.3449 Y36.5217 
G01 X-23.2492 Y36.3340 
G01 X-23.1841 Y36.1335 
G01 X-23.1511 Y35.9254 
G01 X-23.1511 Y35.7146 
G01 X-23.1841 Y35.5065 
G01 X-23.2492 Y35.3060 
G01 X-23.3449 Y35.1183 
G01 X-23.4687 Y34.9478 
G01 X-23.6178 Y34.7987 
G01 X-23.7883 Y34.6749 
G01 X-23.9760 Y34.5792 
G01 X-24.1765 Y34.5141 
G01 X-24.3846 Y34.4811 
G01 X-24.5954 Y34.4811 
G01 X-24.8035 Y34.5141 
G01 X-24.8593 Y34.5322 
G01 X-26.5688 Y32.8226 
G01 X-26.6226 Y32.7688 
G01 X-26.6885 Y32.7308 
G01 X-26.7620 Y32.7111 
G01 X-29.7111 Y32.7111 
G01 X-29.7111 Y29.7197 
G01 X-28.6803 Y28.6889 
G01 X-26.3620 Y28.6889 
G01 X-26.2885 Y28.6692 
G01 X-26.2226 Y28.6312 
G01 X-26.1688 Y28.5774 
G01 X-22.4602 Y24.8687 
G01 X-22.4119 Y24.9351 
G01 X-22.2351 Y25.1119 
G01 X-22.0328 Y25.2589 
G01 X-21.8099 Y25.3725 
G01 X-21.5721 Y25.4498 
G01 X-21.3251 Y25.4889 
G01 X-21.0749 Y25.4889 
G01 X-20.8279 Y25.4498 
G01 X-20.5901 Y25.3725 
G01 X-20.3672 Y25.2589 
G01 X-20.1649 Y25.1119 
G01 X-19.9881 Y24.9351 
G01 X-19.8410 Y24.7328 
G01 X-19.7275 Y24.5099 
G01 X-19.6502 Y24.2721 
G01 X-19.6111 Y24.0251 
G01 X-19.6111 Y23.7749 
G01 X-19.6502 Y23.5279 
G01 X-19.7275 Y23.2901 
G01 X-19.8410 Y23.0672 
G01 X-19.9881 Y22.8649 
G00 Z2.0000 
G00 X-17.7119 Y22.8649 
G01 Z-0.3000 F100.00 
G01 X-17.8589 Y23.0672 F300.00 
G01 X-17.9725 Y23.2901 
G01 X-18.0498 Y23.5279 
G01 X-18.0889 Y23.7749 
G01 X-18.0889 Y24.0251 
G01 X-18.0498 Y24.2721 
G01 X-17.9725 Y24.5099 
G01 X-17.8589 Y24.7328 
G01 X-17.7119 Y24.9351 
G01 X-17.5351 Y25.1119 
G01 X-17.3328 Y25.2589 
G01 X-17.1099 Y25.3725 
G01 X-16.8889 Y25.4443 
G01 X-16.8889 Y29.0803 
G01 X-17.0117 Y29.2032 
G01 X-17.0972 Y29.1410 
G01 X-17.3201 Y29.0275 
G01 X-17.5579 Y28.9502 
G01 X-17.8049 Y28.9111 
G01 X-18.0551 Y28.9111 
G01 X-18.3021 Y28.9502 
G01 X-18.5399 Y29.0275 
G01 X-18.7628 Y29.1410 
G01 X-18.8600 Y29.2117 
G01 X-18.9572 Y29.1410 
G01 X-19.1801 Y29.0275 
G01 X-19.4179 Y28.9502 
G01 X-19.6649 Y28.9111 
G01 X-19.9151 Y28.9111 
G01 X-20.1621 Y28.9502 
G01 X-20.3999 Y29.0275 
G01 X-20.6228 Y29.1410 
G01 X-20.8251 Y29.2881 
G01 X-21.0019 Y29.4649 
G01 X-21.1489 Y29.6672 
G01 X-21.2625 Y29.8901 
G01 X-21.3398 Y30.1279 
G01 X-21.3789 Y30.3749 
G01 X-21.3789 Y30.6251 
G01 X-21.3398 Y30.8721 
G01 X-21.2625 Y31.1099 
G01 X-21.1489 Y31.3328 
G01 X-21.0019 Y31.5351 
G01 X-20.8251 Y31.7119 
G01 X-20.6228 Y31.8589 
G01 X-20.3999 Y31.9725 
G01 X-20.1621 Y32.0498 
G01 X-19.9151 Y32.0889 
G01 X-19.8889 Y32.0889 
G01 X-19.8889 Y33.2301 
G01 X-20.1363 Y33.2692 
G01 X-20.3741 Y33.3465 
G01 X-20.5970 Y33.4601 
G01 X-20.7993 Y33.6071 
G01 X-20.9762 Y33.7839 
G01 X-21.1232 Y33.9863 
G01 X-21.2367 Y34.2091 
G01 X-21.3140 Y34.4470 
G01 X-21.3531 Y34.6940 
G01 X-21.3531 Y34.9441 
G01 X-21.3140 Y35.1911 
G01 X-21.2367 Y35.4290 
G01 X-21.1232 Y35.6518 
G01 X-20.9762 Y35.8541 
G01 X-20.7993 Y36.0310 
G01 X-20.5970 Y36.1780 
G01 X-20.3741 Y36.2915 
G01 X-20.1363 Y36.3688 
G01 X-19.8893 Y36.4079 
G01 X-19.6392 Y36.4079 
G01 X-19.3921 Y36.3688 
G01 X-19.1543 Y36.2915 
G01 X-18.9315 Y36.1780 
G01 X-18.7500 Y36.0461 
G01 X-18.5685 Y36.1780 
G01 X-18.3457 Y36.2915 
G01 X-18.1078 Y36.3688 
G01 X-17.8608 Y36.4079 
G01 X-17.6107 Y36.4079 
G01 X-17.3637 Y36.3688 
G01 X-17.1258 Y36.2915 
G01 X-16.9030 Y36.1780 
G01 X-16.7007 Y36.0310 
G01 X-16.5238 Y35.8541 
G01 X-16.3768 Y35.6518 
G01 X-16.2633 Y35.4290 
G01 X-16.1860 Y35.1911 
G01 X-16.1469 Y34.9441 
G01 X-16.1469 Y34.6940 
G01 X-16.1860 Y34.4470 
G01 X-16.2633 Y34.2091 
G01 X-16.3768 Y33.9863 
G01 X-16.5238 Y33.7839 
G01 X-16.7007 Y33.6071 
G01 X-16.9030 Y33.4601 
G01 X-17.1258 Y33.3465 
G01 X-17.3637 Y33.2692 
G01 X-17.6107 Y33.2301 
G01 X-17.8608 Y33.2301 
G01 X-18.1078 Y33.2692 
G01 X-18.3457 Y33.3465 
G01 X-18.5685 Y33.4601 
G01 X-18.7500 Y33.5919 
G01 X-18.9315 Y33.4601 
G01 X-19.1543 Y33.3465 
G01 X-19.3111 Y33.2956 
G01 X-19.3111 Y32.0151 
G01 X-19.1801 Y31.9725 
G01 X-18.9572 Y31.8589 
G01 X-18.8600 Y31.7883 
G01 X-18.7628 Y31.8589 
G01 X-18.5399 Y31.9725 
G01 X-18.3021 Y32.0498 
G01 X-18.0551 Y32.0889 
G01 X-17.8049 Y32.0889 
G01 X-17.5579 Y32.0498 
G01 X-17.3201 Y31.9725 
G01 X-17.0972 Y31.8589 
G01 X-16.8949 Y31.7119 
G01 X-16.7181 Y31.5351 
G01 X-16.5710 Y31.3328 
G01 X-16.4575 Y31.1099 
G01 X-16.3802 Y30.8721 
G01 X-16.3411 Y30.6251 
G01 X-16.3411 Y30.3749 
G01 X-16.3802 Y30.1279 
G01 X-16.4575 Y29.8901 
G01 X-16.5710 Y29.6672 
G01 X-16.6079 Y29.6165 
G01 X-16.3688 Y29.3774 
G01 X-16.3308 Y29.3115 
G01 X-16.3111 Y29.2380 
G01 X-16.3111 Y28.2889 
G01 X-9.1620 Y28.2889 
G01 X-9.0885 Y28.2692 
G01 X-9.0226 Y28.2312 
G01 X-6.4226 Y25.6312 
G01 X-6.3688 Y25.5774 
G01 X-6.3308 Y25.5115 
G01 X-6.3111 Y25.4380 
G01 X-6.3111 Y23.1197 
G01 X-5.2803 Y22.0889 
G01 X-3.7197 Y22.0889 
G01 X-2.6889 Y23.1197 
G01 X-2.6889 Y48.8803 
G01 X-4.2174 Y50.4089 
G01 X-4.2920 Y50.3709 
G01 X-4.4550 Y50.3179 
G01 X-4.6243 Y50.2911 
G01 X-4.7957 Y50.2911 
G01 X-4.9650 Y50.3179 
G01 X-5.1280 Y50.3709 
G01 X-5.2807 Y50.4487 
G01 X-5.4194 Y50.5494 
G01 X-5.5406 Y50.6706 
G01 X-5.6413 Y50.8093 
G01 X-5.7191 Y50.9620 
G01 X-5.7676 Y51.1111 
G01 X-6.4255 Y51.1111 
G01 X-6.4694 Y51.0506 
G01 X-6.5906 Y50.9294 
G01 X-6.7293 Y50.8287 
G01 X-6.8820 Y50.7509 
G01 X-7.0450 Y50.6979 
G01 X-7.2143 Y50.6711 
G01 X-7.3857 Y50.6711 
G01 X-7.5550 Y50.6979 
G01 X-7.7180 Y50.7509 
G01 X-7.8707 Y50.8287 
G01 X-8.0094 Y50.9294 
G01 X-8.1306 Y51.0506 
G01 X-8.2313 Y51.1893 
G01 X-8.3091 Y51.3420 
G01 X-8.3621 Y51.5050 
G01 X-8.3889 Y51.6743 
G01 X-8.3889 Y53.8457 
G01 X-8.3621 Y54.0150 
G01 X-8.3091 Y54.1780 
G01 X-8.2313 Y54.3307 
G01 X-8.1306 Y54.4694 
G01 X-8.0094 Y54.5906 
G01 X-8.0034 Y54.5949 
G01 X-10.9197 Y57.5111 
G01 X-12.1357 Y57.5111 
G01 X-12.2075 Y57.2901 
G01 X-12.3210 Y57.0672 
G01 X-12.4681 Y56.8649 
G01 X-12.6449 Y56.6881 
G01 X-12.8472 Y56.5410 
G01 X-13.0701 Y56.4275 
G01 X-13.3079 Y56.3502 
G01 X-13.5549 Y56.3111 
G01 X-13.8050 Y56.3111 
G01 X-14.0521 Y56.3502 
G01 X-14.2899 Y56.4275 
G01 X-14.5128 Y56.5410 
G01 X-14.5925 Y56.5990 
G01 X-15.2325 Y55.9590 
G01 X-15.1193 Y55.9013 
G01 X-14.9806 Y55.8006 
G01 X-14.8594 Y55.6794 
G01 X-14.7587 Y55.5407 
G01 X-14.6809 Y55.3880 
G01 X-14.6279 Y55.2250 
G01 X-14.6011 Y55.0557 
G01 X-14.6011 Y52.8843 
G01 X-14.6279 Y52.7150 
G01 X-14.6809 Y52.5520 
G01 X-14.7587 Y52.3993 
G01 X-14.8594 Y52.2606 
G01 X-14.9806 Y52.1394 
G01 X-15.1193 Y52.0387 
G01 X-15.2720 Y51.9609 
G01 X-15.4350 Y51.9079 
G01 X-15.6043 Y51.8811 
G01 X-15.7757 Y51.8811 
G01 X-15.9450 Y51.9079 
G01 X-16.1080 Y51.9609 
G01 X-16.2607 Y52.0387 
G01 X-16.3994 Y52.1394 
G01 X-16.5206 Y52.2606 
G01 X-16.6213 Y52.3993 
G01 X-16.6991 Y52.5520 
G01 X-16.7521 Y52.7150 
G01 X-16.7789 Y52.8843 
G01 X-16.7789 Y55.0557 
G01 X-16.7521 Y55.2250 
G01 X-16.6991 Y55.3880 
G01 X-16.6213 Y55.5407 
G01 X-16.5206 Y55.6794 
G01 X-16.3994 Y55.8006 
G01 X-16.2607 Y55.9013 
G01 X-16.2415 Y55.9111 
G01 X-17.0380 Y55.9111 
G01 X-17.1115 Y55.9308 
G01 X-17.1774 Y55.9688 
G01 X-20.9197 Y59.7111 
G01 X-29.8803 Y59.7111 
G01 X-30.9955 Y58.5959 
G01 X-30.9609 Y58.5280 
G01 X-30.9079 Y58.3650 
G01 X-30.8811 Y58.1957 
G01 X-30.8811 Y58.0243 
G01 X-30.9079 Y57.8550 
G01 X-30.9609 Y57.6920 
G01 X-31.0387 Y57.5393 
G01 X-31.1394 Y57.4006 
G01 X-31.2606 Y57.2794 
G01 X-31.3993 Y57.1787 
G01 X-31.5111 Y57.1217 
G01 X-31.5111 Y54.0091 
G01 X-31.4687 Y53.9507 
G01 X-31.3909 Y53.7980 
G01 X-31.3379 Y53.6350 
G01 X-31.3111 Y53.4657 
G01 X-31.3111 Y52.9197 
G01 X-31.2714 Y52.8800 
G01 X-31.2380 Y52.8889 
G01 X-30.8889 Y52.8889 
G01 X-30.8889 Y54.8557 
G01 X-30.8621 Y55.0250 
G01 X-30.8091 Y55.1880 
G01 X-30.7313 Y55.3407 
G01 X-30.6306 Y55.4794 
G01 X-30.5094 Y55.6006 
G01 X-30.3707 Y55.7013 
G01 X-30.2180 Y55.7791 
G01 X-30.0550 Y55.8321 
G01 X-29.8857 Y55.8589 
G01 X-29.7143 Y55.8589 
G01 X-29.5450 Y55.8321 
G01 X-29.3820 Y55.7791 
G01 X-29.2293 Y55.7013 
G01 X-29.0906 Y55.6006 
G01 X-28.9694 Y55.4794 
G01 X-28.8687 Y55.3407 
G01 X-28.7909 Y55.1880 
G01 X-28.7379 Y55.0250 
G01 X-28.7111 Y54.8557 
G01 X-28.7111 Y52.6843 
G01 X-28.7379 Y52.5150 
G01 X-28.7909 Y52.3520 
G01 X-28.8687 Y52.1993 
G01 X-28.9694 Y52.0606 
G01 X-29.0906 Y51.9394 
G01 X-29.2293 Y51.8387 
G01 X-29.3820 Y51.7609 
G01 X-29.5450 Y51.7079 
G01 X-29.7143 Y51.6811 
G01 X-29.8857 Y51.6811 
G01 X-30.0550 Y51.7079 
G01 X-30.2180 Y51.7609 
G01 X-30.3707 Y51.8387 
G01 X-30.5094 Y51.9394 
G01 X-30.6306 Y52.0606 
G01 X-30.7313 Y52.1993 
G01 X-30.7883 Y52.3111 
G01 X-31.0803 Y52.3111 
G01 X-31.1226 Y52.2688 
G01 X-31.3111 Y52.0803 
G01 X-31.3111 Y51.2943 
G01 X-31.3379 Y51.1250 
G01 X-31.3909 Y50.9620 
G01 X-31.4687 Y50.8093 
G01 X-31.5694 Y50.6706 
G01 X-31.6906 Y50.5494 
G01 X-31.8293 Y50.4487 
G01 X-31.9820 Y50.3709 
G01 X-32.1450 Y50.3179 
G01 X-32.3143 Y50.2911 
G01 X-32.4857 Y50.2911 
G01 X-32.6550 Y50.3179 
G01 X-32.8180 Y50.3709 
G01 X-34.7111 Y48.4803 
G01 X-34.7111 Y32.5197 
G01 X-32.9688 Y30.7774 
G01 X-32.9308 Y30.7115 
G01 X-32.9111 Y30.6380 
G01 X-32.9111 Y25.4629 
G01 X-32.8279 Y25.4498 
G01 X-32.5901 Y25.3725 
G01 X-32.3672 Y25.2589 
G01 X-32.1649 Y25.1119 
G01 X-31.9881 Y24.9351 
G01 X-31.8410 Y24.7328 
G01 X-31.7275 Y24.5099 
G01 X-31.6502 Y24.2721 
G01 X-31.6111 Y24.0251 
G01 X-31.6111 Y23.7749 
G01 X-31.6502 Y23.5279 
G01 X-31.7275 Y23.2901 
G01 X-31.8410 Y23.0672 
G01 X-31.9881 Y22.8649 
G01 X-32.1649 Y22.6881 
G01 X-32.3672 Y22.5410 
G01 X-32.5901 Y22.4275 
G01 X-32.8279 Y22.3502 
G01 X-33.0749 Y22.3111 
G01 X-33.3250 Y22.3111 
G01 X-33.5721 Y22.3502 
G01 X-33.8099 Y22.4275 
G01 X-34.0328 Y22.5410 
G01 X-34.2351 Y22.6881 
G01 X-34.4119 Y22.8649 
G01 X-34.5589 Y23.0672 
G01 X-34.6725 Y23.2901 
G01 X-34.7498 Y23.5279 
G01 X-34.7889 Y23.7749 
G01 X-34.7889 Y24.0251 
G01 X-34.7498 Y24.2721 
G01 X-34.6725 Y24.5099 
G01 X-34.5589 Y24.7328 
G01 X-34.4119 Y24.9351 
G01 X-34.2351 Y25.1119 
G01 X-34.0328 Y25.2589 
G01 X-33.8099 Y25.3725 
G01 X-33.5721 Y25.4498 
G01 X-33.4889 Y25.4629 
G01 X-33.4889 Y30.4803 
G01 X-35.1774 Y32.1688 
G01 X-35.2312 Y32.2226 
G01 X-35.2692 Y32.2885 
G01 X-35.2889 Y32.3620 
G01 X-35.2889 Y48.6380 
G01 X-35.2692 Y48.7115 
G01 X-35.2312 Y48.7774 
G01 X-33.2757 Y50.7328 
G01 X-33.3313 Y50.8093 
G01 X-33.4091 Y50.9620 
G01 X-33.4621 Y51.1250 
G01 X-33.4889 Y51.2943 
G01 X-33.4889 Y53.4657 
G01 X-33.4621 Y53.6350 
G01 X-33.4091 Y53.7980 
G01 X-33.3313 Y53.9507 
G01 X-33.2306 Y54.0894 
G01 X-33.1094 Y54.2106 
G01 X-32.9707 Y54.3113 
G01 X-32.8180 Y54.3891 
G01 X-32.6550 Y54.4421 
G01 X-32.4857 Y54.4689 
G01 X-32.3143 Y54.4689 
G01 X-32.1450 Y54.4421 
G01 X-32.0889 Y54.4239 
G01 X-32.0889 Y57.0211 
G01 X-34.0557 Y57.0211 
G01 X-34.2250 Y57.0479 
G01 X-34.3880 Y57.1009 
G01 X-34.5407 Y57.1787 
G01 X-34.6794 Y57.2794 
G01 X-34.8006 Y57.4006 
G01 X-34.9013 Y57.5393 
G01 X-34.9791 Y57.6920 
G01 X-35.0321 Y57.8550 
G01 X-35.0589 Y58.0243 
G01 X-35.0589 Y58.1957 
G01 X-35.0321 Y58.3650 
G01 X-34.9791 Y58.5280 
G01 X-34.9013 Y58.6807 
G01 X-34.8006 Y58.8194 
G01 X-34.6794 Y58.9406 
G01 X-34.5407 Y59.0413 
G01 X-34.3880 Y59.1191 
G01 X-34.2250 Y59.1721 
G01 X-34.0557 Y59.1989 
G01 X-31.8843 Y59.1989 
G01 X-31.7150 Y59.1721 
G01 X-31.5520 Y59.1191 
G01 X-31.3993 Y59.0413 
G01 X-31.3807 Y59.0278 
G01 X-30.1774 Y60.2312 
G01 X-30.1115 Y60.2692 
G01 X-30.0380 Y60.2889 
G01 X-20.7620 Y60.2889 
G01 X-20.6885 Y60.2692 
G01 X-20.6226 Y60.2312 
G01 X-20.5688 Y60.1774 
G01 X-16.8803 Y56.4889 
G01 X-15.5620 Y56.4889 
G01 X-15.5286 Y56.4800 
G01 X-14.9979 Y57.0107 
G01 X-15.0389 Y57.0672 
G01 X-15.1525 Y57.2901 
G01 X-15.2298 Y57.5279 
G01 X-15.2689 Y57.7749 
G01 X-15.2689 Y58.0251 
G01 X-15.2298 Y58.2721 
G01 X-15.1525 Y58.5099 
G01 X-15.0389 Y58.7328 
G01 X-14.8919 Y58.9351 
G01 X-14.7151 Y59.1119 
G01 X-14.5128 Y59.2589 
G01 X-14.2899 Y59.3725 
G01 X-14.0521 Y59.4498 
G01 X-13.8050 Y59.4889 
G01 X-13.5549 Y59.4889 
G01 X-13.3079 Y59.4498 
G01 X-13.0701 Y59.3725 
G01 X-12.8472 Y59.2589 
G01 X-12.6449 Y59.1119 
G01 X-12.4681 Y58.9351 
G01 X-12.3210 Y58.7328 
G01 X-12.2075 Y58.5099 
G01 X-12.1302 Y58.2721 
G01 X-12.1012 Y58.0889 
G01 X-10.7620 Y58.0889 
G01 X-10.6885 Y58.0692 
G01 X-10.6226 Y58.0312 
G01 X-10.5688 Y57.9774 
G01 X-7.4329 Y54.8414 
G01 X-7.3857 Y54.8489 
G01 X-7.2143 Y54.8489 
G01 X-7.0450 Y54.8221 
G01 X-6.8820 Y54.7691 
G01 X-6.7293 Y54.6913 
G01 X-6.5906 Y54.5906 
G01 X-6.4694 Y54.4694 
G01 X-6.3687 Y54.3307 
G01 X-6.2909 Y54.1780 
G01 X-6.2379 Y54.0150 
G01 X-6.2111 Y53.8457 
G01 X-6.2111 Y51.6889 
G01 X-5.7989 Y51.6889 
G01 X-5.7989 Y53.4657 
G01 X-5.7721 Y53.6350 
G01 X-5.7191 Y53.7980 
G01 X-5.6413 Y53.9507 
G01 X-5.5406 Y54.0894 
G01 X-5.4194 Y54.2106 
G01 X-5.2807 Y54.3113 
G01 X-5.1280 Y54.3891 
G01 X-4.9650 Y54.4421 
G01 X-4.7957 Y54.4689 
G01 X-4.6243 Y54.4689 
G01 X-4.4550 Y54.4421 
G01 X-4.2920 Y54.3891 
G01 X-4.1393 Y54.3113 
G01 X-4.0006 Y54.2106 
G01 X-3.8794 Y54.0894 
G01 X-3.7787 Y53.9507 
G01 X-3.7009 Y53.7980 
G01 X-3.6479 Y53.6350 
G01 X-3.6211 Y53.4657 
G01 X-3.6211 Y51.2943 
G01 X-3.6479 Y51.1250 
G01 X-3.7009 Y50.9620 
G01 X-3.7787 Y50.8093 
G01 X-3.7880 Y50.7965 
G01 X-2.1688 Y49.1774 
G01 X-2.1308 Y49.1115 
G01 X-2.1111 Y49.0380 
G01 X-2.1111 Y22.9620 
G01 X-2.1308 Y22.8885 
G01 X-2.1688 Y22.8226 
G01 X-2.2226 Y22.7688 
G01 X-3.4226 Y21.5688 
G01 X-3.4885 Y21.5308 
G01 X-3.5620 Y21.5111 
G01 X-5.4380 Y21.5111 
G01 X-5.5115 Y21.5308 
G01 X-5.5774 Y21.5688 
G01 X-5.6312 Y21.6226 
G01 X-6.8312 Y22.8226 
G01 X-6.8692 Y22.8885 
G01 X-6.8889 Y22.9620 
G01 X-6.8889 Y25.2803 
G01 X-9.3197 Y27.7111 
G01 X-16.3111 Y27.7111 
G01 X-16.3111 Y25.4788 
G01 X-16.1279 Y25.4498 
G01 X-15.8901 Y25.3725 
G01 X-15.6672 Y25.2589 
G01 X-15.4649 Y25.1119 
G01 X-15.2881 Y24.9351 
G01 X-15.1410 Y24.7328 
G01 X-15.0275 Y24.5099 
G01 X-14.9502 Y24.2721 
G01 X-14.9111 Y24.0251 
G01 X-14.9111 Y23.7749 
G01 X-14.9502 Y23.5279 
G01 X-15.0275 Y23.2901 
G01 X-15.1410 Y23.0672 
G01 X-15.2881 Y22.8649 
G01 X-15.4649 Y22.6881 
G01 X-15.6672 Y22.5410 
G01 X-15.8901 Y22.4275 
G01 X-16.1279 Y22.3502 
G01 X-16.3749 Y22.3111 
G01 X-16.6251 Y22.3111 
G01 X-16.8721 Y22.3502 
G01 X-17.1099 Y22.4275 
G01 X-17.3328 Y22.5410 
G01 X-17.5351 Y22.6881 
G01 X-17.7119 Y22.8649 
G00 Z2.0000 
G00 X-15.7751 Y31.8881 
G01 Z-0.3000 F100.00 
G01 X-15.9519 Y32.0649 F300.00 
G01 X-16.0989 Y32.2672 
G01 X-16.2125 Y32.4901 
G01 X-16.2898 Y32.7279 
G01 X-16.3289 Y32.9749 
G01 X-16.3289 Y33.2251 
G01 X-16.2898 Y33.4721 
G01 X-16.2125 Y33.7099 
G01 X-16.0989 Y33.9328 
G01 X-15.9519 Y34.1351 
G01 X-15.7751 Y34.3119 
G01 X-15.5728 Y34.4589 
G01 X-15.3499 Y34.5725 
G01 X-15.1121 Y34.6498 
G01 X-14.8651 Y34.6889 
G01 X-14.6149 Y34.6889 
G01 X-14.3679 Y34.6498 
G01 X-14.1301 Y34.5725 
G01 X-13.9072 Y34.4589 
G01 X-13.7049 Y34.3119 
G01 X-13.5281 Y34.1351 
G01 X-13.3811 Y33.9328 
G01 X-13.2675 Y33.7099 
G01 X-13.1902 Y33.4721 
G01 X-13.1511 Y33.2251 
G01 X-13.1511 Y32.9749 
G01 X-13.1902 Y32.7279 
G01 X-13.2675 Y32.4901 
G01 X-13.3811 Y32.2672 
G01 X-13.4137 Y32.2223 
G01 X-12.0803 Y30.8889 
G01 X-11.4743 Y30.8889 
G01 X-11.4025 Y31.1099 
G01 X-11.2889 Y31.3328 
G01 X-11.1419 Y31.5351 
G01 X-10.9651 Y31.7119 
G01 X-10.7628 Y31.8589 
G01 X-10.5399 Y31.9725 
G01 X-10.3021 Y32.0498 
G01 X-10.0550 Y32.0889 
G01 X-9.8049 Y32.0889 
G01 X-9.5579 Y32.0498 
G01 X-9.3201 Y31.9725 
G01 X-9.0972 Y31.8589 
G01 X-8.8949 Y31.7119 
G01 X-8.7181 Y31.5351 
G01 X-8.5710 Y31.3328 
G01 X-8.4575 Y31.1099 
G01 X-8.3802 Y30.8721 
G01 X-8.3411 Y30.6251 
G01 X-8.3411 Y30.3749 
G01 X-8.3802 Y30.1279 
G01 X-8.4575 Y29.8901 
G01 X-8.5710 Y29.6672 
G01 X-8.7181 Y29.4649 
G01 X-8.8949 Y29.2881 
G01 X-9.0972 Y29.1410 
G01 X-9.3201 Y29.0275 
G01 X-9.5579 Y28.9502 
G01 X-9.8049 Y28.9111 
G01 X-10.0550 Y28.9111 
G01 X-10.3021 Y28.9502 
G01 X-10.5399 Y29.0275 
G01 X-10.7628 Y29.1410 
G01 X-10.9651 Y29.2881 
G01 X-11.1419 Y29.4649 
G01 X-11.2889 Y29.6672 
G01 X-11.4025 Y29.8901 
G01 X-11.4798 Y30.1279 
G01 X-11.5088 Y30.3111 
G01 X-12.2380 Y30.3111 
G01 X-12.3115 Y30.3308 
G01 X-12.3774 Y30.3688 
G01 X-13.8159 Y31.8074 
G01 X-13.9072 Y31.7411 
G01 X-14.1301 Y31.6275 
G01 X-14.3679 Y31.5502 
G01 X-14.6149 Y31.5111 
G01 X-14.8651 Y31.5111 
G01 X-15.1121 Y31.5502 
G01 X-15.3499 Y31.6275 
G01 X-15.5728 Y31.7411 
G01 X-15.7751 Y31.8881 
G00 Z2.0000 
G00 X-12.7451 Y33.9781 
G01 Z-0.3000 F100.00 
G01 X-12.9219 Y34.1549 F300.00 
G01 X-13.0689 Y34.3572 
G01 X-13.1825 Y34.5801 
G01 X-13.2598 Y34.8179 
G01 X-13.2989 Y35.0649 
G01 X-13.2989 Y35.3150 
G01 X-13.2598 Y35.5621 
G01 X-13.1825 Y35.7999 
G01 X-13.0689 Y36.0228 
G01 X-12.9219 Y36.2251 
G01 X-12.7451 Y36.4019 
G01 X-12.5428 Y36.5489 
G01 X-12.3199 Y36.6625 
G01 X-12.0821 Y36.7398 
G01 X-11.9709 Y36.7574 
G01 X-12.0151 Y36.8183 
G01 X-12.1108 Y37.0060 
G01 X-12.1759 Y37.2065 
G01 X-12.2089 Y37.4146 
G01 X-12.2089 Y37.6254 
G01 X-12.1759 Y37.8335 
G01 X-12.1108 Y38.0340 
G01 X-12.0151 Y38.2217 
G01 X-11.8913 Y38.3922 
G01 X-11.7422 Y38.5413 
G01 X-11.5717 Y38.6651 
G01 X-11.3840 Y38.7608 
G01 X-11.1835 Y38.8259 
G01 X-10.9754 Y38.8589 
G01 X-10.7646 Y38.8589 
G01 X-10.5565 Y38.8259 
G01 X-10.3560 Y38.7608 
G01 X-10.1683 Y38.6651 
G01 X-9.9978 Y38.5413 
G01 X-9.8487 Y38.3922 
G01 X-9.7249 Y38.2217 
G01 X-9.6292 Y38.0340 
G01 X-9.5641 Y37.8335 
G01 X-9.5311 Y37.6254 
G01 X-9.5311 Y37.4146 
G01 X-9.5641 Y37.2065 
G01 X-9.6292 Y37.0060 
G01 X-9.7249 Y36.8183 
G01 X-9.8487 Y36.6478 
G01 X-9.9978 Y36.4987 
G01 X-10.1683 Y36.3749 
G01 X-10.3560 Y36.2792 
G01 X-10.5041 Y36.2311 
G01 X-10.4981 Y36.2251 
G01 X-10.3511 Y36.0228 
G01 X-10.2375 Y35.7999 
G01 X-10.1602 Y35.5621 
G01 X-10.1211 Y35.3150 
G01 X-10.1211 Y35.0649 
G01 X-10.1602 Y34.8179 
G01 X-10.2375 Y34.5801 
G01 X-10.3511 Y34.3572 
G01 X-10.4981 Y34.1549 
G01 X-10.6749 Y33.9781 
G01 X-10.8772 Y33.8310 
G01 X-11.1001 Y33.7175 
G01 X-11.3379 Y33.6402 
G01 X-11.5849 Y33.6011 
G01 X-11.8351 Y33.6011 
G01 X-12.0821 Y33.6402 
G01 X-12.3199 Y33.7175 
G01 X-12.5428 Y33.8310 
G01 X-12.7451 Y33.9781 
G00 Z2.0000 
G00 X-8.7422 Y34.7987 
G01 Z-0.3000 F100.00 
G01 X-8.8913 Y34.9478 F300.00 
G01 X-9.0151 Y35.1183 
G01 X-9.1108 Y35.3060 
G01 X-9.1759 Y35.5065 
G01 X-9.2089 Y35.7146 
G01 X-9.2089 Y35.9254 
G01 X-9.1759 Y36.1335 
G01 X-9.1108 Y36.3340 
G01 X-9.0151 Y36.5217 
G01 X-8.8913 Y36.6922 
G01 X-8.7422 Y36.8413 
G01 X-8.5717 Y36.9651 
G01 X-8.3840 Y37.0608 
G01 X-8.1835 Y37.1259 
G01 X-7.9754 Y37.1589 
G01 X-7.7646 Y37.1589 
G01 X-7.5565 Y37.1259 
G01 X-7.3560 Y37.0608 
G01 X-7.1683 Y36.9651 
G01 X-6.9978 Y36.8413 
G01 X-6.8487 Y36.6922 
G01 X-6.7249 Y36.5217 
G01 X-6.6292 Y36.3340 
G01 X-6.5641 Y36.1335 
G01 X-6.5570 Y36.0889 
G01 X-5.8381 Y36.0889 
G01 X-5.7151 Y36.2119 
G01 X-5.5128 Y36.3589 
G01 X-5.2899 Y36.4725 
G01 X-5.0521 Y36.5498 
G01 X-4.8050 Y36.5889 
G01 X-4.5549 Y36.5889 
G01 X-4.3079 Y36.5498 
G01 X-4.0701 Y36.4725 
G01 X-3.8472 Y36.3589 
G01 X-3.6449 Y36.2119 
G01 X-3.4681 Y36.0351 
G01 X-3.3211 Y35.8328 
G01 X-3.2075 Y35.6099 
G01 X-3.1302 Y35.3721 
G01 X-3.0911 Y35.1251 
G01 X-3.0911 Y34.8749 
G01 X-3.1302 Y34.6279 
G01 X-3.2075 Y34.3901 
G01 X-3.3211 Y34.1672 
G01 X-3.4362 Y34.0087 
G01 X-3.3811 Y33.9328 
G01 X-3.2675 Y33.7099 
G01 X-3.1902 Y33.4721 
G01 X-3.1511 Y33.2251 
G01 X-3.1511 Y32.9749 
G01 X-3.1902 Y32.7279 
G01 X-3.2675 Y32.4901 
G01 X-3.3811 Y32.2672 
G01 X-3.5281 Y32.0649 
G01 X-3.7049 Y31.8881 
G01 X-3.9072 Y31.7411 
G01 X-4.1301 Y31.6275 
G01 X-4.3111 Y31.5687 
G01 X-4.3111 Y25.4788 
G01 X-4.1279 Y25.4498 
G01 X-3.8901 Y25.3725 
G01 X-3.6672 Y25.2589 
G01 X-3.4649 Y25.1119 
G01 X-3.2881 Y24.9351 
G01 X-3.1410 Y24.7328 
G01 X-3.0275 Y24.5099 
G01 X-2.9502 Y24.2721 
G01 X-2.9111 Y24.0251 
G01 X-2.9111 Y23.7749 
G01 X-2.9502 Y23.5279 
G01 X-3.0275 Y23.2901 
G01 X-3.1410 Y23.0672 
G01 X-3.2881 Y22.8649 
G01 X-3.4649 Y22.6881 
G01 X-3.6672 Y22.5410 
G01 X-3.8901 Y22.4275 
G01 X-4.1279 Y22.3502 
G01 X-4.3749 Y22.3111 
G01 X-4.6250 Y22.3111 
G01 X-4.8721 Y22.3502 
G01 X-5.1099 Y22.4275 
G01 X-5.3328 Y22.5410 
G01 X-5.5351 Y22.6881 
G01 X-5.7119 Y22.8649 
G01 X-5.8589 Y23.0672 
G01 X-5.9725 Y23.2901 
G01 X-6.0498 Y23.5279 
G01 X-6.0889 Y23.7749 
G01 X-6.0889 Y24.0251 
G01 X-6.0498 Y24.2721 
G01 X-5.9725 Y24.5099 
G01 X-5.8589 Y24.7328 
G01 X-5.7119 Y24.9351 
G01 X-5.5351 Y25.1119 
G01 X-5.3328 Y25.2589 
G01 X-5.1099 Y25.3725 
G01 X-4.8889 Y25.4443 
G01 X-4.8889 Y31.5149 
G01 X-5.1121 Y31.5502 
G01 X-5.3499 Y31.6275 
G01 X-5.5728 Y31.7411 
G01 X-5.7751 Y31.8881 
G01 X-5.9519 Y32.0649 
G01 X-6.0989 Y32.2672 
G01 X-6.2125 Y32.4901 
G01 X-6.2898 Y32.7279 
G01 X-6.3289 Y32.9749 
G01 X-6.3289 Y33.2251 
G01 X-6.2898 Y33.4721 
G01 X-6.2125 Y33.7099 
G01 X-6.0989 Y33.9328 
G01 X-5.9838 Y34.0913 
G01 X-6.0389 Y34.1672 
G01 X-6.1525 Y34.3901 
G01 X-6.2298 Y34.6279 
G01 X-6.2689 Y34.8749 
G01 X-6.2689 Y35.1251 
G01 X-6.2298 Y35.3721 
G01 X-6.1846 Y35.5111 
G01 X-6.5633 Y35.5111 
G01 X-6.5641 Y35.5065 
G01 X-6.6292 Y35.3060 
G01 X-6.7249 Y35.1183 
G01 X-6.8487 Y34.9478 
G01 X-6.9978 Y34.7987 
G01 X-7.1683 Y34.6749 
G01 X-7.3560 Y34.5792 
G01 X-7.5565 Y34.5141 
G01 X-7.7646 Y34.4811 
G01 X-7.9754 Y34.4811 
G01 X-8.1835 Y34.5141 
G01 X-8.3840 Y34.5792 
G01 X-8.5717 Y34.6749 
G01 X-8.7422 Y34.7987 
G00 Z2.0000 
G00 X-8.7422 Y38.1987 
G01 Z-0.3000 F100.00 
G01 X-8.8913 Y38.3478 F300.00 
G01 X-9.0151 Y38.5183 
G01 X-9.1108 Y38.7060 
G01 X-9.1759 Y38.9065 
G01 X-9.2083 Y39.1111 
G01 X-23.1517 Y39.1111 
G01 X-23.1841 Y38.9065 
G01 X-23.2492 Y38.7060 
G01 X-23.3449 Y38.5183 
G01 X-23.4687 Y38.3478 
G01 X-23.6178 Y38.1987 
G01 X-23.7883 Y38.0749 
G01 X-23.9760 Y37.9792 
G01 X-24.1765 Y37.9141 
G01 X-24.3846 Y37.8811 
G01 X-24.5954 Y37.8811 
G01 X-24.8035 Y37.9141 
G01 X-25.0040 Y37.9792 
G01 X-25.1917 Y38.0749 
G01 X-25.3622 Y38.1987 
G01 X-25.5113 Y38.3478 
G01 X-25.6351 Y38.5183 
G01 X-25.7308 Y38.7060 
G01 X-25.7959 Y38.9065 
G01 X-25.8289 Y39.1146 
G01 X-25.8289 Y39.3254 
G01 X-25.7959 Y39.5335 
G01 X-25.7308 Y39.7340 
G01 X-25.6351 Y39.9217 
G01 X-25.5113 Y40.0922 
G01 X-25.3622 Y40.2413 
G01 X-25.1917 Y40.3651 
G01 X-25.0040 Y40.4608 
G01 X-24.8035 Y40.5259 
G01 X-24.6889 Y40.5441 
G01 X-24.6889 Y43.6380 
G01 X-24.6692 Y43.7115 
G01 X-24.6312 Y43.7774 
G01 X-24.5774 Y43.8312 
G01 X-23.6889 Y44.7197 
G01 X-23.6889 Y47.4082 
G01 X-23.7280 Y47.4209 
G01 X-23.8807 Y47.4987 
G01 X-24.0194 Y47.5994 
G01 X-24.1406 Y47.7206 
G01 X-24.2413 Y47.8593 
G01 X-24.3191 Y48.0120 
G01 X-24.3721 Y48.1750 
G01 X-24.3989 Y48.3443 
G01 X-24.3989 Y50.5157 
G01 X-24.3721 Y50.6850 
G01 X-24.3191 Y50.8480 
G01 X-24.2413 Y51.0007 
G01 X-24.2278 Y51.0193 
G01 X-26.7774 Y53.5688 
G01 X-26.8312 Y53.6226 
G01 X-26.8692 Y53.6885 
G01 X-26.8889 Y53.7620 
G01 X-26.8889 Y54.6756 
G01 X-26.9901 Y54.6916 
G01 X-27.1756 Y54.7519 
G01 X-27.3493 Y54.8404 
G01 X-27.5071 Y54.9550 
G01 X-27.6450 Y55.0929 
G01 X-27.7596 Y55.2507 
G01 X-27.8481 Y55.4244 
G01 X-27.9084 Y55.6099 
G01 X-27.9389 Y55.8025 
G01 X-27.9389 Y55.9975 
G01 X-27.9084 Y56.1901 
G01 X-27.8481 Y56.3756 
G01 X-27.7596 Y56.5493 
G01 X-28.2297 Y57.0211 
G01 X-29.5157 Y57.0211 
G01 X-29.6850 Y57.0479 
G01 X-29.8480 Y57.1009 
G01 X-30.0007 Y57.1787 
G01 X-30.1394 Y57.2794 
G01 X-30.2606 Y57.4006 
G01 X-30.3613 Y57.5393 
G01 X-30.4391 Y57.6920 
G01 X-30.4921 Y57.8550 
G01 X-30.5189 Y58.0243 
G01 X-30.5189 Y58.1957 
G01 X-30.4921 Y58.3650 
G01 X-30.4391 Y58.5280 
G01 X-30.3613 Y58.6807 
G01 X-30.2606 Y58.8194 
G01 X-30.1394 Y58.9406 
G01 X-30.0007 Y59.0413 
G01 X-29.8480 Y59.1191 
G01 X-29.6850 Y59.1721 
G01 X-29.5157 Y59.1989 
G01 X-27.3443 Y59.1989 
G01 X-27.1750 Y59.1721 
G01 X-27.0120 Y59.1191 
G01 X-26.8593 Y59.0413 
G01 X-26.7206 Y58.9406 
G01 X-26.5994 Y58.8194 
G01 X-26.4987 Y58.6807 
G01 X-26.4209 Y58.5280 
G01 X-26.3679 Y58.3650 
G01 X-26.3411 Y58.1957 
G01 X-26.3411 Y58.0243 
G01 X-26.3679 Y57.8550 
G01 X-26.4209 Y57.6920 
G01 X-26.4987 Y57.5393 
G01 X-26.5994 Y57.4006 
G01 X-26.7206 Y57.2794 
G01 X-26.8593 Y57.1787 
G01 X-27.0099 Y57.1020 
G01 X-26.9901 Y57.1084 
G01 X-26.7975 Y57.1389 
G01 X-26.6025 Y57.1389 
G01 X-26.4099 Y57.1084 
G01 X-26.2244 Y57.0481 
G01 X-26.0507 Y56.9596 
G01 X-25.8929 Y56.8450 
G01 X-25.7550 Y56.7071 
G01 X-25.6404 Y56.5493 
G01 X-25.5519 Y56.3756 
G01 X-25.4916 Y56.1901 
G01 X-25.4611 Y55.9975 
G01 X-25.4611 Y55.8025 
G01 X-25.4916 Y55.6099 
G01 X-25.5519 Y55.4244 
G01 X-25.6404 Y55.2507 
G01 X-25.7550 Y55.0929 
G01 X-25.8929 Y54.9550 
G01 X-26.0507 Y54.8404 
G01 X-26.2244 Y54.7519 
G01 X-26.3111 Y54.7237 
G01 X-26.3111 Y53.9197 
G01 X-23.7959 Y51.4045 
G01 X-23.7280 Y51.4391 
G01 X-23.5650 Y51.4921 
G01 X-23.3957 Y51.5189 
G01 X-23.2243 Y51.5189 
G01 X-23.0550 Y51.4921 
G01 X-22.8920 Y51.4391 
G01 X-22.7393 Y51.3613 
G01 X-22.6006 Y51.2606 
G01 X-22.4794 Y51.1394 
G01 X-22.3787 Y51.0007 
G01 X-22.3009 Y50.8480 
G01 X-22.2479 Y50.6850 
G01 X-22.2211 Y50.5157 
G01 X-22.2211 Y48.3443 
G01 X-22.2479 Y48.1750 
G01 X-22.3009 Y48.0120 
G01 X-22.3787 Y47.8593 
G01 X-22.4794 Y47.7206 
G01 X-22.6006 Y47.5994 
G01 X-22.7393 Y47.4987 
G01 X-22.8920 Y47.4209 
G01 X-23.0550 Y47.3679 
G01 X-23.1111 Y47.3590 
G01 X-23.1111 Y44.5620 
G01 X-23.1308 Y44.4885 
G01 X-23.1688 Y44.4226 
G01 X-24.1111 Y43.4803 
G01 X-24.1111 Y40.5047 
G01 X-23.9760 Y40.4608 
G01 X-23.7883 Y40.3651 
G01 X-23.6178 Y40.2413 
G01 X-23.4687 Y40.0922 
G01 X-23.3449 Y39.9217 
G01 X-23.2492 Y39.7340 
G01 X-23.2346 Y39.6889 
G01 X-9.1254 Y39.6889 
G01 X-9.1108 Y39.7340 
G01 X-9.0151 Y39.9217 
G01 X-8.8913 Y40.0922 
G01 X-8.7422 Y40.2413 
G01 X-8.5717 Y40.3651 
G01 X-8.3840 Y40.4608 
G01 X-8.1835 Y40.5259 
G01 X-7.9754 Y40.5589 
G01 X-7.7646 Y40.5589 
G01 X-7.5565 Y40.5259 
G01 X-7.3560 Y40.4608 
G01 X-7.1683 Y40.3651 
G01 X-6.9978 Y40.2413 
G01 X-6.8487 Y40.0922 
G01 X-6.7249 Y39.9217 
G01 X-6.6292 Y39.7340 
G01 X-6.5641 Y39.5335 
G01 X-6.5311 Y39.3254 
G01 X-6.5311 Y39.1146 
G01 X-6.5641 Y38.9065 
G01 X-6.6292 Y38.7060 
G01 X-6.7249 Y38.5183 
G01 X-6.8487 Y38.3478 
G01 X-6.9978 Y38.1987 
G01 X-7.1683 Y38.0749 
G01 X-7.3560 Y37.9792 
G01 X-7.5565 Y37.9141 
G01 X-7.7646 Y37.8811 
G01 X-7.9754 Y37.8811 
G01 X-8.1835 Y37.9141 
G01 X-8.3840 Y37.9792 
G01 X-8.5717 Y38.0749 
G01 X-8.7422 Y38.1987 
G00 Z2.0000 
G00 X-8.9881 Y42.8649 
G01 Z-0.3000 F100.00 
G01 X-9.1649 Y42.6881 F300.00 
G01 X-9.3672 Y42.5410 
G01 X-9.5901 Y42.4275 
G01 X-9.8279 Y42.3502 
G01 X-10.0749 Y42.3111 
G01 X-10.3250 Y42.3111 
G01 X-10.5721 Y42.3502 
G01 X-10.8099 Y42.4275 
G01 X-11.0328 Y42.5410 
G01 X-11.2351 Y42.6881 
G01 X-11.4119 Y42.8649 
G01 X-11.5589 Y43.0672 
G01 X-11.6725 Y43.2901 
G01 X-11.7498 Y43.5279 
G01 X-11.7614 Y43.6011 
G01 X-11.8351 Y43.6011 
G01 X-12.0821 Y43.6402 
G01 X-12.3199 Y43.7175 
G01 X-12.5428 Y43.8310 
G01 X-12.7451 Y43.9781 
G01 X-12.9219 Y44.1549 
G01 X-13.0689 Y44.3572 
G01 X-13.1825 Y44.5801 
G01 X-13.2598 Y44.8179 
G01 X-13.2989 Y45.0649 
G01 X-13.2989 Y45.3150 
G01 X-13.2598 Y45.5621 
G01 X-13.1825 Y45.7999 
G01 X-13.0689 Y46.0228 
G01 X-12.9219 Y46.2251 
G01 X-12.7451 Y46.4019 
G01 X-12.5428 Y46.5489 
G01 X-12.3199 Y46.6625 
G01 X-12.0821 Y46.7398 
G01 X-11.8351 Y46.7789 
G01 X-11.5849 Y46.7789 
G01 X-11.3379 Y46.7398 
G01 X-11.1001 Y46.6625 
G01 X-10.8772 Y46.5489 
G01 X-10.6749 Y46.4019 
G01 X-10.6408 Y46.3678 
G01 X-8.3889 Y48.6197 
G01 X-8.3889 Y49.3057 
G01 X-8.3621 Y49.4750 
G01 X-8.3091 Y49.6380 
G01 X-8.2313 Y49.7907 
G01 X-8.1306 Y49.9294 
G01 X-8.0094 Y50.0506 
G01 X-7.8707 Y50.1513 
G01 X-7.7180 Y50.2291 
G01 X-7.5550 Y50.2821 
G01 X-7.3857 Y50.3089 
G01 X-7.2143 Y50.3089 
G01 X-7.0450 Y50.2821 
G01 X-6.8820 Y50.2291 
G01 X-6.7293 Y50.1513 
G01 X-6.5906 Y50.0506 
G01 X-6.4694 Y49.9294 
G01 X-6.3687 Y49.7907 
G01 X-6.2909 Y49.6380 
G01 X-6.2379 Y49.4750 
G01 X-6.2111 Y49.3057 
G01 X-6.2111 Y47.1343 
G01 X-6.2379 Y46.9650 
G01 X-6.2909 Y46.8020 
G01 X-6.3687 Y46.6493 
G01 X-6.4694 Y46.5106 
G01 X-6.5906 Y46.3894 
G01 X-6.7293 Y46.2887 
G01 X-6.8820 Y46.2109 
G01 X-7.0450 Y46.1579 
G01 X-7.2143 Y46.1311 
G01 X-7.3857 Y46.1311 
G01 X-7.5550 Y46.1579 
G01 X-7.7180 Y46.2109 
G01 X-7.8707 Y46.2887 
G01 X-8.0094 Y46.3894 
G01 X-8.1306 Y46.5106 
G01 X-8.2313 Y46.6493 
G01 X-8.3091 Y46.8020 
G01 X-8.3621 Y46.9650 
G01 X-8.3889 Y47.1343 
G01 X-8.3889 Y47.8025 
G01 X-10.2895 Y45.9019 
G01 X-10.2375 Y45.7999 
G01 X-10.1602 Y45.5621 
G01 X-10.1486 Y45.4889 
G01 X-10.0749 Y45.4889 
G01 X-9.8279 Y45.4498 
G01 X-9.5901 Y45.3725 
G01 X-9.3672 Y45.2589 
G01 X-9.1649 Y45.1119 
G01 X-8.9881 Y44.9351 
G01 X-8.8410 Y44.7328 
G01 X-8.7275 Y44.5099 
G01 X-8.6502 Y44.2721 
G01 X-8.6111 Y44.0251 
G01 X-8.6111 Y43.7749 
G01 X-8.6502 Y43.5279 
G01 X-8.7275 Y43.2901 
G01 X-8.8410 Y43.0672 
G01 X-8.9881 Y42.8649 
G00 Z2.0000 
G00 X-5.7151 Y43.7881 
G01 Z-0.3000 F100.00 
G01 X-5.8919 Y43.9649 F300.00 
G01 X-6.0389 Y44.1672 
G01 X-6.1525 Y44.3901 
G01 X-6.2298 Y44.6279 
G01 X-6.2689 Y44.8749 
G01 X-6.2689 Y45.1251 
G01 X-6.2298 Y45.3721 
G01 X-6.1525 Y45.6099 
G01 X-6.0389 Y45.8328 
G01 X-5.8919 Y46.0351 
G01 X-5.7151 Y46.2119 
G01 X-5.6395 Y46.2668 
G01 X-5.7191 Y46.4220 
G01 X-5.7721 Y46.5850 
G01 X-5.7989 Y46.7543 
G01 X-5.7989 Y48.9257 
G01 X-5.7721 Y49.0950 
G01 X-5.7191 Y49.2580 
G01 X-5.6413 Y49.4107 
G01 X-5.5406 Y49.5494 
G01 X-5.4194 Y49.6706 
G01 X-5.2807 Y49.7713 
G01 X-5.1280 Y49.8491 
G01 X-4.9650 Y49.9021 
G01 X-4.7957 Y49.9289 
G01 X-4.6243 Y49.9289 
G01 X-4.4550 Y49.9021 
G01 X-4.2920 Y49.8491 
G01 X-4.1393 Y49.7713 
G01 X-4.0006 Y49.6706 
G01 X-3.8794 Y49.5494 
G01 X-3.7787 Y49.4107 
G01 X-3.7009 Y49.2580 
G01 X-3.6479 Y49.0950 
G01 X-3.6211 Y48.9257 
G01 X-3.6211 Y46.7543 
G01 X-3.6479 Y46.5850 
G01 X-3.7009 Y46.4220 
G01 X-3.7639 Y46.2984 
G01 X-3.6449 Y46.2119 
G01 X-3.4681 Y46.0351 
G01 X-3.3211 Y45.8328 
G01 X-3.2075 Y45.6099 
G01 X-3.1302 Y45.3721 
G01 X-3.0911 Y45.1251 
G01 X-3.0911 Y44.8749 
G01 X-3.1302 Y44.6279 
G01 X-3.2075 Y44.3901 
G01 X-3.3211 Y44.1672 
G01 X-3.4681 Y43.9649 
G01 X-3.6449 Y43.7881 
G01 X-3.8472 Y43.6410 
G01 X-4.0701 Y43.5275 
G01 X-4.3079 Y43.4502 
G01 X-4.5549 Y43.4111 
G01 X-4.8050 Y43.4111 
G01 X-5.0521 Y43.4502 
G01 X-5.2899 Y43.5275 
G01 X-5.5128 Y43.6410 
G01 X-5.7151 Y43.7881 
G00 Z2.0000 
G00 X-15.5053 Y43.9482 
G01 Z-0.3000 F100.00 
G01 X-15.6523 Y43.7459 F300.00 
G01 X-15.8291 Y43.5690 
G01 X-16.0315 Y43.4220 
G01 X-16.2543 Y43.3085 
G01 X-16.4921 Y43.2312 
G01 X-16.7392 Y43.1921 
G01 X-16.9893 Y43.1921 
G01 X-17.2363 Y43.2312 
G01 X-17.4741 Y43.3085 
G01 X-17.6970 Y43.4220 
G01 X-17.8993 Y43.5690 
G01 X-18.0762 Y43.7459 
G01 X-18.2232 Y43.9482 
G01 X-18.3367 Y44.1710 
G01 X-18.4140 Y44.4089 
G01 X-18.4531 Y44.6559 
G01 X-18.4531 Y44.9060 
G01 X-18.4140 Y45.1530 
G01 X-18.3367 Y45.3909 
G01 X-18.2232 Y45.6137 
G01 X-18.4312 Y45.8226 
G01 X-18.4692 Y45.8885 
G01 X-18.4889 Y45.9620 
G01 X-18.4889 Y47.3692 
G01 X-18.6480 Y47.4209 
G01 X-18.8007 Y47.4987 
G01 X-18.9394 Y47.5994 
G01 X-19.0606 Y47.7206 
G01 X-19.1613 Y47.8593 
G01 X-19.2391 Y48.0120 
G01 X-19.2921 Y48.1750 
G01 X-19.3189 Y48.3443 
G01 X-19.3189 Y50.5157 
G01 X-19.2921 Y50.6850 
G01 X-19.2391 Y50.8480 
G01 X-19.1613 Y51.0007 
G01 X-19.0606 Y51.1394 
G01 X-18.9394 Y51.2606 
G01 X-18.8007 Y51.3613 
G01 X-18.6480 Y51.4391 
G01 X-18.4850 Y51.4921 
G01 X-18.3157 Y51.5189 
G01 X-18.1443 Y51.5189 
G01 X-17.9750 Y51.4921 
G01 X-17.8120 Y51.4391 
G01 X-17.6593 Y51.3613 
G01 X-17.5206 Y51.2606 
G01 X-17.3994 Y51.1394 
G01 X-17.2987 Y51.0007 
G01 X-17.2209 Y50.8480 
G01 X-17.1679 Y50.6850 
G01 X-17.1411 Y50.5157 
G01 X-17.1411 Y48.3443 
G01 X-17.1679 Y48.1750 
G01 X-17.2209 Y48.0120 
G01 X-17.2987 Y47.8593 
G01 X-17.3994 Y47.7206 
G01 X-17.5206 Y47.5994 
G01 X-17.6593 Y47.4987 
G01 X-17.8120 Y47.4209 
G01 X-17.9111 Y47.3887 
G01 X-17.9111 Y46.1197 
G01 X-17.8327 Y46.0413 
G01 X-17.6970 Y46.1399 
G01 X-17.4741 Y46.2535 
G01 X-17.2363 Y46.3307 
G01 X-16.9893 Y46.3699 
G01 X-16.7392 Y46.3699 
G01 X-16.4921 Y46.3307 
G01 X-16.2543 Y46.2535 
G01 X-16.0315 Y46.1399 
G01 X-15.9372 Y46.0714 
G01 X-11.2778 Y50.7308 
G01 X-11.4119 Y50.8649 
G01 X-11.5589 Y51.0672 
G01 X-11.6725 Y51.2901 
G01 X-11.7498 Y51.5279 
G01 X-11.7889 Y51.7749 
G01 X-11.7889 Y52.0251 
G01 X-11.7498 Y52.2721 
G01 X-11.6725 Y52.5099 
G01 X-11.5589 Y52.7328 
G01 X-11.4119 Y52.9351 
G01 X-11.2351 Y53.1119 
G01 X-11.0328 Y53.2589 
G01 X-10.8099 Y53.3725 
G01 X-10.5721 Y53.4498 
G01 X-10.3250 Y53.4889 
G01 X-10.0749 Y53.4889 
G01 X-9.8279 Y53.4498 
G01 X-9.5901 Y53.3725 
G01 X-9.3672 Y53.2589 
G01 X-9.1649 Y53.1119 
G01 X-8.9881 Y52.9351 
G01 X-8.8410 Y52.7328 
G01 X-8.7275 Y52.5099 
G01 X-8.6502 Y52.2721 
G01 X-8.6111 Y52.0251 
G01 X-8.6111 Y51.7749 
G01 X-8.6502 Y51.5279 
G01 X-8.7275 Y51.2901 
G01 X-8.8410 Y51.0672 
G01 X-8.9881 Y50.8649 
G01 X-9.1649 Y50.6881 
G01 X-9.3672 Y50.5410 
G01 X-9.5901 Y50.4275 
G01 X-9.8279 Y50.3502 
G01 X-10.0749 Y50.3111 
G01 X-10.3250 Y50.3111 
G01 X-10.5721 Y50.3502 
G01 X-10.7752 Y50.4162 
G01 X-15.5358 Y45.6557 
G01 X-15.5053 Y45.6137 
G01 X-15.3917 Y45.3909 
G01 X-15.3144 Y45.1530 
G01 X-15.2753 Y44.9060 
G01 X-15.2753 Y44.6559 
G01 X-15.3144 Y44.4089 
G01 X-15.3917 Y44.1710 
G01 X-15.5053 Y43.9482 
G00 Z2.0000 
G00 X-15.4350 Y47.3679 
G01 Z-0.3000 F100.00 
G01 X-15.6043 Y47.3411 F300.00 
G01 X-15.7757 Y47.3411 
G01 X-15.9450 Y47.3679 
G01 X-16.1080 Y47.4209 
G01 X-16.2607 Y47.4987 
G01 X-16.3994 Y47.5994 
G01 X-16.5206 Y47.7206 
G01 X-16.6213 Y47.8593 
G01 X-16.6991 Y48.0120 
G01 X-16.7521 Y48.1750 
G01 X-16.7789 Y48.3443 
G01 X-16.7789 Y50.5157 
G01 X-16.7521 Y50.6850 
G01 X-16.6991 Y50.8480 
G01 X-16.6213 Y51.0007 
G01 X-16.5206 Y51.1394 
G01 X-16.3994 Y51.2606 
G01 X-16.2607 Y51.3613 
G01 X-16.1080 Y51.4391 
G01 X-15.9450 Y51.4921 
G01 X-15.7757 Y51.5189 
G01 X-15.6043 Y51.5189 
G01 X-15.4350 Y51.4921 
G01 X-15.2720 Y51.4391 
G01 X-15.1193 Y51.3613 
G01 X-14.9806 Y51.2606 
G01 X-14.9643 Y51.2442 
G01 X-11.7259 Y54.4827 
G01 X-11.7981 Y54.6244 
G01 X-11.8584 Y54.8099 
G01 X-11.8889 Y55.0025 
G01 X-11.8889 Y55.1975 
G01 X-11.8584 Y55.3901 
G01 X-11.7981 Y55.5756 
G01 X-11.7096 Y55.7493 
G01 X-11.5950 Y55.9071 
G01 X-11.4571 Y56.0450 
G01 X-11.2993 Y56.1596 
G01 X-11.1256 Y56.2481 
G01 X-10.9401 Y56.3084 
G01 X-10.7475 Y56.3389 
G01 X-10.5525 Y56.3389 
G01 X-10.3599 Y56.3084 
G01 X-10.1744 Y56.2481 
G01 X-10.0007 Y56.1596 
G01 X-9.8429 Y56.0450 
G01 X-9.7050 Y55.9071 
G01 X-9.5904 Y55.7493 
G01 X-9.5019 Y55.5756 
G01 X-9.4416 Y55.3901 
G01 X-9.4111 Y55.1975 
G01 X-9.4111 Y55.0025 
G01 X-9.4416 Y54.8099 
G01 X-9.5019 Y54.6244 
G01 X-9.5904 Y54.4507 
G01 X-9.7050 Y54.2929 
G01 X-9.8429 Y54.1550 
G01 X-10.0007 Y54.0404 
G01 X-10.1744 Y53.9519 
G01 X-10.3599 Y53.8916 
G01 X-10.5525 Y53.8611 
G01 X-10.7475 Y53.8611 
G01 X-10.9401 Y53.8916 
G01 X-11.1256 Y53.9519 
G01 X-11.2993 Y54.0404 
G01 X-11.3293 Y54.0622 
G01 X-14.6472 Y50.7443 
G01 X-14.6279 Y50.6850 
G01 X-14.6011 Y50.5157 
G01 X-14.6011 Y48.3443 
G01 X-14.6279 Y48.1750 
G01 X-14.6809 Y48.0120 
G01 X-14.7587 Y47.8593 
G01 X-14.8594 Y47.7206 
G01 X-14.9806 Y47.5994 
G01 X-15.1193 Y47.4987 
G01 X-15.2720 Y47.4209 
G01 X-15.4350 Y47.3679 
G00 Z2.0000 
G00 X-19.9394 Y47.7206 
G01 Z-0.3000 F100.00 
G01 X-20.0606 Y47.5994 F300.00 
G01 X-20.1993 Y47.4987 
G01 X-20.3520 Y47.4209 
G01 X-20.5111 Y47.3692 
G01 X-20.5111 Y46.3699 
G01 X-20.2637 Y46.3307 
G01 X-20.0258 Y46.2535 
G01 X-19.8030 Y46.1399 
G01 X-19.6007 Y45.9929 
G01 X-19.4238 Y45.8161 
G01 X-19.2768 Y45.6137 
G01 X-19.1633 Y45.3909 
G01 X-19.0860 Y45.1530 
G01 X-19.0469 Y44.9060 
G01 X-19.0469 Y44.6559 
G01 X-19.0860 Y44.4089 
G01 X-19.1633 Y44.1710 
G01 X-19.2768 Y43.9482 
G01 X-19.4238 Y43.7459 
G01 X-19.6007 Y43.5690 
G01 X-19.8030 Y43.4220 
G01 X-20.0258 Y43.3085 
G01 X-20.1345 Y43.2732 
G01 X-20.1345 Y43.0806 
G01 X-20.1736 Y42.8336 
G01 X-20.2509 Y42.5958 
G01 X-20.3644 Y42.3729 
G01 X-20.5114 Y42.1706 
G01 X-20.6883 Y41.9937 
G01 X-20.8906 Y41.8467 
G01 X-21.1135 Y41.7332 
G01 X-21.3513 Y41.6559 
G01 X-21.5983 Y41.6168 
G01 X-21.8484 Y41.6168 
G01 X-22.0955 Y41.6559 
G01 X-22.3333 Y41.7332 
G01 X-22.5562 Y41.8467 
G01 X-22.7585 Y41.9937 
G01 X-22.9353 Y42.1706 
G01 X-23.0823 Y42.3729 
G01 X-23.1959 Y42.5958 
G01 X-23.2732 Y42.8336 
G01 X-23.3123 Y43.0806 
G01 X-23.3123 Y43.3307 
G01 X-23.2732 Y43.5778 
G01 X-23.1959 Y43.8156 
G01 X-23.0823 Y44.0385 
G01 X-22.9353 Y44.2408 
G01 X-22.7585 Y44.4176 
G01 X-22.5562 Y44.5646 
G01 X-22.3333 Y44.6782 
G01 X-22.2247 Y44.7135 
G01 X-22.2247 Y44.9060 
G01 X-22.1855 Y45.1530 
G01 X-22.1083 Y45.3909 
G01 X-21.9947 Y45.6137 
G01 X-21.8477 Y45.8161 
G01 X-21.6709 Y45.9929 
G01 X-21.4685 Y46.1399 
G01 X-21.2457 Y46.2535 
G01 X-21.0889 Y46.3044 
G01 X-21.0889 Y47.3887 
G01 X-21.1880 Y47.4209 
G01 X-21.3407 Y47.4987 
G01 X-21.4794 Y47.5994 
G01 X-21.6006 Y47.7206 
G01 X-21.7013 Y47.8593 
G01 X-21.7791 Y48.0120 
G01 X-21.8321 Y48.1750 
G01 X-21.8589 Y48.3443 
G01 X-21.8589 Y50.5157 
G01 X-21.8321 Y50.6850 
G01 X-21.7791 Y50.8480 
G01 X-21.7013 Y51.0007 
G01 X-21.6006 Y51.1394 
G01 X-21.4794 Y51.2606 
G01 X-21.3407 Y51.3613 
G01 X-21.1880 Y51.4391 
G01 X-21.0250 Y51.4921 
G01 X-20.8557 Y51.5189 
G01 X-20.6843 Y51.5189 
G01 X-20.5150 Y51.4921 
G01 X-20.3520 Y51.4391 
G01 X-20.1993 Y51.3613 
G01 X-20.0606 Y51.2606 
G01 X-19.9394 Y51.1394 
G01 X-19.8387 Y51.0007 
G01 X-19.7609 Y50.8480 
G01 X-19.7079 Y50.6850 
G01 X-19.6811 Y50.5157 
G01 X-19.6811 Y48.3443 
G01 X-19.7079 Y48.1750 
G01 X-19.7609 Y48.0120 
G01 X-19.8387 Y47.8593 
G01 X-19.9394 Y47.7206 
G00 Z2.0000 
G00 X-19.9394 Y52.2606 
G01 Z-0.3000 F100.00 
G01 X-20.0606 Y52.1394 F300.00 
G01 X-20.1993 Y52.0387 
G01 X-20.3520 Y51.9609 
G01 X-20.5150 Y51.9079 
G01 X-20.6843 Y51.8811 
G01 X-20.8557 Y51.8811 
G01 X-21.0250 Y51.9079 
G01 X-21.1880 Y51.9609 
G01 X-21.3407 Y52.0387 
G01 X-21.4794 Y52.1394 
G01 X-21.6006 Y52.2606 
G01 X-21.7013 Y52.3993 
G01 X-21.7791 Y52.5520 
G01 X-21.8321 Y52.7150 
G01 X-21.8589 Y52.8843 
G01 X-21.8589 Y55.0557 
G01 X-21.8321 Y55.2250 
G01 X-21.7791 Y55.3880 
G01 X-21.7175 Y55.5089 
G01 X-22.7907 Y56.5821 
G01 X-22.8472 Y56.5410 
G01 X-23.0701 Y56.4275 
G01 X-23.3079 Y56.3502 
G01 X-23.5549 Y56.3111 
G01 X-23.8051 Y56.3111 
G01 X-24.0521 Y56.3502 
G01 X-24.2899 Y56.4275 
G01 X-24.5128 Y56.5410 
G01 X-24.7151 Y56.6881 
G01 X-24.8919 Y56.8649 
G01 X-25.0389 Y57.0672 
G01 X-25.1525 Y57.2901 
G01 X-25.2298 Y57.5279 
G01 X-25.2689 Y57.7749 
G01 X-25.2689 Y58.0251 
G01 X-25.2298 Y58.2721 
G01 X-25.1525 Y58.5099 
G01 X-25.0389 Y58.7328 
G01 X-24.8919 Y58.9351 
G01 X-24.7151 Y59.1119 
G01 X-24.5128 Y59.2589 
G01 X-24.2899 Y59.3725 
G01 X-24.0521 Y59.4498 
G01 X-23.8051 Y59.4889 
G01 X-23.5549 Y59.4889 
G01 X-23.3079 Y59.4498 
G01 X-23.0701 Y59.3725 
G01 X-22.8472 Y59.2589 
G01 X-22.6449 Y59.1119 
G01 X-22.4681 Y58.9351 
G01 X-22.3210 Y58.7328 
G01 X-22.2075 Y58.5099 
G01 X-22.1302 Y58.2721 
G01 X-22.0911 Y58.0251 
G01 X-22.0911 Y57.7749 
G01 X-22.1302 Y57.5279 
G01 X-22.2075 Y57.2901 
G01 X-22.3210 Y57.0672 
G01 X-22.3790 Y56.9875 
G01 X-21.3089 Y55.9175 
G01 X-21.1880 Y55.9791 
G01 X-21.0250 Y56.0321 
G01 X-20.8557 Y56.0589 
G01 X-20.6843 Y56.0589 
G01 X-20.5150 Y56.0321 
G01 X-20.3520 Y55.9791 
G01 X-20.1993 Y55.9013 
G01 X-20.0606 Y55.8006 
G01 X-19.9394 Y55.6794 
G01 X-19.8387 Y55.5407 
G01 X-19.7609 Y55.3880 
G01 X-19.7079 Y55.2250 
G01 X-19.6811 Y55.0557 
G01 X-19.6811 Y52.8843 
G01 X-19.7079 Y52.7150 
G01 X-19.7609 Y52.5520 
G01 X-19.8387 Y52.3993 
G01 X-19.9394 Y52.2606 
G00 Z2.0000 
G00 X-19.0606 Y52.2606 
G01 Z-0.3000 F100.00 
G01 X-19.1613 Y52.3993 F300.00 
G01 X-19.2391 Y52.5520 
G01 X-19.2921 Y52.7150 
G01 X-19.3189 Y52.8843 
G01 X-19.3189 Y55.0557 
G01 X-19.2921 Y55.2250 
G01 X-19.2391 Y55.3880 
G01 X-19.1613 Y55.5407 
G01 X-19.0606 Y55.6794 
G01 X-18.9394 Y55.8006 
G01 X-18.8007 Y55.9013 
G01 X-18.6480 Y55.9791 
G01 X-18.4850 Y56.0321 
G01 X-18.3157 Y56.0589 
G01 X-18.1443 Y56.0589 
G01 X-17.9750 Y56.0321 
G01 X-17.8120 Y55.9791 
G01 X-17.6593 Y55.9013 
G01 X-17.5206 Y55.8006 
G01 X-17.3994 Y55.6794 
G01 X-17.2987 Y55.5407 
G01 X-17.2209 Y55.3880 
G01 X-17.1679 Y55.2250 
G01 X-17.1411 Y55.0557 
G01 X-17.1411 Y52.8843 
G01 X-17.1679 Y52.7150 
G01 X-17.2209 Y52.5520 
G01 X-17.2987 Y52.3993 
G01 X-17.3994 Y52.2606 
G01 X-17.5206 Y52.1394 
G01 X-17.6593 Y52.0387 
G01 X-17.8120 Y51.9609 
G01 X-17.9750 Y51.9079 
G01 X-18.1443 Y51.8811 
G01 X-18.3157 Y51.8811 
G01 X-18.4850 Y51.9079 
G01 X-18.6480 Y51.9609 
G01 X-18.8007 Y52.0387 
G01 X-18.9394 Y52.1394 
G01 X-19.0606 Y52.2606 
G00 Z2.0000 
G00 X-22.4794 Y52.2606 
G01 Z-0.3000 F100.00 
G01 X-22.6006 Y52.1394 F300.00 
G01 X-22.7393 Y52.0387 
G01 X-22.8920 Y51.9609 
G01 X-23.0550 Y51.9079 
G01 X-23.2243 Y51.8811 
G01 X-23.3957 Y51.8811 
G01 X-23.5650 Y51.9079 
G01 X-23.7280 Y51.9609 
G01 X-23.8807 Y52.0387 
G01 X-24.0194 Y52.1394 
G01 X-24.1406 Y52.2606 
G01 X-24.2413 Y52.3993 
G01 X-24.3191 Y52.5520 
G01 X-24.3721 Y52.7150 
G01 X-24.3989 Y52.8843 
G01 X-24.3989 Y55.0557 
G01 X-24.3721 Y55.2250 
G01 X-24.3191 Y55.3880 
G01 X-24.2413 Y55.5407 
G01 X-24.1406 Y55.6794 
G01 X-24.0194 Y55.8006 
G01 X-23.8807 Y55.9013 
G01 X-23.7280 Y55.9791 
G01 X-23.5650 Y56.0321 
G01 X-23.3957 Y56.0589 
G01 X-23.2243 Y56.0589 
G01 X-23.0550 Y56.0321 
G01 X-22.8920 Y55.9791 
G01 X-22.7393 Y55.9013 
G01 X-22.6006 Y55.8006 
G01 X-22.4794 Y55.6794 
G01 X-22.3787 Y55.5407 
G01 X-22.3009 Y55.3880 
G01 X-22.2479 Y55.2250 
G01 X-22.2211 Y55.0557 
G01 X-22.2211 Y52.8843 
G01 X-22.2479 Y52.7150 
G01 X-22.3009 Y52.5520 
G01 X-22.3787 Y52.3993 
G01 X-22.4794 Y52.2606 
G00 Z2.0000 
G00 X-29.0906 Y51.0606 
G01 Z-0.3000 F100.00 
G01 X-28.9694 Y50.9394 F300.00 
G01 X-28.8687 Y50.8007 
G01 X-28.7909 Y50.6480 
G01 X-28.7379 Y50.4850 
G01 X-28.7111 Y50.3157 
G01 X-28.7111 Y49.3238 
G01 X-28.6487 Y49.3441 
G01 X-28.4017 Y49.3832 
G01 X-28.1516 Y49.3832 
G01 X-27.9045 Y49.3441 
G01 X-27.6667 Y49.2668 
G01 X-27.4438 Y49.1532 
G01 X-27.2415 Y49.0062 
G01 X-27.0647 Y48.8294 
G01 X-26.9177 Y48.6271 
G01 X-26.8041 Y48.4042 
G01 X-26.7268 Y48.1664 
G01 X-26.6877 Y47.9194 
G01 X-26.6877 Y47.6692 
G01 X-26.7268 Y47.4222 
G01 X-26.8041 Y47.1844 
G01 X-26.9177 Y46.9615 
G01 X-27.0647 Y46.7592 
G01 X-27.1390 Y46.6849 
G01 X-27.0701 Y46.6625 
G01 X-26.8472 Y46.5489 
G01 X-26.6449 Y46.4019 
G01 X-26.4681 Y46.2251 
G01 X-26.3210 Y46.0228 
G01 X-26.2075 Y45.7999 
G01 X-26.1302 Y45.5621 
G01 X-26.0911 Y45.3150 
G01 X-26.0911 Y45.0649 
G01 X-26.1302 Y44.8179 
G01 X-26.2075 Y44.5801 
G01 X-26.3210 Y44.3572 
G01 X-26.4681 Y44.1549 
G01 X-26.6449 Y43.9781 
G01 X-26.8472 Y43.8310 
G01 X-27.0701 Y43.7175 
G01 X-27.3079 Y43.6402 
G01 X-27.5549 Y43.6011 
G01 X-27.8051 Y43.6011 
G01 X-28.0521 Y43.6402 
G01 X-28.2899 Y43.7175 
G01 X-28.5128 Y43.8310 
G01 X-28.7151 Y43.9781 
G01 X-28.8919 Y44.1549 
G01 X-29.0389 Y44.3572 
G01 X-29.1525 Y44.5801 
G01 X-29.2298 Y44.8179 
G01 X-29.2689 Y45.0649 
G01 X-29.2689 Y45.3150 
G01 X-29.2298 Y45.5621 
G01 X-29.1525 Y45.7999 
G01 X-29.0389 Y46.0228 
G01 X-28.8919 Y46.2251 
G01 X-28.8176 Y46.2994 
G01 X-28.8865 Y46.3218 
G01 X-29.1094 Y46.4354 
G01 X-29.3117 Y46.5824 
G01 X-29.4886 Y46.7592 
G01 X-29.6356 Y46.9615 
G01 X-29.7270 Y47.1411 
G01 X-29.8857 Y47.1411 
G01 X-30.0550 Y47.1679 
G01 X-30.2180 Y47.2209 
G01 X-30.3707 Y47.2987 
G01 X-30.5094 Y47.3994 
G01 X-30.6306 Y47.5206 
G01 X-30.7313 Y47.6593 
G01 X-30.8091 Y47.8120 
G01 X-30.8621 Y47.9750 
G01 X-30.8889 Y48.1443 
G01 X-30.8889 Y50.3157 
G01 X-30.8621 Y50.4850 
G01 X-30.8091 Y50.6480 
G01 X-30.7313 Y50.8007 
G01 X-30.6306 Y50.9394 
G01 X-30.5094 Y51.0606 
G01 X-30.3707 Y51.1613 
G01 X-30.2180 Y51.2391 
G01 X-30.0550 Y51.2921 
G01 X-29.8857 Y51.3189 
G01 X-29.7143 Y51.3189 
G01 X-29.5450 Y51.2921 
G01 X-29.3820 Y51.2391 
G01 X-29.2293 Y51.1613 
G01 X-29.0906 Y51.0606 
G00 Z2.0000 
G00 X-31.6906 Y49.6706 
G01 Z-0.3000 F100.00 
G01 X-31.5694 Y49.5494 F300.00 
G01 X-31.4687 Y49.4107 
G01 X-31.3909 Y49.2580 
G01 X-31.3379 Y49.0950 
G01 X-31.3111 Y48.9257 
G01 X-31.3111 Y46.7543 
G01 X-31.3379 Y46.5850 
G01 X-31.3909 Y46.4220 
G01 X-31.4687 Y46.2693 
G01 X-31.5144 Y46.2063 
G01 X-31.3810 Y46.0228 
G01 X-31.2675 Y45.7999 
G01 X-31.1902 Y45.5621 
G01 X-31.1511 Y45.3150 
G01 X-31.1511 Y45.0649 
G01 X-31.1902 Y44.8179 
G01 X-31.2675 Y44.5801 
G01 X-31.3810 Y44.3572 
G01 X-31.5281 Y44.1549 
G01 X-31.7049 Y43.9781 
G01 X-31.9072 Y43.8310 
G01 X-32.1301 Y43.7175 
G01 X-32.3679 Y43.6402 
G01 X-32.6149 Y43.6011 
G01 X-32.8650 Y43.6011 
G01 X-33.1121 Y43.6402 
G01 X-33.3499 Y43.7175 
G01 X-33.5728 Y43.8310 
G01 X-33.7751 Y43.9781 
G01 X-33.9519 Y44.1549 
G01 X-34.0989 Y44.3572 
G01 X-34.2125 Y44.5801 
G01 X-34.2898 Y44.8179 
G01 X-34.3289 Y45.0649 
G01 X-34.3289 Y45.3150 
G01 X-34.2898 Y45.5621 
G01 X-34.2125 Y45.7999 
G01 X-34.0989 Y46.0228 
G01 X-33.9519 Y46.2251 
G01 X-33.7751 Y46.4019 
G01 X-33.5728 Y46.5489 
G01 X-33.4651 Y46.6038 
G01 X-33.4889 Y46.7543 
G01 X-33.4889 Y48.9257 
G01 X-33.4621 Y49.0950 
G01 X-33.4091 Y49.2580 
G01 X-33.3313 Y49.4107 
G01 X-33.2306 Y49.5494 
G01 X-33.1094 Y49.6706 
G01 X-32.9707 Y49.7713 
G01 X-32.8180 Y49.8491 
G01 X-32.6550 Y49.9021 
G01 X-32.4857 Y49.9289 
G01 X-32.3143 Y49.9289 
G01 X-32.1450 Y49.9021 
G01 X-31.9820 Y49.8491 
G01 X-31.8293 Y49.7713 
G01 X-31.6906 Y49.6706 
G00 Z2.0000 
G00 X-27.4125 Y57.0211 
G01 Z-0.3000 F100.00 
G01 X-27.3503 Y56.9589 F300.00 
G01 X-27.1764 Y57.0477 
G01 X-27.3443 Y57.0211 
G01 X-27.4125 Y57.0211 
G00 Z2.0000 
G00 X-27.3846 Y38.8589 
G01 Z-0.3000 F100.00 
G01 X-27.1765 Y38.8259 F300.00 
G01 X-26.9760 Y38.7608 
G01 X-26.7883 Y38.6651 
G01 X-26.6178 Y38.5413 
G01 X-26.4687 Y38.3922 
G01 X-26.3449 Y38.2217 
G01 X-26.2492 Y38.0340 
G01 X-26.1841 Y37.8335 
G01 X-26.1511 Y37.6254 
G01 X-26.1511 Y37.4146 
G01 X-26.1841 Y37.2065 
G01 X-26.2492 Y37.0060 
G01 X-26.3449 Y36.8183 
G01 X-26.4687 Y36.6478 
G01 X-26.6178 Y36.4987 
G01 X-26.6980 Y36.4405 
G01 X-26.6449 Y36.4019 
G01 X-26.4681 Y36.2251 
G01 X-26.3210 Y36.0228 
G01 X-26.2075 Y35.7999 
G01 X-26.1302 Y35.5621 
G01 X-26.0911 Y35.3150 
G01 X-26.0911 Y35.0649 
G01 X-26.1302 Y34.8179 
G01 X-26.2075 Y34.5801 
G01 X-26.3210 Y34.3572 
G01 X-26.4681 Y34.1549 
G01 X-26.6449 Y33.9781 
G01 X-26.8472 Y33.8310 
G01 X-27.0701 Y33.7175 
G01 X-27.3079 Y33.6402 
G01 X-27.5549 Y33.6011 
G01 X-27.8051 Y33.6011 
G01 X-28.0521 Y33.6402 
G01 X-28.2899 Y33.7175 
G01 X-28.5128 Y33.8310 
G01 X-28.7151 Y33.9781 
G01 X-28.8919 Y34.1549 
G01 X-29.0389 Y34.3572 
G01 X-29.1525 Y34.5801 
G01 X-29.2298 Y34.8179 
G01 X-29.2689 Y35.0649 
G01 X-29.2689 Y35.3150 
G01 X-29.2298 Y35.5621 
G01 X-29.1525 Y35.7999 
G01 X-29.0389 Y36.0228 
G01 X-28.8919 Y36.2251 
G01 X-28.7151 Y36.4019 
G01 X-28.5128 Y36.5489 
G01 X-28.4463 Y36.5828 
G01 X-28.5113 Y36.6478 
G01 X-28.6351 Y36.8183 
G01 X-28.7308 Y37.0060 
G01 X-28.7959 Y37.2065 
G01 X-28.8289 Y37.4146 
G01 X-28.8289 Y37.6254 
G01 X-28.7959 Y37.8335 
G01 X-28.7308 Y38.0340 
G01 X-28.6351 Y38.2217 
G01 X-28.5113 Y38.3922 
G01 X-28.3622 Y38.5413 
G01 X-28.1917 Y38.6651 
G01 X-28.0040 Y38.7608 
G01 X-27.8035 Y38.8259 
G01 X-27.5954 Y38.8589 
G01 X-27.3846 Y38.8589 
G00 Z2.0000 
G00 X-27.4179 Y32.0498 
G01 Z-0.3000 F100.00 
G01 X-27.1801 Y31.9725 F300.00 
G01 X-26.9572 Y31.8589 
G01 X-26.8370 Y31.7716 
G01 X-25.3774 Y33.2312 
G01 X-25.3115 Y33.2692 
G01 X-25.2380 Y33.2889 
G01 X-24.2888 Y33.2889 
G01 X-24.2598 Y33.4721 
G01 X-24.1825 Y33.7099 
G01 X-24.0689 Y33.9328 
G01 X-23.9219 Y34.1351 
G01 X-23.7451 Y34.3119 
G01 X-23.5428 Y34.4589 
G01 X-23.3199 Y34.5725 
G01 X-23.0821 Y34.6498 
G01 X-22.8350 Y34.6889 
G01 X-22.5849 Y34.6889 
G01 X-22.3379 Y34.6498 
G01 X-22.1001 Y34.5725 
G01 X-21.8772 Y34.4589 
G01 X-21.6749 Y34.3119 
G01 X-21.4981 Y34.1351 
G01 X-21.3511 Y33.9328 
G01 X-21.2375 Y33.7099 
G01 X-21.1602 Y33.4721 
G01 X-21.1211 Y33.2251 
G01 X-21.1211 Y32.9749 
G01 X-21.1602 Y32.7279 
G01 X-21.2375 Y32.4901 
G01 X-21.3511 Y32.2672 
G01 X-21.4981 Y32.0649 
G01 X-21.6749 Y31.8881 
G01 X-21.8772 Y31.7411 
G01 X-22.1001 Y31.6275 
G01 X-22.3379 Y31.5502 
G01 X-22.5849 Y31.5111 
G01 X-22.8350 Y31.5111 
G01 X-23.0821 Y31.5502 
G01 X-23.3199 Y31.6275 
G01 X-23.5428 Y31.7411 
G01 X-23.7451 Y31.8881 
G01 X-23.9219 Y32.0649 
G01 X-24.0689 Y32.2672 
G01 X-24.1825 Y32.4901 
G01 X-24.2543 Y32.7111 
G01 X-25.0803 Y32.7111 
G01 X-26.4427 Y31.3488 
G01 X-26.4310 Y31.3328 
G01 X-26.3175 Y31.1099 
G01 X-26.2402 Y30.8721 
G01 X-26.2011 Y30.6251 
G01 X-26.2011 Y30.3749 
G01 X-26.2402 Y30.1279 
G01 X-26.3175 Y29.8901 
G01 X-26.4310 Y29.6672 
G01 X-26.5781 Y29.4649 
G01 X-26.7549 Y29.2881 
G01 X-26.9572 Y29.1410 
G01 X-27.1801 Y29.0275 
G01 X-27.4179 Y28.9502 
G01 X-27.6649 Y28.9111 
G01 X-27.9151 Y28.9111 
G01 X-28.1621 Y28.9502 
G01 X-28.3999 Y29.0275 
G01 X-28.6228 Y29.1410 
G01 X-28.8251 Y29.2881 
G01 X-29.0019 Y29.4649 
G01 X-29.1489 Y29.6672 
G01 X-29.2625 Y29.8901 
G01 X-29.3398 Y30.1279 
G01 X-29.3789 Y30.3749 
G01 X-29.3789 Y30.6251 
G01 X-29.3398 Y30.8721 
G01 X-29.2625 Y31.1099 
G01 X-29.1489 Y31.3328 
G01 X-29.0019 Y31.5351 
G01 X-28.8251 Y31.7119 
G01 X-28.6228 Y31.8589 
G01 X-28.3999 Y31.9725 
G01 X-28.1621 Y32.0498 
G01 X-27.9151 Y32.0889 
G01 X-27.6649 Y32.0889 
G01 X-27.4179 Y32.0498 
G00 Z2.0000 
G00 X-5.7119 Y12.9351 
G01 Z-0.3000 F100.00 
G01 X-5.5351 Y13.1119 F300.00 
G01 X-5.3328 Y13.2589 
G01 X-5.1099 Y13.3725 
G01 X-4.8721 Y13.4498 
G01 X-4.6250 Y13.4889 
G01 X-4.3749 Y13.4889 
G01 X-4.1279 Y13.4498 
G01 X-3.8901 Y13.3725 
G01 X-3.6672 Y13.2589 
G01 X-3.4649 Y13.1119 
G01 X-3.2881 Y12.9351 
G01 X-3.1410 Y12.7328 
G01 X-3.0275 Y12.5099 
G01 X-2.9502 Y12.2721 
G01 X-2.9111 Y12.0251 
G01 X-2.9111 Y11.7749 
G01 X-2.9502 Y11.5279 
G01 X-3.0275 Y11.2901 
G01 X-3.1410 Y11.0672 
G01 X-3.2881 Y10.8649 
G01 X-3.4649 Y10.6881 
G01 X-3.6672 Y10.5411 
G01 X-3.8901 Y10.4275 
G01 X-4.1279 Y10.3502 
G01 X-4.3749 Y10.3111 
G01 X-4.6250 Y10.3111 
G01 X-4.8721 Y10.3502 
G01 X-5.1099 Y10.4275 
G01 X-5.3328 Y10.5411 
G01 X-5.5351 Y10.6881 
G01 X-5.7119 Y10.8649 
G01 X-5.8589 Y11.0672 
G01 X-5.9725 Y11.2901 
G01 X-6.0498 Y11.5279 
G01 X-6.0889 Y11.7749 
G01 X-6.0889 Y12.0251 
G01 X-6.0498 Y12.2721 
G01 X-5.9725 Y12.5099 
G01 X-5.8589 Y12.7328 
G01 X-5.7119 Y12.9351 
G00 Z2.0000 
G00 X-1.8598 Y3.4510 
G01 Z-0.3000 F100.00 
G01 X-2.0210 Y3.2898 F300.00 
G01 X-2.2018 Y3.1511 
G01 X-2.3993 Y3.0371 
G01 X-2.6098 Y2.9499 
G01 X-2.8300 Y2.8909 
G01 X-3.0560 Y2.8611 
G01 X-3.2840 Y2.8611 
G01 X-3.5100 Y2.8909 
G01 X-3.7302 Y2.9499 
G01 X-3.9407 Y3.0371 
G01 X-4.1382 Y3.1511 
G01 X-4.3190 Y3.2898 
G01 X-4.4802 Y3.4510 
G01 X-4.6189 Y3.6318 
G01 X-4.7329 Y3.8293 
G01 X-4.8201 Y4.0398 
G01 X-4.8791 Y4.2600 
G01 X-4.9089 Y4.4860 
G01 X-4.9089 Y4.7140 
G01 X-4.8791 Y4.9400 
G01 X-4.8201 Y5.1601 
G01 X-4.7329 Y5.3707 
G01 X-4.6189 Y5.5682 
G01 X-4.4802 Y5.7490 
G01 X-4.3190 Y5.9102 
G01 X-4.1382 Y6.0489 
G01 X-3.9407 Y6.1629 
G01 X-3.8882 Y6.1847 
G01 X-10.8073 Y13.1037 
G01 X-10.8963 Y13.1927 
G01 X-10.9662 Y13.2974 
G01 X-11.0143 Y13.4136 
G01 X-11.0389 Y13.5371 
G01 X-11.0389 Y23.6442 
G01 X-11.0602 Y23.6499 
G01 X-11.2707 Y23.7371 
G01 X-11.4682 Y23.8511 
G01 X-11.6490 Y23.9898 
G01 X-11.8102 Y24.1510 
G01 X-11.9489 Y24.3318 
G01 X-12.0629 Y24.5293 
G01 X-12.1501 Y24.7398 
G01 X-12.2091 Y24.9600 
G01 X-12.2389 Y25.1860 
G01 X-12.2389 Y25.4140 
G01 X-12.2091 Y25.6400 
G01 X-12.1501 Y25.8602 
G01 X-12.0629 Y26.0707 
G01 X-11.9489 Y26.2682 
G01 X-11.8102 Y26.4490 
G01 X-11.6490 Y26.6102 
G01 X-11.4682 Y26.7489 
G01 X-11.2707 Y26.8629 
G01 X-11.0602 Y26.9501 
G01 X-10.8400 Y27.0091 
G01 X-10.6140 Y27.0389 
G01 X-10.3860 Y27.0389 
G01 X-10.1600 Y27.0091 
G01 X-9.9398 Y26.9501 
G01 X-9.7293 Y26.8629 
G01 X-9.5318 Y26.7489 
G01 X-9.3510 Y26.6102 
G01 X-9.1898 Y26.4490 
G01 X-9.0511 Y26.2682 
G01 X-8.9371 Y26.0707 
G01 X-8.8498 Y25.8602 
G01 X-8.7909 Y25.6400 
G01 X-8.7611 Y25.4140 
G01 X-8.7611 Y25.1860 
G01 X-8.7909 Y24.9600 
G01 X-8.8498 Y24.7398 
G01 X-8.9371 Y24.5293 
G01 X-9.0511 Y24.3318 
G01 X-9.1898 Y24.1510 
G01 X-9.3510 Y23.9898 
G01 X-9.5318 Y23.8511 
G01 X-9.7293 Y23.7371 
G01 X-9.7611 Y23.7239 
G01 X-9.7611 Y13.8646 
G01 X-2.7037 Y6.8073 
G01 X-2.6338 Y6.7026 
G01 X-2.5857 Y6.5864 
G01 X-2.5611 Y6.4629 
G01 X-2.5611 Y6.2300 
G01 X-2.3993 Y6.1629 
G01 X-2.2018 Y6.0489 
G01 X-2.0210 Y5.9102 
G01 X-1.8598 Y5.7490 
G01 X-1.7211 Y5.5682 
G01 X-1.6071 Y5.3707 
G01 X-1.5198 Y5.1601 
G01 X-1.4609 Y4.9400 
G01 X-1.4311 Y4.7140 
G01 X-1.4311 Y4.4860 
G01 X-1.4609 Y4.2600 
G01 X-1.5198 Y4.0398 
G01 X-1.6071 Y3.8293 
G01 X-1.7211 Y3.6318 
G01 X-1.8598 Y3.4510 
G00 Z2.0000 
G00 X-6.8598 Y3.4510 
G01 Z-0.3000 F100.00 
G01 X-7.0210 Y3.2898 F300.00 
G01 X-7.2018 Y3.1511 
G01 X-7.3993 Y3.0371 
G01 X-7.6098 Y2.9499 
G01 X-7.8300 Y2.8909 
G01 X-8.0560 Y2.8611 
G01 X-8.2840 Y2.8611 
G01 X-8.5100 Y2.8909 
G01 X-8.7302 Y2.9499 
G01 X-8.9407 Y3.0371 
G01 X-9.1382 Y3.1511 
G01 X-9.3190 Y3.2898 
G01 X-9.4802 Y3.4510 
G01 X-9.6189 Y3.6318 
G01 X-9.7329 Y3.8293 
G01 X-9.8201 Y4.0398 
G01 X-9.8791 Y4.2600 
G01 X-9.9089 Y4.4860 
G01 X-9.9089 Y4.7140 
G01 X-9.8791 Y4.9400 
G01 X-9.8201 Y5.1601 
G01 X-9.7329 Y5.3707 
G01 X-9.6189 Y5.5682 
G01 X-9.4802 Y5.7490 
G01 X-9.3190 Y5.9102 
G01 X-9.1382 Y6.0489 
G01 X-8.9407 Y6.1629 
G01 X-8.8389 Y6.2051 
G01 X-8.8389 Y7.5354 
G01 X-21.6646 Y20.3611 
G01 X-23.0629 Y20.3611 
G01 X-23.1864 Y20.3857 
G01 X-23.3026 Y20.4338 
G01 X-23.4073 Y20.5037 
G01 X-26.5787 Y23.6752 
G01 X-26.6398 Y23.6499 
G01 X-26.8600 Y23.5909 
G01 X-27.0860 Y23.5611 
G01 X-27.3140 Y23.5611 
G01 X-27.5400 Y23.5909 
G01 X-27.7601 Y23.6499 
G01 X-27.9707 Y23.7371 
G01 X-28.1682 Y23.8511 
G01 X-28.3490 Y23.9898 
G01 X-28.5102 Y24.1510 
G01 X-28.6489 Y24.3318 
G01 X-28.7629 Y24.5293 
G01 X-28.8501 Y24.7398 
G01 X-28.9091 Y24.9600 
G01 X-28.9389 Y25.1860 
G01 X-28.9389 Y25.4140 
G01 X-28.9091 Y25.6400 
G01 X-28.8501 Y25.8602 
G01 X-28.7629 Y26.0707 
G01 X-28.6489 Y26.2682 
G01 X-28.5102 Y26.4490 
G01 X-28.3490 Y26.6102 
G01 X-28.1682 Y26.7489 
G01 X-27.9707 Y26.8629 
G01 X-27.7601 Y26.9501 
G01 X-27.5400 Y27.0091 
G01 X-27.3140 Y27.0389 
G01 X-27.0860 Y27.0389 
G01 X-26.8600 Y27.0091 
G01 X-26.6398 Y26.9501 
G01 X-26.4293 Y26.8629 
G01 X-26.2318 Y26.7489 
G01 X-26.0510 Y26.6102 
G01 X-25.8898 Y26.4490 
G01 X-25.7511 Y26.2682 
G01 X-25.6371 Y26.0707 
G01 X-25.5498 Y25.8602 
G01 X-25.4909 Y25.6400 
G01 X-25.4611 Y25.4140 
G01 X-25.4611 Y25.1860 
G01 X-25.4909 Y24.9600 
G01 X-25.5498 Y24.7398 
G01 X-25.6338 Y24.5373 
G01 X-22.7354 Y21.6389 
G01 X-21.3371 Y21.6389 
G01 X-21.2136 Y21.6143 
G01 X-21.0974 Y21.5662 
G01 X-20.9927 Y21.4963 
G01 X-20.9037 Y21.4073 
G01 X-7.7037 Y8.2073 
G01 X-7.6338 Y8.1026 
G01 X-7.5857 Y7.9864 
G01 X-7.5611 Y7.8629 
G01 X-7.5611 Y6.2300 
G01 X-7.3993 Y6.1629 
G01 X-7.2018 Y6.0489 
G01 X-7.0210 Y5.9102 
G01 X-6.8598 Y5.7490 
G01 X-6.7211 Y5.5682 
G01 X-6.6071 Y5.3707 
G01 X-6.5198 Y5.1601 
G01 X-6.4609 Y4.9400 
G01 X-6.4311 Y4.7140 
G01 X-6.4311 Y4.4860 
G01 X-6.4609 Y4.2600 
G01 X-6.5198 Y4.0398 
G01 X-6.6071 Y3.8293 
G01 X-6.7211 Y3.6318 
G01 X-6.8598 Y3.4510 
G00 Z2.0000 
G00 X-11.8598 Y3.4510 
G01 Z-0.3000 F100.00 
G01 X-12.0210 Y3.2898 F300.00 
G01 X-12.2018 Y3.1511 
G01 X-12.3993 Y3.0371 
G01 X-12.6098 Y2.9499 
G01 X-12.8300 Y2.8909 
G01 X-13.0560 Y2.8611 
G01 X-13.2840 Y2.8611 
G01 X-13.5100 Y2.8909 
G01 X-13.7302 Y2.9499 
G01 X-13.9407 Y3.0371 
G01 X-14.1382 Y3.1511 
G01 X-14.3190 Y3.2898 
G01 X-14.4628 Y3.4336 
G01 X-16.7037 Y1.1927 
G01 X-16.7927 Y1.1037 
G01 X-16.8974 Y1.0338 
G01 X-17.0136 Y0.9857 
G01 X-17.1371 Y0.9611 
G01 X-20.4629 Y0.9611 
G01 X-20.5864 Y0.9857 
G01 X-20.7026 Y1.0338 
G01 X-20.8073 Y1.1037 
G01 X-22.7373 Y3.0338 
G01 X-22.9398 Y2.9499 
G01 X-23.1600 Y2.8909 
G01 X-23.3860 Y2.8611 
G01 X-23.6140 Y2.8611 
G01 X-23.8400 Y2.8909 
G01 X-24.0602 Y2.9499 
G01 X-24.2627 Y3.0338 
G01 X-26.1927 Y1.1037 
G01 X-26.2974 Y1.0338 
G01 X-26.4136 Y0.9857 
G01 X-26.5371 Y0.9611 
G01 X-30.0629 Y0.9611 
G01 X-30.1864 Y0.9857 
G01 X-30.3026 Y1.0338 
G01 X-30.4073 Y1.1037 
G01 X-30.4963 Y1.1927 
G01 X-32.5836 Y3.2801 
G01 X-32.7518 Y3.1511 
G01 X-32.9493 Y3.0371 
G01 X-33.1598 Y2.9499 
G01 X-33.3800 Y2.8909 
G01 X-33.6060 Y2.8611 
G01 X-33.8340 Y2.8611 
G01 X-34.0600 Y2.8909 
G01 X-34.2801 Y2.9499 
G01 X-34.4907 Y3.0371 
G01 X-34.6882 Y3.1511 
G01 X-34.8690 Y3.2898 
G01 X-35.0302 Y3.4510 
G01 X-35.1689 Y3.6318 
G01 X-35.2829 Y3.8293 
G01 X-35.3701 Y4.0398 
G01 X-35.4291 Y4.2600 
G01 X-35.4589 Y4.4860 
G01 X-35.4589 Y4.7140 
G01 X-35.4291 Y4.9400 
G01 X-35.3701 Y5.1601 
G01 X-35.2829 Y5.3707 
G01 X-35.1689 Y5.5682 
G01 X-35.0302 Y5.7490 
G01 X-34.8690 Y5.9102 
G01 X-34.6882 Y6.0489 
G01 X-34.4907 Y6.1629 
G01 X-34.2801 Y6.2501 
G01 X-34.0600 Y6.3091 
G01 X-33.8340 Y6.3389 
G01 X-33.6060 Y6.3389 
G01 X-33.3800 Y6.3091 
G01 X-33.1598 Y6.2501 
G01 X-32.9493 Y6.1629 
G01 X-32.7518 Y6.0489 
G01 X-32.5710 Y5.9102 
G01 X-32.4098 Y5.7490 
G01 X-32.2711 Y5.5682 
G01 X-32.1571 Y5.3707 
G01 X-32.0699 Y5.1601 
G01 X-32.0109 Y4.9400 
G01 X-31.9811 Y4.7140 
G01 X-31.9811 Y4.4860 
G01 X-29.7354 Y2.2389 
G01 X-26.8646 Y2.2389 
G01 X-25.1248 Y3.9787 
G01 X-25.1501 Y4.0398 
G01 X-25.2091 Y4.2600 
G01 X-25.2389 Y4.4860 
G01 X-25.2389 Y4.7140 
G01 X-25.2091 Y4.9400 
G01 X-25.1501 Y5.1601 
G01 X-25.0629 Y5.3707 
G01 X-24.9489 Y5.5682 
G01 X-24.8102 Y5.7490 
G01 X-24.6490 Y5.9102 
G01 X-24.4682 Y6.0489 
G01 X-24.2707 Y6.1629 
G01 X-24.0602 Y6.2501 
G01 X-23.8400 Y6.3091 
G01 X-23.6140 Y6.3389 
G01 X-23.3860 Y6.3389 
G01 X-23.1600 Y6.3091 
G01 X-22.9398 Y6.2501 
G01 X-22.7293 Y6.1629 
G01 X-22.5318 Y6.0489 
G01 X-22.3510 Y5.9102 
G01 X-22.1898 Y5.7490 
G01 X-22.0511 Y5.5682 
G01 X-21.9371 Y5.3707 
G01 X-21.8498 Y5.1601 
G01 X-21.7909 Y4.9400 
G01 X-21.7611 Y4.7140 
G01 X-21.7611 Y4.4860 
G01 X-21.7909 Y4.2600 
G01 X-21.8498 Y4.0398 
G01 X-21.8752 Y3.9787 
G01 X-20.1354 Y2.2389 
G01 X-17.4646 Y2.2389 
G01 X-14.8967 Y4.8069 
G01 X-14.8791 Y4.9400 
G01 X-14.8201 Y5.1601 
G01 X-14.7329 Y5.3707 
G01 X-14.6189 Y5.5682 
G01 X-14.4802 Y5.7490 
G01 X-14.3190 Y5.9102 
G01 X-14.1382 Y6.0489 
G01 X-13.9407 Y6.1629 
G01 X-13.7302 Y6.2501 
G01 X-13.5100 Y6.3091 
G01 X-13.2840 Y6.3389 
G01 X-13.0560 Y6.3389 
G01 X-12.8300 Y6.3091 
G01 X-12.6098 Y6.2501 
G01 X-12.3993 Y6.1629 
G01 X-12.2018 Y6.0489 
G01 X-12.0210 Y5.9102 
G01 X-11.8598 Y5.7490 
G01 X-11.7211 Y5.5682 
G01 X-11.6071 Y5.3707 
G01 X-11.5198 Y5.1601 
G01 X-11.4609 Y4.9400 
G01 X-11.4311 Y4.7140 
G01 X-11.4311 Y4.4860 
G01 X-11.4609 Y4.2600 
G01 X-11.5198 Y4.0398 
G01 X-11.6071 Y3.8293 
G01 X-11.7211 Y3.6318 
G01 X-11.8598 Y3.4510 
G00 Z2.0000 
G00 X-17.1898 Y3.4510 
G01 Z-0.3000 F100.00 
G01 X-17.3510 Y3.2898 F300.00 
G01 X-17.5318 Y3.1511 
G01 X-17.7293 Y3.0371 
G01 X-17.9398 Y2.9499 
G01 X-18.1600 Y2.8909 
G01 X-18.3860 Y2.8611 
G01 X-18.6140 Y2.8611 
G01 X-18.8400 Y2.8909 
G01 X-19.0602 Y2.9499 
G01 X-19.2707 Y3.0371 
G01 X-19.4682 Y3.1511 
G01 X-19.6490 Y3.2898 
G01 X-19.8102 Y3.4510 
G01 X-19.9489 Y3.6318 
G01 X-20.0629 Y3.8293 
G01 X-20.1501 Y4.0398 
G01 X-20.2091 Y4.2600 
G01 X-20.2389 Y4.4860 
G01 X-20.2389 Y4.7140 
G01 X-20.2091 Y4.9400 
G01 X-20.1501 Y5.1601 
G01 X-20.0629 Y5.3707 
G01 X-19.9489 Y5.5682 
G01 X-19.8102 Y5.7490 
G01 X-19.6490 Y5.9102 
G01 X-19.4682 Y6.0489 
G01 X-19.2707 Y6.1629 
G01 X-19.0602 Y6.2501 
G01 X-19.0389 Y6.2558 
G01 X-19.0389 Y6.9611 
G01 X-28.1611 Y6.9611 
G01 X-28.1611 Y6.2505 
G01 X-27.9493 Y6.1629 
G01 X-27.7518 Y6.0489 
G01 X-27.5710 Y5.9102 
G01 X-27.4098 Y5.7490 
G01 X-27.2711 Y5.5682 
G01 X-27.1571 Y5.3707 
G01 X-27.0698 Y5.1601 
G01 X-27.0109 Y4.9400 
G01 X-26.9811 Y4.7140 
G01 X-26.9811 Y4.4860 
G01 X-27.0109 Y4.2600 
G01 X-27.0698 Y4.0398 
G01 X-27.1571 Y3.8293 
G01 X-27.2711 Y3.6318 
G01 X-27.4098 Y3.4510 
G01 X-27.5710 Y3.2898 
G01 X-27.7518 Y3.1511 
G01 X-27.9493 Y3.0371 
G01 X-28.1598 Y2.9499 
G01 X-28.3800 Y2.8909 
G01 X-28.6060 Y2.8611 
G01 X-28.8340 Y2.8611 
G01 X-29.0600 Y2.8909 
G01 X-29.2801 Y2.9499 
G01 X-29.4907 Y3.0371 
G01 X-29.6882 Y3.1511 
G01 X-29.8690 Y3.2898 
G01 X-30.0302 Y3.4510 
G01 X-30.1689 Y3.6318 
G01 X-30.2829 Y3.8293 
G01 X-30.3701 Y4.0398 
G01 X-30.4291 Y4.2600 
G01 X-30.4589 Y4.4860 
G01 X-30.4589 Y4.7140 
G01 X-30.4291 Y4.9400 
G01 X-30.3701 Y5.1601 
G01 X-30.2829 Y5.3707 
G01 X-30.1689 Y5.5682 
G01 X-30.0302 Y5.7490 
G01 X-29.8690 Y5.9102 
G01 X-29.6882 Y6.0489 
G01 X-29.4907 Y6.1629 
G01 X-29.4389 Y6.1844 
G01 X-29.4389 Y7.1354 
G01 X-32.5787 Y10.2752 
G01 X-32.6398 Y10.2499 
G01 X-32.8600 Y10.1909 
G01 X-33.0860 Y10.1611 
G01 X-33.3140 Y10.1611 
G01 X-33.5400 Y10.1909 
G01 X-33.7602 Y10.2499 
G01 X-33.9707 Y10.3371 
G01 X-34.1682 Y10.4511 
G01 X-34.3490 Y10.5898 
G01 X-34.5102 Y10.7510 
G01 X-34.6489 Y10.9318 
G01 X-34.7629 Y11.1293 
G01 X-34.8501 Y11.3398 
G01 X-34.9091 Y11.5600 
G01 X-34.9389 Y11.7860 
G01 X-34.9389 Y12.0140 
G01 X-34.9091 Y12.2400 
G01 X-34.8501 Y12.4602 
G01 X-34.7629 Y12.6707 
G01 X-34.6489 Y12.8682 
G01 X-34.5102 Y13.0490 
G01 X-34.3490 Y13.2102 
G01 X-34.1682 Y13.3489 
G01 X-33.9707 Y13.4629 
G01 X-33.7602 Y13.5501 
G01 X-33.5400 Y13.6091 
G01 X-33.3140 Y13.6389 
G01 X-33.0860 Y13.6389 
G01 X-32.8600 Y13.6091 
G01 X-32.6398 Y13.5501 
G01 X-32.4293 Y13.4629 
G01 X-32.2318 Y13.3489 
G01 X-32.0510 Y13.2102 
G01 X-31.8898 Y13.0490 
G01 X-31.7511 Y12.8682 
G01 X-31.6371 Y12.6707 
G01 X-31.5498 Y12.4602 
G01 X-31.4909 Y12.2400 
G01 X-31.4611 Y12.0140 
G01 X-31.4611 Y11.7860 
G01 X-31.4909 Y11.5600 
G01 X-31.5498 Y11.3398 
G01 X-31.6338 Y11.1373 
G01 X-28.7233 Y8.2269 
G01 X-28.6629 Y8.2389 
G01 X-19.0389 Y8.2389 
G01 X-19.0389 Y10.0629 
G01 X-19.0143 Y10.1864 
G01 X-18.9662 Y10.3026 
G01 X-18.8963 Y10.4073 
G01 X-18.0955 Y11.2080 
G01 X-18.1501 Y11.3398 
G01 X-18.2091 Y11.5600 
G01 X-18.2389 Y11.7860 
G01 X-18.2389 Y12.0140 
G01 X-18.2091 Y12.2400 
G01 X-18.1501 Y12.4602 
G01 X-18.0629 Y12.6707 
G01 X-17.9489 Y12.8682 
G01 X-17.8102 Y13.0490 
G01 X-17.6490 Y13.2102 
G01 X-17.4682 Y13.3489 
G01 X-17.2707 Y13.4629 
G01 X-17.0602 Y13.5501 
G01 X-16.8400 Y13.6091 
G01 X-16.6140 Y13.6389 
G01 X-16.3860 Y13.6389 
G01 X-16.1600 Y13.6091 
G01 X-15.9398 Y13.5501 
G01 X-15.7293 Y13.4629 
G01 X-15.5318 Y13.3489 
G01 X-15.3510 Y13.2102 
G01 X-15.1898 Y13.0490 
G01 X-15.0511 Y12.8682 
G01 X-14.9371 Y12.6707 
G01 X-14.8498 Y12.4602 
G01 X-14.7909 Y12.2400 
G01 X-14.7611 Y12.0140 
G01 X-14.7611 Y11.7860 
G01 X-14.7909 Y11.5600 
G01 X-14.8498 Y11.3398 
G01 X-14.9371 Y11.1293 
G01 X-15.0511 Y10.9318 
G01 X-15.1898 Y10.7510 
G01 X-15.3510 Y10.5898 
G01 X-15.5318 Y10.4511 
G01 X-15.7293 Y10.3371 
G01 X-15.9398 Y10.2499 
G01 X-16.1600 Y10.1909 
G01 X-16.3860 Y10.1611 
G01 X-16.6140 Y10.1611 
G01 X-16.8400 Y10.1909 
G01 X-17.0602 Y10.2499 
G01 X-17.1920 Y10.3045 
G01 X-17.7611 Y9.7354 
G01 X-17.7611 Y6.1761 
G01 X-17.7293 Y6.1629 
G01 X-17.5318 Y6.0489 
G01 X-17.3510 Y5.9102 
G01 X-17.1898 Y5.7490 
G01 X-17.0511 Y5.5682 
G01 X-16.9371 Y5.3707 
G01 X-16.8498 Y5.1601 
G01 X-16.7909 Y4.9400 
G01 X-16.7611 Y4.7140 
G01 X-16.7611 Y4.4860 
G01 X-16.7909 Y4.2600 
G01 X-16.8498 Y4.0398 
G01 X-16.9371 Y3.8293 
G01 X-17.0511 Y3.6318 
G01 X-17.1898 Y3.4510 
G00 Z2.0000 
G00 X-19.8898 Y10.7510 
G01 Z-0.3000 F100.00 
G01 X-20.0510 Y10.5898 F300.00 
G01 X-20.2318 Y10.4511 
G01 X-20.4293 Y10.3371 
G01 X-20.6398 Y10.2499 
G01 X-20.8600 Y10.1909 
G01 X-21.0860 Y10.1611 
G01 X-21.3140 Y10.1611 
G01 X-21.5400 Y10.1909 
G01 X-21.7601 Y10.2499 
G01 X-21.9707 Y10.3371 
G01 X-22.1682 Y10.4511 
G01 X-22.3490 Y10.5898 
G01 X-22.5102 Y10.7510 
G01 X-22.6489 Y10.9318 
G01 X-22.7629 Y11.1293 
G01 X-22.8501 Y11.3398 
G01 X-22.9091 Y11.5600 
G01 X-22.9389 Y11.7860 
G01 X-22.9389 Y12.0140 
G01 X-22.9091 Y12.2400 
G01 X-22.8501 Y12.4602 
G01 X-22.7629 Y12.6707 
G01 X-22.6489 Y12.8682 
G01 X-22.5102 Y13.0490 
G01 X-22.3490 Y13.2102 
G01 X-22.1682 Y13.3489 
G01 X-21.9707 Y13.4629 
G01 X-21.7601 Y13.5501 
G01 X-21.5400 Y13.6091 
G01 X-21.3140 Y13.6389 
G01 X-21.0860 Y13.6389 
G01 X-20.8600 Y13.6091 
G01 X-20.6398 Y13.5501 
G01 X-20.4293 Y13.4629 
G01 X-20.2318 Y13.3489 
G01 X-20.0510 Y13.2102 
G01 X-19.8898 Y13.0490 
G01 X-19.7511 Y12.8682 
G01 X-19.6371 Y12.6707 
G01 X-19.5498 Y12.4602 
G01 X-19.4909 Y12.2400 
G01 X-19.4611 Y12.0140 
G01 X-19.4611 Y11.7860 
G01 X-19.4909 Y11.5600 
G01 X-19.5498 Y11.3398 
G01 X-19.6371 Y11.1293 
G01 X-19.7511 Y10.9318 
G01 X-19.8898 Y10.7510 
G00 Z2.0000 
G00 X-19.8898 Y22.7510 
G01 Z-0.3000 F100.00 
G01 X-20.0510 Y22.5898 F300.00 
G01 X-20.2318 Y22.4511 
G01 X-20.4293 Y22.3371 
G01 X-20.6398 Y22.2498 
G01 X-20.8600 Y22.1909 
G01 X-21.0860 Y22.1611 
G01 X-21.3140 Y22.1611 
G01 X-21.5400 Y22.1909 
G01 X-21.7601 Y22.2498 
G01 X-21.9707 Y22.3371 
G01 X-22.1682 Y22.4511 
G01 X-22.3490 Y22.5898 
G01 X-22.5102 Y22.7510 
G01 X-22.6489 Y22.9318 
G01 X-22.7629 Y23.1293 
G01 X-22.8501 Y23.3398 
G01 X-22.9091 Y23.5600 
G01 X-22.9389 Y23.7860 
G01 X-22.9389 Y24.0140 
G01 X-22.9091 Y24.2400 
G01 X-22.8989 Y24.2782 
G01 X-26.5818 Y27.9611 
G01 X-28.8578 Y27.9611 
G01 X-28.9694 Y27.9910 
G01 X-29.0695 Y28.0488 
G01 X-30.3512 Y29.3305 
G01 X-30.4090 Y29.4306 
G01 X-30.4389 Y29.5422 
G01 X-30.4389 Y32.5611 
G01 X-31.0542 Y32.5611 
G01 X-31.0599 Y32.5398 
G01 X-31.1471 Y32.3293 
G01 X-31.2611 Y32.1318 
G01 X-31.3998 Y31.9510 
G01 X-31.5610 Y31.7898 
G01 X-31.7418 Y31.6511 
G01 X-31.9393 Y31.5371 
G01 X-32.1498 Y31.4499 
G01 X-32.3700 Y31.3909 
G01 X-32.5960 Y31.3611 
G01 X-32.8240 Y31.3611 
G01 X-33.0500 Y31.3909 
G01 X-33.2702 Y31.4499 
G01 X-33.4807 Y31.5371 
G01 X-33.5651 Y31.5858 
G01 X-32.8488 Y30.8695 
G01 X-32.7910 Y30.7694 
G01 X-32.7611 Y30.6578 
G01 X-32.7611 Y25.5826 
G01 X-32.6398 Y25.5501 
G01 X-32.4293 Y25.4629 
G01 X-32.2318 Y25.3489 
G01 X-32.0510 Y25.2102 
G01 X-31.8898 Y25.0490 
G01 X-31.7511 Y24.8682 
G01 X-31.6371 Y24.6707 
G01 X-31.5498 Y24.4601 
G01 X-31.4909 Y24.2400 
G01 X-31.4611 Y24.0140 
G01 X-31.4611 Y23.7860 
G01 X-31.4909 Y23.5600 
G01 X-31.5498 Y23.3398 
G01 X-31.6371 Y23.1293 
G01 X-31.7511 Y22.9318 
G01 X-31.8898 Y22.7510 
G01 X-32.0510 Y22.5898 
G01 X-32.2318 Y22.4511 
G01 X-32.4293 Y22.3371 
G01 X-32.6398 Y22.2498 
G01 X-32.8600 Y22.1909 
G01 X-33.0860 Y22.1611 
G01 X-33.3140 Y22.1611 
G01 X-33.5400 Y22.1909 
G01 X-33.7602 Y22.2498 
G01 X-33.9707 Y22.3371 
G01 X-34.1682 Y22.4511 
G01 X-34.3490 Y22.5898 
G01 X-34.5102 Y22.7510 
G01 X-34.6489 Y22.9318 
G01 X-34.7629 Y23.1293 
G01 X-34.8501 Y23.3398 
G01 X-34.9091 Y23.5600 
G01 X-34.9389 Y23.7860 
G01 X-34.9389 Y24.0140 
G01 X-34.9091 Y24.2400 
G01 X-34.8501 Y24.4601 
G01 X-34.7629 Y24.6707 
G01 X-34.6489 Y24.8682 
G01 X-34.5102 Y25.0490 
G01 X-34.3490 Y25.2102 
G01 X-34.1682 Y25.3489 
G01 X-33.9707 Y25.4629 
G01 X-33.7602 Y25.5501 
G01 X-33.6389 Y25.5826 
G01 X-33.6389 Y30.4182 
G01 X-35.2695 Y32.0488 
G01 X-35.3512 Y32.1305 
G01 X-35.4090 Y32.2306 
G01 X-35.4389 Y32.3422 
G01 X-35.4389 Y48.6578 
G01 X-35.4090 Y48.7694 
G01 X-35.3512 Y48.8695 
G01 X-33.4699 Y50.7508 
G01 X-33.5481 Y50.9044 
G01 X-33.6084 Y51.0899 
G01 X-33.6389 Y51.2825 
G01 X-33.6389 Y53.4775 
G01 X-33.6084 Y53.6701 
G01 X-33.5481 Y53.8556 
G01 X-33.4596 Y54.0293 
G01 X-33.3450 Y54.1871 
G01 X-33.2071 Y54.3250 
G01 X-33.0493 Y54.4396 
G01 X-32.8756 Y54.5281 
G01 X-32.6901 Y54.5884 
G01 X-32.4975 Y54.6189 
G01 X-32.3025 Y54.6189 
G01 X-32.2389 Y54.6088 
G01 X-32.2389 Y56.8711 
G01 X-34.0675 Y56.8711 
G01 X-34.2601 Y56.9016 
G01 X-34.4456 Y56.9619 
G01 X-34.6193 Y57.0504 
G01 X-34.7771 Y57.1650 
G01 X-34.9150 Y57.3029 
G01 X-35.0296 Y57.4607 
G01 X-35.1181 Y57.6344 
G01 X-35.1784 Y57.8199 
G01 X-35.2089 Y58.0125 
G01 X-35.2089 Y58.2075 
G01 X-35.1784 Y58.4001 
G01 X-35.1181 Y58.5856 
G01 X-35.0296 Y58.7593 
G01 X-34.9150 Y58.9171 
G01 X-34.7771 Y59.0550 
G01 X-34.6193 Y59.1696 
G01 X-34.4456 Y59.2581 
G01 X-34.2601 Y59.3184 
G01 X-34.0675 Y59.3489 
G01 X-31.8725 Y59.3489 
G01 X-31.6799 Y59.3184 
G01 X-31.4944 Y59.2581 
G01 X-31.4071 Y59.2136 
G01 X-30.2695 Y60.3512 
G01 X-30.1694 Y60.4090 
G01 X-30.0578 Y60.4389 
G01 X-20.7422 Y60.4389 
G01 X-20.6306 Y60.4090 
G01 X-20.5305 Y60.3512 
G01 X-20.4488 Y60.2695 
G01 X-16.8182 Y56.6389 
G01 X-15.5818 Y56.6389 
G01 X-15.1875 Y57.0332 
G01 X-15.2429 Y57.1293 
G01 X-15.3301 Y57.3398 
G01 X-15.3891 Y57.5600 
G01 X-15.4189 Y57.7860 
G01 X-15.4189 Y58.0140 
G01 X-15.3891 Y58.2400 
G01 X-15.3301 Y58.4601 
G01 X-15.2429 Y58.6707 
G01 X-15.1289 Y58.8682 
G01 X-14.9902 Y59.0490 
G01 X-14.8290 Y59.2102 
G01 X-14.6482 Y59.3489 
G01 X-14.4507 Y59.4629 
G01 X-14.2401 Y59.5501 
G01 X-14.0200 Y59.6091 
G01 X-13.7940 Y59.6389 
G01 X-13.5660 Y59.6389 
G01 X-13.3400 Y59.6091 
G01 X-13.1198 Y59.5501 
G01 X-12.9093 Y59.4629 
G01 X-12.7118 Y59.3489 
G01 X-12.5310 Y59.2102 
G01 X-12.3698 Y59.0490 
G01 X-12.2311 Y58.8682 
G01 X-12.1171 Y58.6707 
G01 X-12.0298 Y58.4601 
G01 X-11.9709 Y58.2400 
G01 X-10.7422 Y58.2389 
G01 X-10.6306 Y58.2090 
G01 X-10.5305 Y58.1512 
G01 X-10.4488 Y58.0695 
G01 X-7.3782 Y54.9989 
G01 X-7.2025 Y54.9989 
G01 X-7.0099 Y54.9684 
G01 X-6.8244 Y54.9081 
G01 X-6.6507 Y54.8196 
G01 X-6.4929 Y54.7050 
G01 X-6.3550 Y54.5671 
G01 X-6.2404 Y54.4093 
G01 X-6.1519 Y54.2356 
G01 X-6.0916 Y54.0501 
G01 X-6.0611 Y53.8575 
G01 X-6.0611 Y51.8389 
G01 X-5.9489 Y51.8389 
G01 X-5.9489 Y53.4775 
G01 X-5.9184 Y53.6701 
G01 X-5.8581 Y53.8556 
G01 X-5.7696 Y54.0293 
G01 X-5.6550 Y54.1871 
G01 X-5.5171 Y54.3250 
G01 X-5.3593 Y54.4396 
G01 X-5.1856 Y54.5281 
G01 X-5.0001 Y54.5884 
G01 X-4.8075 Y54.6189 
G01 X-4.6125 Y54.6189 
G01 X-4.4199 Y54.5884 
G01 X-4.2344 Y54.5281 
G01 X-4.0607 Y54.4396 
G01 X-3.9029 Y54.3250 
G01 X-3.7650 Y54.1871 
G01 X-3.6504 Y54.0293 
G01 X-3.5619 Y53.8556 
G01 X-3.5016 Y53.6701 
G01 X-3.4711 Y53.4775 
G01 X-3.4711 Y51.2825 
G01 X-3.5016 Y51.0899 
G01 X-3.5619 Y50.9044 
G01 X-3.6030 Y50.8237 
G01 X-2.0488 Y49.2695 
G01 X-1.9910 Y49.1694 
G01 X-1.9611 Y49.0578 
G01 X-1.9611 Y22.9422 
G01 X-1.9910 Y22.8306 
G01 X-2.0488 Y22.7305 
G01 X-2.1305 Y22.6488 
G01 X-3.3305 Y21.4488 
G01 X-3.4306 Y21.3910 
G01 X-3.5422 Y21.3611 
G01 X-5.4578 Y21.3611 
G01 X-5.5694 Y21.3910 
G01 X-5.6695 Y21.4488 
G01 X-5.7512 Y21.5305 
G01 X-6.9512 Y22.7305 
G01 X-7.0090 Y22.8306 
G01 X-7.0389 Y22.9422 
G01 X-7.0389 Y25.2182 
G01 X-9.3818 Y27.5611 
G01 X-16.1611 Y27.5611 
G01 X-16.1611 Y25.6093 
G01 X-15.9398 Y25.5501 
G01 X-15.7293 Y25.4629 
G01 X-15.5318 Y25.3489 
G01 X-15.3510 Y25.2102 
G01 X-15.1898 Y25.0490 
G01 X-15.0511 Y24.8682 
G01 X-14.9371 Y24.6707 
G01 X-14.8498 Y24.4601 
G01 X-14.7909 Y24.2400 
G01 X-14.7611 Y24.0140 
G01 X-14.7611 Y23.7860 
G01 X-14.7909 Y23.5600 
G01 X-14.8498 Y23.3398 
G01 X-14.9371 Y23.1293 
G01 X-15.0511 Y22.9318 
G01 X-15.1898 Y22.7510 
G01 X-15.3510 Y22.5898 
G01 X-15.5318 Y22.4511 
G01 X-15.7293 Y22.3371 
G01 X-15.9398 Y22.2498 
G01 X-16.1600 Y22.1909 
G01 X-16.3860 Y22.1611 
G01 X-16.6140 Y22.1611 
G01 X-16.8400 Y22.1909 
G01 X-17.0602 Y22.2498 
G01 X-17.2707 Y22.3371 
G01 X-17.4682 Y22.4511 
G01 X-17.6490 Y22.5898 
G01 X-17.8102 Y22.7510 
G01 X-17.9489 Y22.9318 
G01 X-18.0629 Y23.1293 
G01 X-18.1501 Y23.3398 
G01 X-18.2091 Y23.5600 
G01 X-18.2389 Y23.7860 
G01 X-18.2389 Y24.0140 
G01 X-18.2091 Y24.2400 
G01 X-18.1501 Y24.4601 
G01 X-18.0629 Y24.6707 
G01 X-17.9489 Y24.8682 
G01 X-17.8102 Y25.0490 
G01 X-17.6490 Y25.2102 
G01 X-17.4682 Y25.3489 
G01 X-17.2707 Y25.4629 
G01 X-17.0602 Y25.5501 
G01 X-17.0389 Y25.5558 
G01 X-17.0389 Y29.0066 
G01 X-17.1593 Y28.9371 
G01 X-17.3698 Y28.8498 
G01 X-17.5900 Y28.7909 
G01 X-17.8160 Y28.7611 
G01 X-18.0440 Y28.7611 
G01 X-18.2700 Y28.7909 
G01 X-18.4901 Y28.8498 
G01 X-18.7007 Y28.9371 
G01 X-18.8600 Y29.0290 
G01 X-19.0193 Y28.9371 
G01 X-19.2298 Y28.8498 
G01 X-19.4500 Y28.7909 
G01 X-19.6760 Y28.7611 
G01 X-19.9040 Y28.7611 
G01 X-20.1300 Y28.7909 
G01 X-20.3501 Y28.8498 
G01 X-20.5607 Y28.9371 
G01 X-20.7582 Y29.0511 
G01 X-20.9390 Y29.1898 
G01 X-21.1002 Y29.3510 
G01 X-21.2389 Y29.5318 
G01 X-21.3529 Y29.7293 
G01 X-21.4401 Y29.9398 
G01 X-21.4991 Y30.1600 
G01 X-21.5289 Y30.3860 
G01 X-21.5289 Y30.6140 
G01 X-21.4991 Y30.8400 
G01 X-21.4401 Y31.0602 
G01 X-21.3529 Y31.2707 
G01 X-21.2389 Y31.4682 
G01 X-21.1002 Y31.6490 
G01 X-20.9390 Y31.8102 
G01 X-20.7582 Y31.9489 
G01 X-20.5607 Y32.0629 
G01 X-20.3501 Y32.1501 
G01 X-20.1300 Y32.2091 
G01 X-20.0389 Y32.2211 
G01 X-20.0389 Y33.1013 
G01 X-20.1042 Y33.1099 
G01 X-20.3244 Y33.1689 
G01 X-20.5350 Y33.2561 
G01 X-20.7324 Y33.3701 
G01 X-20.9132 Y33.5088 
G01 X-21.0581 Y33.6538 
G01 X-21.0009 Y33.4400 
G01 X-20.9711 Y33.2140 
G01 X-20.9711 Y32.9860 
G01 X-21.0009 Y32.7600 
G01 X-21.0599 Y32.5398 
G01 X-21.1471 Y32.3293 
G01 X-21.2611 Y32.1318 
G01 X-21.3998 Y31.9510 
G01 X-21.5610 Y31.7898 
G01 X-21.7418 Y31.6511 
G01 X-21.9393 Y31.5371 
G01 X-22.1498 Y31.4499 
G01 X-22.3700 Y31.3909 
G01 X-22.5960 Y31.3611 
G01 X-22.8240 Y31.3611 
G01 X-23.0500 Y31.3909 
G01 X-23.2702 Y31.4499 
G01 X-23.4807 Y31.5371 
G01 X-23.6782 Y31.6511 
G01 X-23.8590 Y31.7898 
G01 X-24.0202 Y31.9510 
G01 X-24.1589 Y32.1318 
G01 X-24.2729 Y32.3293 
G01 X-24.3601 Y32.5398 
G01 X-24.3658 Y32.5611 
G01 X-25.0182 Y32.5611 
G01 X-26.2569 Y31.3224 
G01 X-26.2271 Y31.2707 
G01 X-26.1398 Y31.0602 
G01 X-26.0809 Y30.8400 
G01 X-26.0511 Y30.6140 
G01 X-26.0511 Y30.3860 
G01 X-26.0809 Y30.1600 
G01 X-26.1398 Y29.9398 
G01 X-26.2271 Y29.7293 
G01 X-26.3411 Y29.5318 
G01 X-26.4798 Y29.3510 
G01 X-26.6410 Y29.1898 
G01 X-26.8218 Y29.0511 
G01 X-27.0193 Y28.9371 
G01 X-27.2298 Y28.8498 
G01 X-27.2707 Y28.8389 
G01 X-26.3422 Y28.8389 
G01 X-26.2306 Y28.8090 
G01 X-26.1305 Y28.7512 
G01 X-26.0488 Y28.6695 
G01 X-22.4692 Y25.0899 
G01 X-22.3490 Y25.2102 
G01 X-22.1682 Y25.3489 
G01 X-21.9707 Y25.4629 
G01 X-21.7601 Y25.5501 
G01 X-21.5400 Y25.6091 
G01 X-21.3140 Y25.6389 
G01 X-21.0860 Y25.6389 
G01 X-20.8600 Y25.6091 
G01 X-20.6398 Y25.5501 
G01 X-20.4293 Y25.4629 
G01 X-20.2318 Y25.3489 
G01 X-20.0510 Y25.2102 
G01 X-19.8898 Y25.0490 
G01 X-19.7511 Y24.8682 
G01 X-19.6371 Y24.6707 
G01 X-19.5498 Y24.4601 
G01 X-19.4909 Y24.2400 
G01 X-19.4611 Y24.0140 
G01 X-19.4611 Y23.7860 
G01 X-19.4909 Y23.5600 
G01 X-19.5498 Y23.3398 
G01 X-19.6371 Y23.1293 
G01 X-19.7511 Y22.9318 
G01 X-19.8898 Y22.7510 
G00 Z2.0000 
G00 X-16.1611 Y28.4389 
G01 Z-0.3000 F100.00 
G01 X-9.1422 Y28.4389 F300.00 
G01 X-9.0306 Y28.4090 
G01 X-8.9305 Y28.3512 
G01 X-6.3305 Y25.7512 
G01 X-6.2488 Y25.6695 
G01 X-6.1910 Y25.5694 
G01 X-6.1611 Y25.4578 
G01 X-6.1611 Y24.4193 
G01 X-6.1501 Y24.4601 
G01 X-6.0629 Y24.6707 
G01 X-5.9489 Y24.8682 
G01 X-5.8102 Y25.0490 
G01 X-5.6490 Y25.2102 
G01 X-5.4682 Y25.3489 
G01 X-5.2707 Y25.4629 
G01 X-5.0602 Y25.5501 
G01 X-5.0389 Y25.5558 
G01 X-5.0389 Y31.3854 
G01 X-5.0800 Y31.3909 
G01 X-5.3002 Y31.4499 
G01 X-5.5107 Y31.5371 
G01 X-5.7082 Y31.6511 
G01 X-5.8890 Y31.7898 
G01 X-6.0502 Y31.9510 
G01 X-6.1889 Y32.1318 
G01 X-6.3029 Y32.3293 
G01 X-6.3901 Y32.5398 
G01 X-6.4491 Y32.7600 
G01 X-6.4789 Y32.9860 
G01 X-6.4789 Y33.2140 
G01 X-6.4491 Y33.4400 
G01 X-6.3901 Y33.6602 
G01 X-6.3029 Y33.8707 
G01 X-6.1889 Y34.0682 
G01 X-6.1667 Y34.0972 
G01 X-6.2429 Y34.2293 
G01 X-6.3301 Y34.4398 
G01 X-6.3891 Y34.6600 
G01 X-6.4189 Y34.8860 
G01 X-6.4189 Y35.1140 
G01 X-6.3891 Y35.3400 
G01 X-6.3835 Y35.3611 
G01 X-6.4536 Y35.3611 
G01 X-6.4902 Y35.2485 
G01 X-6.5966 Y35.0396 
G01 X-6.7343 Y34.8500 
G01 X-6.9000 Y34.6843 
G01 X-7.0896 Y34.5466 
G01 X-7.2985 Y34.4402 
G01 X-7.5213 Y34.3678 
G01 X-7.7528 Y34.3311 
G01 X-7.9872 Y34.3311 
G01 X-8.2187 Y34.3678 
G01 X-8.4415 Y34.4402 
G01 X-8.6504 Y34.5466 
G01 X-8.8399 Y34.6843 
G01 X-9.0057 Y34.8500 
G01 X-9.1434 Y35.0396 
G01 X-9.2498 Y35.2485 
G01 X-9.3222 Y35.4713 
G01 X-9.3589 Y35.7028 
G01 X-9.3589 Y35.9372 
G01 X-9.3222 Y36.1686 
G01 X-9.2498 Y36.3915 
G01 X-9.1434 Y36.6004 
G01 X-9.0057 Y36.7899 
G01 X-8.8399 Y36.9557 
G01 X-8.6504 Y37.0934 
G01 X-8.4415 Y37.1998 
G01 X-8.2187 Y37.2722 
G01 X-7.9872 Y37.3089 
G01 X-7.7528 Y37.3089 
G01 X-7.5213 Y37.2722 
G01 X-7.2985 Y37.1998 
G01 X-7.0896 Y37.0934 
G01 X-6.9000 Y36.9557 
G01 X-6.7343 Y36.7899 
G01 X-6.5966 Y36.6004 
G01 X-6.4902 Y36.3915 
G01 X-6.4406 Y36.2389 
G01 X-5.9003 Y36.2389 
G01 X-5.8290 Y36.3102 
G01 X-5.6482 Y36.4489 
G01 X-5.4507 Y36.5629 
G01 X-5.2401 Y36.6501 
G01 X-5.0200 Y36.7091 
G01 X-4.7940 Y36.7389 
G01 X-4.5660 Y36.7389 
G01 X-4.3400 Y36.7091 
G01 X-4.1198 Y36.6501 
G01 X-3.9093 Y36.5629 
G01 X-3.7118 Y36.4489 
G01 X-3.5310 Y36.3102 
G01 X-3.3698 Y36.1490 
G01 X-3.2311 Y35.9682 
G01 X-3.1171 Y35.7707 
G01 X-3.0299 Y35.5602 
G01 X-2.9709 Y35.3400 
G01 X-2.9411 Y35.1140 
G01 X-2.9411 Y34.8860 
G01 X-2.9709 Y34.6600 
G01 X-3.0299 Y34.4398 
G01 X-3.1171 Y34.2293 
G01 X-3.2311 Y34.0318 
G01 X-3.2533 Y34.0028 
G01 X-3.1771 Y33.8707 
G01 X-3.0899 Y33.6602 
G01 X-3.0309 Y33.4400 
G01 X-3.0011 Y33.2140 
G01 X-3.0011 Y32.9860 
G01 X-3.0309 Y32.7600 
G01 X-3.0899 Y32.5398 
G01 X-3.1771 Y32.3293 
G01 X-3.2911 Y32.1318 
G01 X-3.4298 Y31.9510 
G01 X-3.5910 Y31.7898 
G01 X-3.7718 Y31.6511 
G01 X-3.9693 Y31.5371 
G01 X-4.1611 Y31.4576 
G01 X-4.1611 Y25.6093 
G01 X-3.9398 Y25.5501 
G01 X-3.7293 Y25.4629 
G01 X-3.5318 Y25.3489 
G01 X-3.3510 Y25.2102 
G01 X-3.1898 Y25.0490 
G01 X-3.0511 Y24.8682 
G01 X-2.9371 Y24.6707 
G01 X-2.8498 Y24.4601 
G01 X-2.8389 Y24.4193 
G01 X-2.8389 Y48.8182 
G01 X-4.2481 Y50.2274 
G01 X-4.4199 Y50.1716 
G01 X-4.6125 Y50.1411 
G01 X-4.8075 Y50.1411 
G01 X-5.0001 Y50.1716 
G01 X-5.1856 Y50.2319 
G01 X-5.3593 Y50.3204 
G01 X-5.5171 Y50.4350 
G01 X-5.6550 Y50.5729 
G01 X-5.7696 Y50.7307 
G01 X-5.8581 Y50.9044 
G01 X-5.8765 Y50.9611 
G01 X-6.3491 Y50.9611 
G01 X-6.3550 Y50.9529 
G01 X-6.4929 Y50.8150 
G01 X-6.6507 Y50.7004 
G01 X-6.8244 Y50.6119 
G01 X-7.0099 Y50.5516 
G01 X-7.2025 Y50.5211 
G01 X-7.3975 Y50.5211 
G01 X-7.5901 Y50.5516 
G01 X-7.7756 Y50.6119 
G01 X-7.9493 Y50.7004 
G01 X-8.1071 Y50.8150 
G01 X-8.2450 Y50.9529 
G01 X-8.3596 Y51.1107 
G01 X-8.4481 Y51.2844 
G01 X-8.5084 Y51.4699 
G01 X-8.5108 Y51.4854 
G01 X-8.5498 Y51.3398 
G01 X-8.6371 Y51.1293 
G01 X-8.7511 Y50.9318 
G01 X-8.8898 Y50.7510 
G01 X-9.0510 Y50.5898 
G01 X-9.2318 Y50.4511 
G01 X-9.4293 Y50.3371 
G01 X-9.6398 Y50.2499 
G01 X-9.8600 Y50.1909 
G01 X-10.0860 Y50.1611 
G01 X-10.3140 Y50.1611 
G01 X-10.5400 Y50.1909 
G01 X-10.7359 Y50.2434 
G01 X-15.3475 Y45.6318 
G01 X-15.3013 Y45.5517 
G01 X-15.2141 Y45.3411 
G01 X-15.1551 Y45.1209 
G01 X-15.1253 Y44.8949 
G01 X-15.1253 Y44.6670 
G01 X-15.1551 Y44.4410 
G01 X-15.2141 Y44.2208 
G01 X-15.3013 Y44.0102 
G01 X-15.4153 Y43.8128 
G01 X-15.5540 Y43.6320 
G01 X-15.7152 Y43.4708 
G01 X-15.8961 Y43.3320 
G01 X-16.0935 Y43.2181 
G01 X-16.3041 Y43.1308 
G01 X-16.5242 Y43.0718 
G01 X-16.7502 Y43.0421 
G01 X-16.9782 Y43.0421 
G01 X-17.2042 Y43.0718 
G01 X-17.4244 Y43.1308 
G01 X-17.6350 Y43.2181 
G01 X-17.8324 Y43.3320 
G01 X-18.0132 Y43.4708 
G01 X-18.1744 Y43.6320 
G01 X-18.3132 Y43.8128 
G01 X-18.4271 Y44.0102 
G01 X-18.5144 Y44.2208 
G01 X-18.5734 Y44.4410 
G01 X-18.6031 Y44.6670 
G01 X-18.6031 Y44.8949 
G01 X-18.5734 Y45.1209 
G01 X-18.5144 Y45.3411 
G01 X-18.4271 Y45.5517 
G01 X-18.4071 Y45.5864 
G01 X-18.5512 Y45.7305 
G01 X-18.6090 Y45.8306 
G01 X-18.6389 Y45.9422 
G01 X-18.6389 Y47.2602 
G01 X-18.7056 Y47.2819 
G01 X-18.8793 Y47.3704 
G01 X-19.0371 Y47.4850 
G01 X-19.1750 Y47.6229 
G01 X-19.2896 Y47.7807 
G01 X-19.3781 Y47.9544 
G01 X-19.4384 Y48.1399 
G01 X-19.4689 Y48.3325 
G01 X-19.4689 Y50.5275 
G01 X-19.4384 Y50.7201 
G01 X-19.3781 Y50.9056 
G01 X-19.2896 Y51.0793 
G01 X-19.1750 Y51.2371 
G01 X-19.0371 Y51.3750 
G01 X-18.8793 Y51.4896 
G01 X-18.7056 Y51.5781 
G01 X-18.5201 Y51.6384 
G01 X-18.3275 Y51.6689 
G01 X-18.1325 Y51.6689 
G01 X-17.9399 Y51.6384 
G01 X-17.7544 Y51.5781 
G01 X-17.5807 Y51.4896 
G01 X-17.4229 Y51.3750 
G01 X-17.2850 Y51.2371 
G01 X-17.1704 Y51.0793 
G01 X-17.0819 Y50.9056 
G01 X-17.0216 Y50.7201 
G01 X-16.9911 Y50.5275 
G01 X-16.9911 Y48.3325 
G01 X-17.0216 Y48.1399 
G01 X-17.0819 Y47.9544 
G01 X-17.1704 Y47.7807 
G01 X-17.2850 Y47.6229 
G01 X-17.4229 Y47.4850 
G01 X-17.5807 Y47.3704 
G01 X-17.7544 Y47.2819 
G01 X-17.7611 Y47.2797 
G01 X-17.7611 Y46.2711 
G01 X-17.6350 Y46.3439 
G01 X-17.4244 Y46.4311 
G01 X-17.2042 Y46.4901 
G01 X-16.9782 Y46.5199 
G01 X-16.7502 Y46.5199 
G01 X-16.5242 Y46.4901 
G01 X-16.3041 Y46.4311 
G01 X-16.0935 Y46.3439 
G01 X-15.9561 Y46.2646 
G01 X-11.4899 Y50.7308 
G01 X-11.5102 Y50.7510 
G01 X-11.6489 Y50.9318 
G01 X-11.7629 Y51.1293 
G01 X-11.8501 Y51.3398 
G01 X-11.9091 Y51.5600 
G01 X-11.9389 Y51.7860 
G01 X-11.9389 Y52.0140 
G01 X-11.9091 Y52.2400 
G01 X-11.8501 Y52.4601 
G01 X-11.7629 Y52.6707 
G01 X-11.6489 Y52.8682 
G01 X-11.5102 Y53.0490 
G01 X-11.3490 Y53.2102 
G01 X-11.1682 Y53.3489 
G01 X-10.9707 Y53.4629 
G01 X-10.7601 Y53.5501 
G01 X-10.5400 Y53.6091 
G01 X-10.3140 Y53.6389 
G01 X-10.0860 Y53.6389 
G01 X-9.8600 Y53.6091 
G01 X-9.6398 Y53.5501 
G01 X-9.4293 Y53.4629 
G01 X-9.2318 Y53.3489 
G01 X-9.0510 Y53.2102 
G01 X-8.8898 Y53.0490 
G01 X-8.7511 Y52.8682 
G01 X-8.6371 Y52.6707 
G01 X-8.5498 Y52.4601 
G01 X-8.5389 Y52.4193 
G01 X-8.5389 Y53.8575 
G01 X-8.5084 Y54.0501 
G01 X-8.4481 Y54.2356 
G01 X-8.3596 Y54.4093 
G01 X-8.2450 Y54.5671 
G01 X-8.2164 Y54.5957 
G01 X-9.4979 Y55.8772 
G01 X-9.4621 Y55.8279 
G01 X-9.3629 Y55.6332 
G01 X-9.2953 Y55.4252 
G01 X-9.2611 Y55.2093 
G01 X-9.2611 Y54.9907 
G01 X-9.2953 Y54.7748 
G01 X-9.3629 Y54.5668 
G01 X-9.4621 Y54.3721 
G01 X-9.5906 Y54.1952 
G01 X-9.7452 Y54.0406 
G01 X-9.9221 Y53.9121 
G01 X-10.1168 Y53.8129 
G01 X-10.3248 Y53.7453 
G01 X-10.5407 Y53.7111 
G01 X-10.7593 Y53.7111 
G01 X-10.9752 Y53.7453 
G01 X-11.1831 Y53.8129 
G01 X-11.3046 Y53.8747 
G01 X-14.4785 Y50.7008 
G01 X-14.4511 Y50.5275 
G01 X-14.4511 Y48.3325 
G01 X-14.4816 Y48.1399 
G01 X-14.5419 Y47.9544 
G01 X-14.6304 Y47.7807 
G01 X-14.7450 Y47.6229 
G01 X-14.8829 Y47.4850 
G01 X-15.0407 Y47.3704 
G01 X-15.2144 Y47.2819 
G01 X-15.3999 Y47.2216 
G01 X-15.5925 Y47.1911 
G01 X-15.7875 Y47.1911 
G01 X-15.9801 Y47.2216 
G01 X-16.1656 Y47.2819 
G01 X-16.3393 Y47.3704 
G01 X-16.4971 Y47.4850 
G01 X-16.6350 Y47.6229 
G01 X-16.7496 Y47.7807 
G01 X-16.8381 Y47.9544 
G01 X-16.8984 Y48.1399 
G01 X-16.9289 Y48.3325 
G01 X-16.9289 Y50.5275 
G01 X-16.8984 Y50.7201 
G01 X-16.8381 Y50.9056 
G01 X-16.7496 Y51.0793 
G01 X-16.6350 Y51.2371 
G01 X-16.4971 Y51.3750 
G01 X-16.3393 Y51.4896 
G01 X-16.1656 Y51.5781 
G01 X-15.9801 Y51.6384 
G01 X-15.7875 Y51.6689 
G01 X-15.5925 Y51.6689 
G01 X-15.3999 Y51.6384 
G01 X-15.2144 Y51.5781 
G01 X-15.0407 Y51.4896 
G01 X-14.9772 Y51.4435 
G01 X-11.9090 Y54.5117 
G01 X-11.9371 Y54.5668 
G01 X-12.0047 Y54.7748 
G01 X-12.0389 Y54.9907 
G01 X-12.0389 Y55.2093 
G01 X-12.0047 Y55.4252 
G01 X-11.9371 Y55.6332 
G01 X-11.8379 Y55.8279 
G01 X-11.7094 Y56.0048 
G01 X-11.5548 Y56.1594 
G01 X-11.3779 Y56.2879 
G01 X-11.1831 Y56.3871 
G01 X-10.9752 Y56.4547 
G01 X-10.7593 Y56.4889 
G01 X-10.5407 Y56.4889 
G01 X-10.3248 Y56.4547 
G01 X-10.1168 Y56.3871 
G01 X-9.9221 Y56.2879 
G01 X-9.8728 Y56.2521 
G01 X-10.9818 Y57.3611 
G01 X-12.0242 Y57.3611 
G01 X-12.0298 Y57.3398 
G01 X-12.1171 Y57.1293 
G01 X-12.2311 Y56.9318 
G01 X-12.3698 Y56.7510 
G01 X-12.5310 Y56.5898 
G01 X-12.7118 Y56.4511 
G01 X-12.9093 Y56.3371 
G01 X-13.1198 Y56.2499 
G01 X-13.3400 Y56.1909 
G01 X-13.5660 Y56.1611 
G01 X-13.7940 Y56.1611 
G01 X-14.0200 Y56.1909 
G01 X-14.2401 Y56.2499 
G01 X-14.4507 Y56.3371 
G01 X-14.5721 Y56.4072 
G01 X-14.9880 Y55.9913 
G01 X-14.8829 Y55.9150 
G01 X-14.7450 Y55.7771 
G01 X-14.6304 Y55.6193 
G01 X-14.5419 Y55.4456 
G01 X-14.4816 Y55.2601 
G01 X-14.4511 Y55.0675 
G01 X-14.4511 Y52.8725 
G01 X-14.4816 Y52.6799 
G01 X-14.5419 Y52.4944 
G01 X-14.6304 Y52.3207 
G01 X-14.7450 Y52.1629 
G01 X-14.8829 Y52.0250 
G01 X-15.0407 Y51.9104 
G01 X-15.2144 Y51.8219 
G01 X-15.3999 Y51.7616 
G01 X-15.5925 Y51.7311 
G01 X-15.7875 Y51.7311 
G01 X-15.9801 Y51.7616 
G01 X-16.1656 Y51.8219 
G01 X-16.3393 Y51.9104 
G01 X-16.4971 Y52.0250 
G01 X-16.6350 Y52.1629 
G01 X-16.7496 Y52.3207 
G01 X-16.8381 Y52.4944 
G01 X-16.8984 Y52.6799 
G01 X-16.9289 Y52.8725 
G01 X-16.9289 Y55.0675 
G01 X-16.8984 Y55.2601 
G01 X-16.8381 Y55.4456 
G01 X-16.7496 Y55.6193 
G01 X-16.6466 Y55.7611 
G01 X-17.0578 Y55.7611 
G01 X-17.1694 Y55.7910 
G01 X-17.2695 Y55.8488 
G01 X-20.9818 Y59.5611 
G01 X-23.1607 Y59.5611 
G01 X-23.1198 Y59.5501 
G01 X-22.9093 Y59.4629 
G01 X-22.7118 Y59.3489 
G01 X-22.5310 Y59.2102 
G01 X-22.3698 Y59.0490 
G01 X-22.2311 Y58.8682 
G01 X-22.1171 Y58.6707 
G01 X-22.0298 Y58.4601 
G01 X-21.9709 Y58.2400 
G01 X-21.9411 Y58.0140 
G01 X-21.9411 Y57.7860 
G01 X-21.9709 Y57.5600 
G01 X-22.0298 Y57.3398 
G01 X-22.1171 Y57.1293 
G01 X-22.1872 Y57.0079 
G01 X-21.2799 Y56.1006 
G01 X-21.2456 Y56.1181 
G01 X-21.0601 Y56.1784 
G01 X-20.8675 Y56.2089 
G01 X-20.6725 Y56.2089 
G01 X-20.4799 Y56.1784 
G01 X-20.2944 Y56.1181 
G01 X-20.1207 Y56.0296 
G01 X-19.9629 Y55.9150 
G01 X-19.8250 Y55.7771 
G01 X-19.7104 Y55.6193 
G01 X-19.6219 Y55.4456 
G01 X-19.5616 Y55.2601 
G01 X-19.5311 Y55.0675 
G01 X-19.5311 Y52.8725 
G01 X-19.5616 Y52.6799 
G01 X-19.6219 Y52.4944 
G01 X-19.7104 Y52.3207 
G01 X-19.8250 Y52.1629 
G01 X-19.9629 Y52.0250 
G01 X-20.1207 Y51.9104 
G01 X-20.2944 Y51.8219 
G01 X-20.4799 Y51.7616 
G01 X-20.6725 Y51.7311 
G01 X-20.8675 Y51.7311 
G01 X-21.0601 Y51.7616 
G01 X-21.2456 Y51.8219 
G01 X-21.4193 Y51.9104 
G01 X-21.5771 Y52.0250 
G01 X-21.7150 Y52.1629 
G01 X-21.8296 Y52.3207 
G01 X-21.9181 Y52.4944 
G01 X-21.9784 Y52.6799 
G01 X-22.0089 Y52.8725 
G01 X-22.0089 Y55.0675 
G01 X-21.9784 Y55.2601 
G01 X-21.9181 Y55.4456 
G01 X-21.9006 Y55.4799 
G01 X-22.8132 Y56.3925 
G01 X-22.9093 Y56.3371 
G01 X-23.1198 Y56.2499 
G01 X-23.2727 Y56.2089 
G01 X-23.2125 Y56.2089 
G01 X-23.0199 Y56.1784 
G01 X-22.8344 Y56.1181 
G01 X-22.6607 Y56.0296 
G01 X-22.5029 Y55.9150 
G01 X-22.3650 Y55.7771 
G01 X-22.2504 Y55.6193 
G01 X-22.1619 Y55.4456 
G01 X-22.1016 Y55.2601 
G01 X-22.0711 Y55.0675 
G01 X-22.0711 Y52.8725 
G01 X-22.1016 Y52.6799 
G01 X-22.1619 Y52.4944 
G01 X-22.2504 Y52.3207 
G01 X-22.3650 Y52.1629 
G01 X-22.5029 Y52.0250 
G01 X-22.6607 Y51.9104 
G01 X-22.8344 Y51.8219 
G01 X-23.0199 Y51.7616 
