(Current profile is .../pcbgcode/profiles/generic.pp  )
(Z Axis Settings)
(  High     Up        Down     Drill)
(10.0000 	2.0000 	-0.3000 	-1.8000 )
(Settings from pcb-defaults.h)
(isolate min = 0.0000)
(isolate max = 0.3000)
(isolate step = 0.1500)
(Generated bottom outlines, bottom drill, )
(Unit of measure: mm)
( Tool|       Size       |  Min Sub |  Max Sub |   Count )
( T01  0.900mm 0.0354in 0.0000in 0.0000in )
( T02  1.200mm 0.0472in 0.0000in 0.0000in )
(Metric Mode)
G21
(Absolute Coordinates)
G90
S20000
G00 Z10.0000 
G00 X0.0000 Y0.0000 
M03
G04 P3.000000
M05
G00 Z30.0000 
M06 T01  ; 0.9000 
G01 Z0.0000 F100.00 
M06 
G00 Z2.0000 
M03
G04 P3.000000
G00 X-4.5000 Y11.9000 
G01 Z-1.8000 F100.00 
G00 Z2.0000 
G00 X-4.5000 Y23.9000 
G01 Z-1.8000 F100.00 
G00 Z2.0000 
G00 X-10.5000 Y25.3000 
G01 Z-1.8000 F100.00 
G00 Z2.0000 
G00 X-9.9300 Y30.5000 
G01 Z-1.8000 F100.00 
G00 Z2.0000 
G00 X-11.7100 Y35.1900 
G01 Z-1.8000 F100.00 
G00 Z2.0000 
G00 X-10.8700 Y37.5200 
G01 Z-1.8000 F100.00 
G00 Z2.0000 
G00 X-7.8700 Y39.2200 
G01 Z-1.8000 F100.00 
G00 Z2.0000 
G00 X-7.8700 Y35.8200 
G01 Z-1.8000 F100.00 
G00 Z2.0000 
G00 X-4.6800 Y35.0000 
G01 Z-1.8000 F100.00 
G00 Z2.0000 
G00 X-4.7400 Y33.1000 
G01 Z-1.8000 F100.00 
G00 Z2.0000 
G00 X-14.7400 Y33.1000 
G01 Z-1.8000 F100.00 
G00 Z2.0000 
G00 X-17.7358 Y34.8190 
G01 Z-1.8000 F100.00 
G00 Z2.0000 
G00 X-19.7642 Y34.8190 
G01 Z-1.8000 F100.00 
G00 Z2.0000 
G00 X-22.7100 Y33.1000 
G01 Z-1.8000 F100.00 
G00 Z2.0000 
G00 X-24.4900 Y35.8200 
G01 Z-1.8000 F100.00 
G00 Z2.0000 
G00 X-27.6800 Y35.1900 
G01 Z-1.8000 F100.00 
G00 Z2.0000 
G00 X-27.4900 Y37.5200 
G01 Z-1.8000 F100.00 
G00 Z2.0000 
G00 X-24.4900 Y39.2200 
G01 Z-1.8000 F100.00 
G00 Z2.0000 
G00 X-21.7234 Y43.2057 
G01 Z-1.8000 F100.00 
G00 Z2.0000 
G00 X-20.6358 Y44.7810 
G01 Z-1.8000 F100.00 
G00 Z2.0000 
G00 X-16.8642 Y44.7810 
G01 Z-1.8000 F100.00 
G00 Z2.0000 
G00 X-11.7100 Y45.1900 
G01 Z-1.8000 F100.00 
G00 Z2.0000 
G00 X-10.2000 Y43.9000 
G01 Z-1.8000 F100.00 
G00 Z2.0000 
G00 X-4.6800 Y45.0000 
G01 Z-1.8000 F100.00 
G00 Z2.0000 
G00 X-4.7100 Y48.8400 
G01 Z-1.8000 F100.00 
G00 Z2.0000 
G00 X-4.7100 Y51.3800 
G01 Z-1.8000 F100.00 
G00 Z2.0000 
G00 X-7.3000 Y51.7600 
G01 Z-1.8000 F100.00 
G00 Z2.0000 
G00 X-7.3000 Y49.2200 
G01 Z-1.8000 F100.00 
G00 Z2.0000 
G00 X-10.2000 Y51.9000 
G01 Z-1.8000 F100.00 
G00 Z2.0000 
G00 X-10.6500 Y55.1000 
G01 Z-1.8000 F100.00 
G00 Z2.0000 
G00 X-13.6800 Y57.9000 
G01 Z-1.8000 F100.00 
G00 Z2.0000 
G00 X-15.6900 Y52.9700 
G01 Z-1.8000 F100.00 
G00 Z2.0000 
G00 X-15.6900 Y50.4300 
G01 Z-1.8000 F100.00 
G00 Z2.0000 
G00 X-18.2300 Y50.4300 
G01 Z-1.8000 F100.00 
G00 Z2.0000 
G00 X-18.2300 Y52.9700 
G01 Z-1.8000 F100.00 
G00 Z2.0000 
G00 X-20.7700 Y52.9700 
G01 Z-1.8000 F100.00 
G00 Z2.0000 
G00 X-23.3100 Y52.9700 
G01 Z-1.8000 F100.00 
G00 Z2.0000 
G00 X-23.3100 Y50.4300 
G01 Z-1.8000 F100.00 
G00 Z2.0000 
G00 X-20.7700 Y50.4300 
G01 Z-1.8000 F100.00 
G00 Z2.0000 
G00 X-28.2766 Y47.7943 
G01 Z-1.8000 F100.00 
G00 Z2.0000 
G00 X-27.6800 Y45.1900 
G01 Z-1.8000 F100.00 
G00 Z2.0000 
G00 X-32.7400 Y45.1900 
G01 Z-1.8000 F100.00 
G00 Z2.0000 
G00 X-32.4000 Y48.8400 
G01 Z-1.8000 F100.00 
G00 Z2.0000 
G00 X-32.4000 Y51.3800 
G01 Z-1.8000 F100.00 
G00 Z2.0000 
G00 X-29.8000 Y50.2300 
G01 Z-1.8000 F100.00 
G00 Z2.0000 
G00 X-29.8000 Y52.7700 
G01 Z-1.8000 F100.00 
G00 Z2.0000 
G00 X-26.7000 Y55.9000 
G01 Z-1.8000 F100.00 
G00 Z2.0000 
G00 X-29.4300 Y58.1100 
G01 Z-1.8000 F100.00 
G00 Z2.0000 
G00 X-31.9700 Y58.1100 
G01 Z-1.8000 F100.00 
G00 Z2.0000 
G00 X-23.6800 Y57.9000 
G01 Z-1.8000 F100.00 
G00 Z2.0000 
G00 X-32.7400 Y35.1900 
G01 Z-1.8000 F100.00 
G00 Z2.0000 
G00 X-32.7100 Y33.1000 
G01 Z-1.8000 F100.00 
G00 Z2.0000 
G00 X-27.7900 Y30.5000 
G01 Z-1.8000 F100.00 
G00 Z2.0000 
G00 X-27.2000 Y25.3000 
G01 Z-1.8000 F100.00 
G00 Z2.0000 
G00 X-21.2000 Y23.9000 
G01 Z-1.8000 F100.00 
G00 Z2.0000 
G00 X-16.5000 Y23.9000 
G01 Z-1.8000 F100.00 
G00 Z2.0000 
G00 X-17.9300 Y30.5000 
G01 Z-1.8000 F100.00 
G00 Z2.0000 
G00 X-19.7900 Y30.5000 
G01 Z-1.8000 F100.00 
G00 Z2.0000 
G00 X-33.2000 Y23.9000 
G01 Z-1.8000 F100.00 
G00 Z2.0000 
G00 X-33.2000 Y11.9000 
G01 Z-1.8000 F100.00 
G00 Z2.0000 
G00 X-21.2000 Y11.9000 
G01 Z-1.8000 F100.00 
G00 Z2.0000 
G00 X-16.5000 Y11.9000 
G01 Z-1.8000 F100.00 
G00 Z2.0000 
M05
G00 Z30.0000 
G00 X0.0000 Y0.0000 
M06 T02  ; 1.2000 
G01 Z0.0000 F100.00 
M06 
G00 Z2.0000 
M03
G04 P3.000000
G00 X-3.1700 Y4.6000 
G01 Z-1.8000 F100.00 
G00 Z2.0000 
G00 X-8.1700 Y4.6000 
G01 Z-1.8000 F100.00 
G00 Z2.0000 
G00 X-13.1700 Y4.6000 
G01 Z-1.8000 F100.00 
G00 Z2.0000 
G00 X-18.5000 Y4.6000 
G01 Z-1.8000 F100.00 
G00 Z2.0000 
G00 X-23.5000 Y4.6000 
G01 Z-1.8000 F100.00 
G00 Z2.0000 
G00 X-28.7200 Y4.6000 
G01 Z-1.8000 F100.00 
G00 Z2.0000 
G00 X-33.7200 Y4.6000 
G01 Z-1.8000 F100.00 
G00 Z2.0000 
T01 
G00 Z10.0000 
M05
M02
